; generated by PrusaSlicer 2.2.0+ on 2020-12-20 at 08:16:12 UTC

; 

; external perimeters extrusion width = 0.45mm
; perimeters extrusion width = 0.45mm
; infill extrusion width = 0.45mm
; solid infill extrusion width = 0.45mm
; top infill extrusion width = 0.40mm
; first layer extrusion width = 0.42mm

M201 X500 Y500 Z100 E5000 ; sets maximum accelerations, mm/sec^2
M203 X500 Y500 Z10 E60 ; sets maximum feedrates, mm/sec
M204 P500 R1000 T500 ; sets acceleration (P, T) and retract acceleration (R), mm/sec^2
M205 X8.00 Y8.00 Z0.40 E5.00 ; sets the jerk limits, mm/sec
M205 S0 T0 ; sets the minimum extruding and travel feed rate, mm/sec
M107
M190 S80 ; set bed temperature and wait for it to be reached
M104 S220 ; set temperature
G28 ; Home
M109 S220 ; set temperature and wait for it to be reached
G21 ; set units to millimeters
G90 ; use absolute coordinates
M83 ; use relative distances for extrusion
; Filament gcode
;BEFORE_LAYER_CHANGE
;0.32


G1 Z0.320 F9000.000
;AFTER_LAYER_CHANGE
;0.32
G1 E-5.00000 F3600.00000
G1 X93.277 Y93.403 F9000.000
G1 E5.00000 F2400.00000
G1 F1200.000
G1 X94.035 Y92.858 E0.04362
G1 X94.945 Y92.651 E0.04362
G1 X125.002 Y92.650 E1.40492
G1 X125.875 Y92.819 E0.04154
G1 X126.619 Y93.298 E0.04136
G1 X127.136 Y94.021 E0.04154
G1 X127.347 Y94.884 E0.04154
G1 X127.349 Y125.044 E1.40970
G1 X127.179 Y125.878 E0.03980
G1 X126.723 Y126.597 E0.03980
G1 X125.941 Y127.153 E0.04484
G1 X125.006 Y127.350 E0.04466
G1 X94.956 Y127.349 E1.40456
G1 X94.122 Y127.179 E0.03980
G1 X93.403 Y126.723 E0.03980
G1 X92.847 Y125.941 E0.04484
G1 X92.650 Y125.006 E0.04466
G1 X92.651 Y94.956 E1.40456
G1 X92.821 Y94.122 E0.03980
G1 X93.245 Y93.453 E0.03699
G1 E-3.50000 F3600.00000
G1 F7200.000
G1 X94.035 Y92.858 E-0.46987
G1 X94.945 Y92.651 E-0.44330
G1 X96.022 Y92.651 E-0.51183
G1 E-0.07500 F3600.00000
G1 X95.211 Y95.211 F9000.000
G1 E5.00000 F2400.00000
G1 F1200.000
G1 X124.789 Y95.211 E1.38246
G1 X124.789 Y124.789 E1.38246
G1 X95.211 Y124.789 E1.38246
G1 X95.211 Y95.271 E1.37966
G1 E-3.50000 F3600.00000
G1 F7200.000
G1 X98.211 Y95.265 E-1.42500
G1 E-0.07500 F3600.00000
G1 X124.683 Y96.029 F9000.000
G1 E5.00000 F2400.00000
G1 F1200.000
G1 X124.129 Y95.475 E0.03675
G1 X123.631 Y95.475 E0.02336
G1 X124.525 Y96.369 E0.05931
G1 X124.525 Y96.868 E0.02336
G1 X123.132 Y95.475 E0.09235
G1 X122.634 Y95.475 E0.02336
G1 X124.525 Y97.366 E0.12539
G1 X124.525 Y97.864 E0.02336
G1 X122.136 Y95.475 E0.15842
G1 X121.637 Y95.475 E0.02336
G1 X124.525 Y98.363 E0.19146
G1 X124.525 Y98.861 E0.02336
G1 X121.139 Y95.475 E0.22450
G1 X120.641 Y95.475 E0.02336
G1 X124.525 Y99.359 E0.25754
G1 X124.525 Y99.858 E0.02336
G1 X120.142 Y95.475 E0.29058
G1 X119.644 Y95.475 E0.02336
G1 X124.525 Y100.356 E0.32362
G1 X124.525 Y100.854 E0.02336
G1 X119.146 Y95.475 E0.35665
G1 X118.647 Y95.475 E0.02336
G1 X124.525 Y101.353 E0.38969
G1 X124.525 Y101.851 E0.02336
G1 X118.149 Y95.475 E0.42273
G1 X117.651 Y95.475 E0.02336
G1 X124.525 Y102.349 E0.45577
G1 X124.525 Y102.848 E0.02336
G1 X117.152 Y95.475 E0.48881
G1 X116.654 Y95.475 E0.02336
G1 X124.525 Y103.346 E0.52185
G1 X124.525 Y103.844 E0.02336
G1 X116.156 Y95.475 E0.55488
G1 X115.657 Y95.475 E0.02336
G1 X124.525 Y104.343 E0.58792
G1 X124.525 Y104.841 E0.02336
G1 X115.159 Y95.475 E0.62096
G1 X114.661 Y95.475 E0.02336
G1 X124.525 Y105.339 E0.65400
G1 X124.525 Y105.838 E0.02336
G1 X114.162 Y95.475 E0.68704
G1 X113.664 Y95.475 E0.02336
G1 X124.525 Y106.336 E0.72008
G1 X124.525 Y106.834 E0.02336
G1 X113.166 Y95.475 E0.75312
G1 X112.667 Y95.475 E0.02336
G1 X124.525 Y107.333 E0.78615
G1 X124.525 Y107.831 E0.02336
G1 X112.169 Y95.475 E0.81919
G1 X111.671 Y95.475 E0.02336
G1 X124.525 Y108.329 E0.85223
G1 X124.525 Y108.828 E0.02336
G1 X111.172 Y95.475 E0.88527
G1 X110.674 Y95.475 E0.02336
G1 X124.525 Y109.326 E0.91831
G1 X124.525 Y109.824 E0.02336
G1 X110.176 Y95.475 E0.95135
G1 X109.677 Y95.475 E0.02336
G1 X124.525 Y110.323 E0.98438
G1 X124.525 Y110.821 E0.02336
G1 X109.179 Y95.475 E1.01742
G1 X108.681 Y95.475 E0.02336
G1 X124.525 Y111.319 E1.05046
G1 X124.525 Y111.818 E0.02336
G1 X108.182 Y95.475 E1.08350
G1 X107.684 Y95.475 E0.02336
G1 X124.525 Y112.316 E1.11654
G1 X124.525 Y112.814 E0.02336
G1 X107.186 Y95.475 E1.14958
G1 X106.687 Y95.475 E0.02336
G1 X124.525 Y113.313 E1.18261
G1 X124.525 Y113.811 E0.02336
G1 X106.189 Y95.475 E1.21565
G1 X105.691 Y95.475 E0.02336
G1 X124.525 Y114.309 E1.24869
G1 X124.525 Y114.808 E0.02336
G1 X105.192 Y95.475 E1.28173
G1 X104.694 Y95.475 E0.02336
G1 X124.525 Y115.306 E1.31477
G1 X124.525 Y115.804 E0.02336
G1 X104.196 Y95.475 E1.34781
G1 X103.697 Y95.475 E0.02336
G1 X124.525 Y116.303 E1.38085
G1 X124.525 Y116.801 E0.02336
G1 X103.199 Y95.475 E1.41388
G1 X102.701 Y95.475 E0.02336
G1 X124.525 Y117.299 E1.44692
G1 X124.525 Y117.798 E0.02336
G1 X102.202 Y95.475 E1.47996
G1 X101.704 Y95.475 E0.02336
G1 X124.525 Y118.296 E1.51300
G1 X124.525 Y118.794 E0.02336
G1 X101.206 Y95.475 E1.54604
G1 X100.707 Y95.475 E0.02336
G1 X124.525 Y119.293 E1.57908
G1 X124.525 Y119.791 E0.02336
G1 X100.209 Y95.475 E1.61211
G1 X99.711 Y95.475 E0.02336
G1 X124.525 Y120.289 E1.64515
G1 X124.525 Y120.788 E0.02336
G1 X99.212 Y95.475 E1.67819
G1 X98.714 Y95.475 E0.02336
G1 X124.525 Y121.286 E1.71123
G1 X124.525 Y121.784 E0.02336
G1 X98.216 Y95.475 E1.74427
G1 X97.717 Y95.475 E0.02336
G1 X124.525 Y122.283 E1.77731
G1 X124.525 Y122.781 E0.02336
G1 X97.219 Y95.475 E1.81034
G1 X96.721 Y95.475 E0.02336
G1 X124.525 Y123.279 E1.84338
G1 X124.525 Y123.778 E0.02336
G1 X96.222 Y95.475 E1.87642
G1 X95.724 Y95.475 E0.02336
G1 X124.525 Y124.276 E1.90946
G1 X124.525 Y124.525 E0.01168
G1 X124.276 Y124.525 E0.01168
G1 X95.475 Y95.724 E1.90946
G1 X95.475 Y96.222 E0.02336
G1 X123.778 Y124.525 E1.87642
G1 X123.279 Y124.525 E0.02336
G1 X95.475 Y96.721 E1.84338
G1 X95.475 Y97.219 E0.02336
G1 X122.781 Y124.525 E1.81034
G1 X122.283 Y124.525 E0.02336
G1 X95.475 Y97.717 E1.77730
G1 X95.475 Y98.216 E0.02336
G1 X121.784 Y124.525 E1.74426
G1 X121.286 Y124.525 E0.02336
G1 X95.475 Y98.714 E1.71123
G1 X95.475 Y99.212 E0.02336
G1 X120.788 Y124.525 E1.67819
G1 X120.289 Y124.525 E0.02336
G1 X95.475 Y99.711 E1.64515
G1 X95.475 Y100.209 E0.02336
G1 X119.791 Y124.525 E1.61211
G1 X119.293 Y124.525 E0.02336
G1 X95.475 Y100.707 E1.57907
G1 X95.475 Y101.206 E0.02336
G1 X118.794 Y124.525 E1.54603
G1 X118.296 Y124.525 E0.02336
G1 X95.475 Y101.704 E1.51299
G1 X95.475 Y102.202 E0.02336
G1 X117.798 Y124.525 E1.47996
G1 X117.299 Y124.525 E0.02336
G1 X95.475 Y102.701 E1.44692
G1 X95.475 Y103.199 E0.02336
G1 X116.801 Y124.525 E1.41388
G1 X116.303 Y124.525 E0.02336
G1 X95.475 Y103.697 E1.38084
G1 X95.475 Y104.196 E0.02336
G1 X115.804 Y124.525 E1.34780
G1 X115.306 Y124.525 E0.02336
G1 X95.475 Y104.694 E1.31476
G1 X95.475 Y105.192 E0.02336
G1 X114.808 Y124.525 E1.28173
G1 X114.309 Y124.525 E0.02336
G1 X95.475 Y105.691 E1.24869
G1 X95.475 Y106.189 E0.02336
G1 X113.811 Y124.525 E1.21565
G1 X113.313 Y124.525 E0.02336
G1 X95.475 Y106.687 E1.18261
G1 X95.475 Y107.186 E0.02336
G1 X112.814 Y124.525 E1.14957
G1 X112.316 Y124.525 E0.02336
G1 X95.475 Y107.684 E1.11653
G1 X95.475 Y108.182 E0.02336
G1 X111.818 Y124.525 E1.08350
G1 X111.319 Y124.525 E0.02336
G1 X95.475 Y108.681 E1.05046
G1 X95.475 Y109.179 E0.02336
G1 X110.821 Y124.525 E1.01742
G1 X110.323 Y124.525 E0.02336
G1 X95.475 Y109.677 E0.98438
G1 X95.475 Y110.176 E0.02336
G1 X109.824 Y124.525 E0.95134
G1 X109.326 Y124.525 E0.02336
G1 X95.475 Y110.674 E0.91830
G1 X95.475 Y111.172 E0.02336
G1 X108.828 Y124.525 E0.88526
G1 X108.329 Y124.525 E0.02336
G1 X95.475 Y111.671 E0.85223
G1 X95.475 Y112.169 E0.02336
G1 X107.831 Y124.525 E0.81919
G1 X107.333 Y124.525 E0.02336
G1 X95.475 Y112.667 E0.78615
G1 X95.475 Y113.166 E0.02336
G1 X106.834 Y124.525 E0.75311
G1 X106.336 Y124.525 E0.02336
G1 X95.475 Y113.664 E0.72007
G1 X95.475 Y114.162 E0.02336
G1 X105.838 Y124.525 E0.68703
G1 X105.339 Y124.525 E0.02336
G1 X95.475 Y114.661 E0.65400
G1 X95.475 Y115.159 E0.02336
G1 X104.841 Y124.525 E0.62096
G1 X104.343 Y124.525 E0.02336
G1 X95.475 Y115.657 E0.58792
G1 X95.475 Y116.156 E0.02336
G1 X103.844 Y124.525 E0.55488
G1 X103.346 Y124.525 E0.02336
G1 X95.475 Y116.654 E0.52184
G1 X95.475 Y117.152 E0.02336
G1 X102.848 Y124.525 E0.48880
G1 X102.349 Y124.525 E0.02336
G1 X95.475 Y117.651 E0.45577
G1 X95.475 Y118.149 E0.02336
G1 X101.851 Y124.525 E0.42273
G1 X101.353 Y124.525 E0.02336
G1 X95.475 Y118.647 E0.38969
G1 X95.475 Y119.146 E0.02336
G1 X100.854 Y124.525 E0.35665
G1 X100.356 Y124.525 E0.02336
G1 X95.475 Y119.644 E0.32361
G1 X95.475 Y120.142 E0.02336
G1 X99.858 Y124.525 E0.29057
G1 X99.359 Y124.525 E0.02336
G1 X95.475 Y120.641 E0.25753
G1 X95.475 Y121.139 E0.02336
G1 X98.861 Y124.525 E0.22450
G1 X98.363 Y124.525 E0.02336
G1 X95.475 Y121.637 E0.19146
G1 X95.475 Y122.136 E0.02336
G1 X97.864 Y124.525 E0.15842
G1 X97.366 Y124.525 E0.02336
G1 X95.475 Y122.634 E0.12538
G1 X95.475 Y123.132 E0.02336
G1 X96.868 Y124.525 E0.09234
G1 X96.369 Y124.525 E0.02336
G1 X95.475 Y123.631 E0.05930
G1 X95.475 Y124.129 E0.02336
G1 X96.029 Y124.683 E0.03675
M106 S173.4
;BEFORE_LAYER_CHANGE
;0.52


G1 Z0.520 F9000.000
;AFTER_LAYER_CHANGE
;0.52
G1 E-5.00000 F3600.00000
G1 X96.029 Y127.349 F9000.000
G1 E5.00000 F2400.00000
G1 X94.956 Y127.349 E0.03365
G1 X94.122 Y127.179 E0.02670
G1 X93.403 Y126.723 E0.02670
G1 X92.847 Y125.941 E0.03008
G1 X92.650 Y125.006 E0.02996
G1 X92.651 Y94.956 E0.94220
G1 X92.821 Y94.122 E0.02670
G1 X93.277 Y93.403 E0.02670
G1 X94.035 Y92.858 E0.02926
G1 X94.945 Y92.651 E0.02926
G1 X125.002 Y92.650 E0.94244
G1 X125.875 Y92.819 E0.02786
G1 X126.619 Y93.298 E0.02775
G1 X127.136 Y94.021 E0.02786
G1 X127.347 Y94.884 E0.02786
G1 X127.349 Y125.044 E0.94564
G1 X127.179 Y125.878 E0.02670
G1 X126.723 Y126.597 E0.02670
G1 X125.941 Y127.153 E0.03008
G1 X125.006 Y127.350 E0.02996
G1 X96.089 Y127.349 E0.90667
G1 E-3.50000 F3600.00000
G1 F7200.000
G1 X94.956 Y127.349 E-0.53826
G1 X94.122 Y127.179 E-0.40443
G1 X93.403 Y126.723 E-0.40443
G1 X93.308 Y126.589 E-0.07788
G1 E-0.07500 F3600.00000
G1 X96.089 Y124.774 F9000.000
G1 E5.00000 F2400.00000
G1 F1500.000
G1 X95.226 Y124.774 E0.02920
G1 X95.226 Y95.226 E1.00014
G1 X124.774 Y95.226 E1.00014
G1 X124.774 Y124.774 E1.00014
G1 X96.149 Y124.774 E0.96890
G1 E-3.50000 F3600.00000
G1 F7200.000
G1 X95.226 Y124.774 E-0.43829
G1 X95.226 Y122.696 E-0.98671
G1 E-0.07500 F3600.00000
G1 X96.179 Y95.349 F9000.000
G1 E5.00000 F2400.00000
G1 X95.532 Y95.996 E0.03129
G1 X95.532 Y96.577 E0.01985
G1 X96.577 Y95.532 E0.05052
G1 X97.158 Y95.532 E0.01985
G1 X95.532 Y97.158 E0.07859
G1 X95.532 Y97.739 E0.01985
G1 X97.739 Y95.532 E0.10666
G1 X98.320 Y95.532 E0.01985
G1 X95.532 Y98.320 E0.13474
G1 X95.532 Y98.901 E0.01985
G1 X98.901 Y95.532 E0.16281
G1 X99.483 Y95.532 E0.01985
G1 X95.532 Y99.483 E0.19089
G1 X95.532 Y100.064 E0.01985
G1 X100.064 Y95.532 E0.21896
G1 X100.645 Y95.532 E0.01985
G1 X95.532 Y100.645 E0.24704
G1 X95.532 Y101.226 E0.01985
G1 X101.226 Y95.532 E0.27511
G1 X101.807 Y95.532 E0.01985
G1 X95.532 Y101.807 E0.30318
G1 X95.532 Y102.388 E0.01985
G1 X102.388 Y95.532 E0.33126
G1 X102.969 Y95.532 E0.01985
G1 X95.532 Y102.969 E0.35933
G1 X95.532 Y103.550 E0.01985
G1 X103.550 Y95.532 E0.38741
G1 X104.131 Y95.532 E0.01985
G1 X95.532 Y104.131 E0.41548
G1 X95.532 Y104.712 E0.01985
G1 X104.712 Y95.532 E0.44356
G1 X105.293 Y95.532 E0.01985
G1 X95.532 Y105.293 E0.47163
G1 X95.532 Y105.874 E0.01985
G1 X105.874 Y95.532 E0.49970
G1 X106.455 Y95.532 E0.01985
G1 X95.532 Y106.455 E0.52778
G1 X95.532 Y107.036 E0.01985
G1 X107.036 Y95.532 E0.55585
G1 X107.617 Y95.532 E0.01985
G1 X95.532 Y107.617 E0.58393
G1 X95.532 Y108.198 E0.01985
G1 X108.198 Y95.532 E0.61200
G1 X108.780 Y95.532 E0.01985
G1 X95.532 Y108.780 E0.64008
G1 X95.532 Y109.361 E0.01985
G1 X109.361 Y95.532 E0.66815
G1 X109.942 Y95.532 E0.01985
G1 X95.532 Y109.942 E0.69622
G1 X95.532 Y110.523 E0.01985
G1 X110.523 Y95.532 E0.72430
G1 X111.104 Y95.532 E0.01985
G1 X95.532 Y111.104 E0.75237
G1 X95.532 Y111.685 E0.01985
G1 X111.685 Y95.532 E0.78045
G1 X112.266 Y95.532 E0.01985
G1 X95.532 Y112.266 E0.80852
G1 X95.532 Y112.847 E0.01985
G1 X112.847 Y95.532 E0.83660
G1 X113.428 Y95.532 E0.01985
G1 X95.532 Y113.428 E0.86467
G1 X95.532 Y114.009 E0.01985
G1 X114.009 Y95.532 E0.89275
G1 X114.590 Y95.532 E0.01985
G1 X95.532 Y114.590 E0.92082
G1 X95.532 Y115.171 E0.01985
G1 X115.171 Y95.532 E0.94889
G1 X115.752 Y95.532 E0.01985
G1 X95.532 Y115.752 E0.97697
G1 X95.532 Y116.333 E0.01985
G1 X116.333 Y95.532 E1.00504
G1 X116.914 Y95.532 E0.01985
G1 X95.532 Y116.914 E1.03312
G1 X95.532 Y117.495 E0.01985
G1 X117.495 Y95.532 E1.06119
G1 X118.077 Y95.532 E0.01985
G1 X95.532 Y118.077 E1.08927
G1 X95.532 Y118.658 E0.01985
G1 X118.658 Y95.532 E1.11734
G1 X119.239 Y95.532 E0.01985
G1 X95.532 Y119.239 E1.14541
G1 X95.532 Y119.820 E0.01985
G1 X119.820 Y95.532 E1.17349
G1 X120.401 Y95.532 E0.01985
G1 X95.532 Y120.401 E1.20156
G1 X95.532 Y120.982 E0.01985
G1 X120.982 Y95.532 E1.22964
G1 X121.563 Y95.532 E0.01985
G1 X95.532 Y121.563 E1.25771
G1 X95.532 Y122.144 E0.01985
G1 X122.144 Y95.532 E1.28579
G1 X122.725 Y95.532 E0.01985
G1 X95.532 Y122.725 E1.31386
G1 X95.532 Y123.306 E0.01985
G1 X123.306 Y95.532 E1.34193
G1 X123.887 Y95.532 E0.01985
G1 X95.532 Y123.887 E1.37001
G1 X95.532 Y124.468 E0.01985
G1 X124.468 Y95.532 E1.39808
G1 X124.468 Y96.113 E0.01985
G1 X96.113 Y124.468 E1.37001
G1 X96.694 Y124.468 E0.01985
G1 X124.468 Y96.694 E1.34194
G1 X124.468 Y97.275 E0.01985
G1 X97.275 Y124.468 E1.31387
G1 X97.856 Y124.468 E0.01985
G1 X124.468 Y97.856 E1.28579
G1 X124.468 Y98.437 E0.01985
G1 X98.437 Y124.468 E1.25772
G1 X99.018 Y124.468 E0.01985
G1 X124.468 Y99.018 E1.22964
G1 X124.468 Y99.599 E0.01985
G1 X99.599 Y124.468 E1.20157
G1 X100.180 Y124.468 E0.01985
G1 X124.468 Y100.180 E1.17349
G1 X124.468 Y100.761 E0.01985
G1 X100.761 Y124.468 E1.14542
G1 X101.342 Y124.468 E0.01985
G1 X124.468 Y101.342 E1.11735
G1 X124.468 Y101.923 E0.01985
G1 X101.923 Y124.468 E1.08927
G1 X102.504 Y124.468 E0.01985
G1 X124.468 Y102.504 E1.06120
G1 X124.468 Y103.085 E0.01985
G1 X103.085 Y124.468 E1.03312
G1 X103.667 Y124.468 E0.01985
G1 X124.468 Y103.667 E1.00505
G1 X124.468 Y104.248 E0.01985
G1 X104.248 Y124.468 E0.97697
G1 X104.829 Y124.468 E0.01985
G1 X124.468 Y104.829 E0.94890
G1 X124.468 Y105.410 E0.01985
G1 X105.410 Y124.468 E0.92083
G1 X105.991 Y124.468 E0.01985
G1 X124.468 Y105.991 E0.89275
G1 X124.468 Y106.572 E0.01985
G1 X106.572 Y124.468 E0.86468
G1 X107.153 Y124.468 E0.01985
G1 X124.468 Y107.153 E0.83660
G1 X124.468 Y107.734 E0.01985
G1 X107.734 Y124.468 E0.80853
G1 X108.315 Y124.468 E0.01985
G1 X124.468 Y108.315 E0.78045
G1 X124.468 Y108.896 E0.01985
G1 X108.896 Y124.468 E0.75238
G1 X109.477 Y124.468 E0.01985
G1 X124.468 Y109.477 E0.72430
G1 X124.468 Y110.058 E0.01985
G1 X110.058 Y124.468 E0.69623
G1 X110.639 Y124.468 E0.01985
G1 X124.468 Y110.639 E0.66816
G1 X124.468 Y111.220 E0.01985
G1 X111.220 Y124.468 E0.64008
G1 X111.801 Y124.468 E0.01985
G1 X124.468 Y111.801 E0.61201
G1 X124.468 Y112.382 E0.01985
G1 X112.382 Y124.468 E0.58393
G1 X112.964 Y124.468 E0.01985
G1 X124.468 Y112.964 E0.55586
G1 X124.468 Y113.545 E0.01985
G1 X113.545 Y124.468 E0.52778
G1 X114.126 Y124.468 E0.01985
G1 X124.468 Y114.126 E0.49971
G1 X124.468 Y114.707 E0.01985
G1 X114.707 Y124.468 E0.47164
G1 X115.288 Y124.468 E0.01985
G1 X124.468 Y115.288 E0.44356
G1 X124.468 Y115.869 E0.01985
G1 X115.869 Y124.468 E0.41549
G1 X116.450 Y124.468 E0.01985
G1 X124.468 Y116.450 E0.38741
G1 X124.468 Y117.031 E0.01985
G1 X117.031 Y124.468 E0.35934
G1 X117.612 Y124.468 E0.01985
G1 X124.468 Y117.612 E0.33126
G1 X124.468 Y118.193 E0.01985
G1 X118.193 Y124.468 E0.30319
G1 X118.774 Y124.468 E0.01985
G1 X124.468 Y118.774 E0.27512
G1 X124.468 Y119.355 E0.01985
G1 X119.355 Y124.468 E0.24704
G1 X119.936 Y124.468 E0.01985
G1 X124.468 Y119.936 E0.21897
G1 X124.468 Y120.517 E0.01985
G1 X120.517 Y124.468 E0.19089
G1 X121.098 Y124.468 E0.01985
G1 X124.468 Y121.098 E0.16282
G1 X124.468 Y121.679 E0.01985
G1 X121.679 Y124.468 E0.13474
G1 X122.261 Y124.468 E0.01985
G1 X124.468 Y122.261 E0.10667
G1 X124.468 Y122.842 E0.01985
G1 X122.842 Y124.468 E0.07860
