; generated by PrusaSlicer 2.3.0-rc2+ on 2021-01-23 at 07:28:28 UTC

; 

; external perimeters extrusion width = 0.45mm
; perimeters extrusion width = 0.45mm
; infill extrusion width = 0.45mm
; solid infill extrusion width = 0.45mm
; top infill extrusion width = 0.40mm
; support material extrusion width = 0.38mm
; first layer extrusion width = 0.42mm

M201 X500 Y500 Z100 E5000 ; sets maximum accelerations, mm/sec^2
M203 X500 Y500 Z10 E60 ; sets maximum feedrates, mm/sec
M204 P500 R1000 T500 ; sets acceleration (P, T) and retract acceleration (R), mm/sec^2
M205 X8.00 Y8.00 Z0.40 E5.00 ; sets the jerk limits, mm/sec
M205 S0 T0 ; sets the minimum extruding and travel feed rate, mm/sec
M107
M190 S70 ; set bed temperature and wait for it to be reached
M104 S200 ; set temperature
;TYPE:Custom
G28 ; Home
M109 S200 ; set temperature and wait for it to be reached
G21 ; set units to millimeters
G90 ; use absolute coordinates
M83 ; use relative distances for extrusion
; Filament gcode
;LAYER_CHANGE
;Z:0.1
;HEIGHT:0.1
;BEFORE_LAYER_CHANGE
;0.1


G1 E-5.00000 F3600.000
G1 Z0.500 F9000.000
;AFTER_LAYER_CHANGE
;0.1
G1 X38.112 Y38.887
G1 Z0.100
G1 E5.00000 F2400.000
;TYPE:Skirt
;WIDTH:0.42
G1 F1200.000
G1 X39.442 Y37.665 E0.02991
G1 X41.121 Y36.441 E0.03443
G1 X42.642 Y35.572 E0.02904
G1 X44.294 Y34.843 E0.02991
G1 X45.955 Y34.307 E0.02893
G1 X47.669 Y33.941 E0.02904
G1 X49.418 Y33.751 E0.02915
G1 X170.487 Y32.932 E2.00608
G1 X172.164 Y33.024 E0.02783
G1 X173.518 Y33.218 E0.02265
G1 X175.121 Y33.594 E0.02728
G1 X176.730 Y34.141 E0.02816
G1 X178.235 Y34.823 E0.02739
G1 X179.429 Y35.496 E0.02271
G1 X180.780 Y36.420 E0.02712
G1 X182.082 Y37.512 E0.02816
G1 X183.235 Y38.688 E0.02728
G1 X184.105 Y39.747 E0.02271
G1 X185.030 Y41.097 E0.02712
G1 X185.853 Y42.591 E0.02827
G1 X186.526 Y44.166 E0.02838
G1 X187.019 Y45.723 E0.02706
G1 X187.317 Y47.064 E0.02276
G1 X187.533 Y48.697 E0.02728
G1 X187.591 Y50.364 E0.02765
G1 X186.441 Y169.590 E1.97559
G1 X186.331 Y170.907 E0.02189
G1 X186.076 Y172.419 E0.02542
G1 X185.368 Y174.839 E0.04177
G1 X184.764 Y176.256 E0.02553
G1 X184.174 Y177.378 E0.02101
G1 X183.509 Y178.442 E0.02079
G1 X182.569 Y179.704 E0.02607
G1 X181.363 Y181.030 E0.02969
G1 X180.000 Y182.243 E0.03024
G1 X178.284 Y183.451 E0.03476
G1 X176.694 Y184.319 E0.03002
G1 X175.058 Y185.001 E0.02937
G1 X173.316 Y185.523 E0.03013
G1 X171.258 Y185.891 E0.03465
G1 X169.496 Y186.005 E0.02926
G1 X59.460 Y186.426 E1.82324
G1 X57.877 Y186.309 E0.02629
G1 X56.618 Y186.111 E0.02112
G1 X55.381 Y185.820 E0.02106
G1 X53.862 Y185.328 E0.02646
G1 X52.681 Y184.831 E0.02123
G1 X51.262 Y184.091 E0.02651
G1 X50.186 Y183.408 E0.02112
G1 X48.967 Y182.488 E0.02531
G1 X47.633 Y181.262 E0.03002
G1 X46.490 Y179.969 E0.02860
G1 X45.467 Y178.546 E0.02904
G1 X44.619 Y177.073 E0.02816
G1 X43.898 Y175.468 E0.02915
G1 X43.356 Y173.837 E0.02849
G1 X42.977 Y172.146 E0.02871
G1 X42.777 Y170.512 E0.02728
G1 X33.214 Y51.578 E1.97702
G1 X33.215 Y50.237 E0.02222
G1 X33.357 Y48.610 E0.02706
G1 X33.654 Y47.004 E0.02706
G1 X34.019 Y45.683 E0.02271
G1 X34.582 Y44.167 E0.02679
G1 X35.301 Y42.686 E0.02728
G1 X35.997 Y41.521 E0.02249
G1 X36.985 Y40.158 E0.02789
G1 X38.073 Y38.932 E0.02716
G1 X38.370 Y39.196 F9000.000
G1 F1200.000
G1 X39.700 Y37.969 E0.02998
G1 X41.344 Y36.771 E0.03371
G1 X42.831 Y35.923 E0.02836
G1 X44.445 Y35.212 E0.02921
G1 X46.062 Y34.691 E0.02815
G1 X47.736 Y34.334 E0.02836
G1 X49.450 Y34.149 E0.02858
G1 X170.488 Y33.331 E2.00556
G1 X172.127 Y33.420 E0.02720
G1 X173.442 Y33.609 E0.02200
G1 X175.008 Y33.976 E0.02666
G1 X176.586 Y34.512 E0.02762
G1 X178.051 Y35.176 E0.02666
G1 X179.217 Y35.833 E0.02216
G1 X180.537 Y36.736 E0.02650
G1 X181.814 Y37.807 E0.02762
G1 X182.940 Y38.956 E0.02666
G1 X183.785 Y39.984 E0.02205
G1 X184.690 Y41.303 E0.02650
G1 X185.497 Y42.769 E0.02772
G1 X186.154 Y44.307 E0.02772
G1 X186.636 Y45.835 E0.02655
G1 X186.926 Y47.138 E0.02211
G1 X187.137 Y48.746 E0.02687
G1 X187.193 Y50.354 E0.02666
G1 X186.043 Y169.570 E1.97542
G1 X185.936 Y170.855 E0.02137
G1 X185.686 Y172.339 E0.02495
G1 X184.994 Y174.702 E0.04078
G1 X184.403 Y176.087 E0.02495
G1 X183.830 Y177.177 E0.02041
G1 X183.181 Y178.216 E0.02030
G1 X182.255 Y179.460 E0.02570
G1 X181.081 Y180.749 E0.02890
G1 X179.749 Y181.934 E0.02953
G1 X178.072 Y183.113 E0.03397
G1 X176.519 Y183.961 E0.02932
G1 X174.921 Y184.627 E0.02868
G1 X173.226 Y185.134 E0.02932
G1 X171.208 Y185.495 E0.03397
G1 X169.487 Y185.607 E0.02857
G1 X59.481 Y186.028 E1.82274
G1 X57.921 Y185.913 E0.02591
G1 X56.698 Y185.721 E0.02051
G1 X55.490 Y185.437 E0.02056
G1 X53.999 Y184.954 E0.02597
G1 X52.852 Y184.471 E0.02062
G1 X51.460 Y183.745 E0.02602
G1 X50.415 Y183.082 E0.02051
G1 X49.208 Y182.170 E0.02506
G1 X47.916 Y180.980 E0.02911
G1 X46.799 Y179.717 E0.02794
G1 X45.804 Y178.332 E0.02826
G1 X44.972 Y176.888 E0.02762
G1 X44.268 Y175.321 E0.02847
G1 X43.739 Y173.727 E0.02783
G1 X43.369 Y172.075 E0.02804
G1 X43.174 Y170.478 E0.02666
G1 X33.612 Y51.559 E1.97678
G1 X33.614 Y50.241 E0.02184
G1 X33.762 Y48.596 E0.02735
G1 X34.060 Y47.015 E0.02666
G1 X34.503 Y45.489 E0.02634
G1 X34.984 Y44.244 E0.02211
G1 X35.686 Y42.811 E0.02644
G1 X36.526 Y41.447 E0.02655
G1 X37.302 Y40.400 E0.02158
G1 X38.331 Y39.241 E0.02569
G1 X38.630 Y39.508 F9000.000
G1 F1200.000
G1 X38.732 Y39.394 E0.00253
G1 X40.212 Y38.067 E0.03293
G1 X41.615 Y37.070 E0.02851
G1 X43.014 Y36.277 E0.02665
G1 X44.583 Y35.586 E0.02841
G1 X46.168 Y35.075 E0.02758
G1 X47.796 Y34.728 E0.02758
G1 X49.476 Y34.546 E0.02800
G1 X170.489 Y33.729 E2.00516
G1 X172.090 Y33.817 E0.02656
G1 X173.372 Y34.002 E0.02146
G1 X174.902 Y34.360 E0.02603
G1 X176.442 Y34.884 E0.02696
G1 X177.873 Y35.533 E0.02603
G1 X179.004 Y36.170 E0.02150
G1 X180.294 Y37.052 E0.02589
G1 X181.545 Y38.101 E0.02707
G1 X182.687 Y39.270 E0.02707
G1 X183.665 Y40.491 E0.02593
G1 X184.385 Y41.569 E0.02146
G1 X185.140 Y42.946 E0.02603
G1 X185.779 Y44.443 E0.02696
G1 X186.252 Y45.941 E0.02603
G1 X186.533 Y47.205 E0.02146
G1 X186.741 Y48.788 E0.02645
G1 X186.794 Y50.352 E0.02593
G1 X185.645 Y169.549 E1.97511
G1 X185.362 Y171.930 E0.03973
G1 X185.017 Y173.364 E0.02444
G1 X184.622 Y174.559 E0.02084
G1 X184.042 Y175.918 E0.02448
G1 X183.483 Y176.981 E0.01991
G1 X182.848 Y177.997 E0.01985
G1 X181.940 Y179.214 E0.02516
G1 X180.798 Y180.468 E0.02810
G1 X179.503 Y181.620 E0.02872
G1 X177.860 Y182.776 E0.03329
G1 X176.344 Y183.603 E0.02862
G1 X174.790 Y184.251 E0.02789
G1 X173.135 Y184.746 E0.02862
G1 X171.158 Y185.100 E0.03329
G1 X169.478 Y185.209 E0.02789
G1 X59.494 Y185.629 E1.82237
G1 X57.965 Y185.517 E0.02541
G1 X56.778 Y185.330 E0.01991
G1 X55.599 Y185.054 E0.02006
G1 X54.143 Y184.582 E0.02537
G1 X53.023 Y184.111 E0.02012
G1 X51.664 Y183.402 E0.02541
G1 X50.638 Y182.752 E0.02012
G1 X49.455 Y181.857 E0.02458
G1 X48.198 Y180.699 E0.02831
G1 X47.104 Y179.461 E0.02738
G1 X46.137 Y178.114 E0.02748
G1 X45.325 Y176.704 E0.02696
G1 X44.639 Y175.173 E0.02779
G1 X44.122 Y173.617 E0.02717
G1 X43.762 Y172.004 E0.02738
G1 X43.572 Y170.445 E0.02603
G1 X34.011 Y51.546 E1.97644
G1 X34.012 Y50.261 E0.02130
G1 X34.157 Y48.649 E0.02682
G1 X34.448 Y47.105 E0.02603
G1 X34.881 Y45.614 E0.02572
G1 X35.348 Y44.406 E0.02146
G1 X36.037 Y43.001 E0.02593
G1 X36.857 Y41.668 E0.02593
G1 X37.618 Y40.643 E0.02115
G1 X38.590 Y39.553 E0.02420
G1 E-3.50000 F3600.000
;WIPE_START
G1 F7200.000
G1 X38.732 Y39.394 E-0.10111
G1 X40.212 Y38.067 E-0.94416
G1 X40.864 Y37.604 E-0.37973
;WIPE_END
G1 E-0.07500 F3600.000
G1 Z0.600 F9000.000
G1 X43.898 Y44.141
G1 Z0.100
G1 E5.00000 F2400.000
;TYPE:Perimeter
G1 F1200.000
G1 X44.613 Y43.521 E0.01568
G1 X45.387 Y42.977 E0.01568
G1 X46.211 Y42.513 E0.01568
G1 X47.078 Y42.134 E0.01568
G1 X47.979 Y41.845 E0.01568
G1 X48.905 Y41.648 E0.01568
G1 X49.847 Y41.544 E0.01571
G1 X50.634 Y41.532 E0.01303
G1 X51.418 Y41.584 E0.01303
G1 X52.355 Y41.735 E0.01571
G1 X53.269 Y41.978 E0.01568
G1 X54.154 Y42.313 E0.01568
G1 X55.001 Y42.734 E0.01568
G1 X55.801 Y43.239 E0.01568
G1 X56.547 Y43.822 E0.01568
G1 X57.230 Y44.477 E0.01568
G1 X57.843 Y45.197 E0.01568
G1 X58.381 Y45.975 E0.01568
G1 X58.838 Y46.804 E0.01568
G1 X59.209 Y47.674 E0.01568
G1 X59.492 Y48.579 E0.01571
G1 X59.654 Y49.349 E0.01303
G1 X59.755 Y50.129 E0.01303
G1 X59.786 Y51.077 E0.01571
G1 X59.723 Y52.021 E0.01568
G1 X59.565 Y52.954 E0.01568
G1 X59.313 Y53.868 E0.01571
G1 X59.034 Y54.603 E0.01303
G1 X58.696 Y55.314 E0.01303
G1 X58.211 Y56.128 E0.01571
G1 X57.647 Y56.888 E0.01568
G1 X57.009 Y57.587 E0.01568
G1 X56.305 Y58.219 E0.01568
G1 X55.540 Y58.776 E0.01568
G1 X54.724 Y59.254 E0.01568
G1 X53.863 Y59.647 E0.01568
G1 X52.967 Y59.951 E0.01568
G1 X52.045 Y60.164 E0.01568
G1 X51.106 Y60.283 E0.01568
G1 X50.160 Y60.307 E0.01568
G1 X49.217 Y60.235 E0.01568
G1 X48.285 Y60.069 E0.01568
G1 X47.373 Y59.810 E0.01571
G1 X46.641 Y59.524 E0.01303
G1 X45.933 Y59.181 E0.01303
G1 X45.123 Y58.689 E0.01571
G1 X44.368 Y58.118 E0.01568
G1 X43.674 Y57.475 E0.01568
G1 X43.048 Y56.765 E0.01568
G1 X42.497 Y55.996 E0.01568
G1 X42.026 Y55.175 E0.01568
G1 X41.641 Y54.311 E0.01568
G1 X41.344 Y53.413 E0.01568
G1 X41.139 Y52.489 E0.01568
G1 X41.028 Y51.550 E0.01568
G1 X41.012 Y50.598 E0.01576
G1 X41.053 Y49.979 E0.01029
G1 X41.197 Y49.039 E0.01576
G1 X41.433 Y48.122 E0.01568
G1 X41.759 Y47.234 E0.01568
G1 X42.174 Y46.384 E0.01568
G1 X42.672 Y45.580 E0.01568
G1 X43.249 Y44.829 E0.01568
G1 X43.857 Y44.184 E0.01468
G1 X43.567 Y43.911 F9000.000
;TYPE:External perimeter
G1 F1200.000
G1 X44.367 Y43.207 E0.01766
G1 X45.174 Y42.639 E0.01634
G1 X46.033 Y42.156 E0.01634
G1 X46.937 Y41.761 E0.01634
G1 X47.877 Y41.459 E0.01634
G1 X48.841 Y41.254 E0.01634
G1 X49.822 Y41.146 E0.01636
G1 X50.644 Y41.134 E0.01361
G1 X51.463 Y41.187 E0.01361
G1 X52.438 Y41.344 E0.01636
G1 X53.391 Y41.598 E0.01634
G1 X54.314 Y41.947 E0.01634
G1 X55.197 Y42.387 E0.01634
G1 X56.031 Y42.913 E0.01634
G1 X56.808 Y43.520 E0.01634
G1 X57.520 Y44.203 E0.01634
G1 X58.160 Y44.954 E0.01634
G1 X58.720 Y45.765 E0.01634
G1 X59.197 Y46.629 E0.01634
G1 X59.584 Y47.536 E0.01634
G1 X59.878 Y48.479 E0.01636
G1 X60.048 Y49.282 E0.01361
G1 X60.152 Y50.097 E0.01361
G1 X60.185 Y51.083 E0.01636
G1 X60.119 Y52.068 E0.01634
G1 X59.954 Y53.040 E0.01634
G1 X59.692 Y53.992 E0.01636
G1 X59.401 Y54.760 E0.01361
G1 X59.048 Y55.501 E0.01361
G1 X58.543 Y56.349 E0.01636
G1 X57.955 Y57.141 E0.01634
G1 X57.290 Y57.870 E0.01634
G1 X56.556 Y58.529 E0.01634
G1 X55.759 Y59.110 E0.01634
G1 X54.907 Y59.608 E0.01634
G1 X54.010 Y60.018 E0.01634
G1 X53.076 Y60.335 E0.01634
G1 X52.115 Y60.557 E0.01634
G1 X51.136 Y60.681 E0.01634
G1 X50.150 Y60.706 E0.01634
G1 X49.167 Y60.631 E0.01634
G1 X48.196 Y60.458 E0.01634
G1 X47.246 Y60.188 E0.01636
G1 X46.481 Y59.890 E0.01361
G1 X45.742 Y59.531 E0.01361
G1 X44.899 Y59.019 E0.01636
G1 X44.111 Y58.424 E0.01634
G1 X43.388 Y57.754 E0.01634
G1 X42.736 Y57.014 E0.01634
G1 X42.161 Y56.212 E0.01634
G1 X41.671 Y55.356 E0.01634
G1 X41.268 Y54.455 E0.01634
G1 X40.959 Y53.519 E0.01634
G1 X40.745 Y52.556 E0.01634
G1 X40.629 Y51.576 E0.01634
G1 X40.613 Y50.588 E0.01637
G1 X40.657 Y49.936 E0.01084
G1 X40.806 Y48.959 E0.01637
G1 X41.052 Y48.004 E0.01634
G1 X41.392 Y47.078 E0.01634
G1 X41.825 Y46.191 E0.01634
G1 X42.344 Y45.353 E0.01634
G1 X42.945 Y44.570 E0.01634
G1 X43.525 Y43.955 E0.01402
G1 X43.951 Y44.020 F9000.000
G1 E-3.50000 F3600.000
;WIPE_START
G1 F7200.000
G1 X44.367 Y43.207 E-0.53479
G1 X45.174 Y42.639 E-0.46853
G1 X45.947 Y42.204 E-0.42168
;WIPE_END
G1 E-0.07500 F3600.000
G1 Z0.600 F9000.000
G1 X45.253 Y58.628
G1 Z0.100
G1 E5.00000 F2400.000
;TYPE:Solid infill
;WIDTH:0.42531
G1 F1200.000
G1 X43.863 Y57.238 E0.03301
G1 X43.282 Y56.579 E0.01474
G1 X42.749 Y55.834 E0.01538
G1 X42.370 Y55.174 E0.01279
G1 X46.151 Y58.954 E0.08978
G1 X46.760 Y59.250 E0.01137
G1 X47.182 Y59.414 E0.00760
G1 X41.894 Y54.127 E0.12555
G1 X41.621 Y53.282 E0.01491
G1 X48.022 Y59.684 E0.15200
G1 X48.353 Y59.778 E0.00577
G1 X48.760 Y59.850 E0.00694
G1 X41.458 Y52.548 E0.17339
G1 X41.369 Y51.888 E0.01119
G1 X49.433 Y59.952 E0.19148
G1 X50.051 Y59.999 E0.01040
G1 X41.322 Y51.270 E0.20727
G1 X41.312 Y50.689 E0.00975
G1 X50.619 Y59.996 E0.22100
G1 X51.168 Y59.974 E0.00922
G1 X41.342 Y50.147 E0.23333
G1 X41.407 Y49.642 E0.00856
G1 X51.675 Y59.910 E0.24381
G1 X52.166 Y59.829 E0.00835
G1 X41.483 Y49.146 E0.25367
G1 X41.596 Y48.688 E0.00792
G1 X52.630 Y59.722 E0.26201
G1 X53.077 Y59.598 E0.00779
G1 X41.712 Y48.234 E0.26985
G1 X41.864 Y47.814 E0.00749
G1 X53.503 Y59.453 E0.27636
G1 X53.915 Y59.294 E0.00742
G1 X42.018 Y47.397 E0.28250
G1 X42.202 Y47.009 E0.00720
G1 X54.307 Y59.115 E0.28745
G1 X54.690 Y58.927 E0.00716
G1 X42.389 Y46.625 E0.29210
G1 X42.599 Y46.265 E0.00701
G1 X55.051 Y58.716 E0.29565
G1 X55.408 Y58.502 E0.00699
G1 X42.818 Y45.912 E0.29896
G1 X43.052 Y45.575 E0.00689
G1 X55.738 Y58.262 E0.30123
G1 X56.069 Y58.021 E0.00686
G1 X43.300 Y45.253 E0.30318
G1 X43.557 Y44.938 E0.00682
G1 X56.374 Y57.755 E0.30434
G1 X56.675 Y57.485 E0.00679
G1 X43.834 Y44.644 E0.30491
G1 X44.105 Y44.357 E0.00663
G1 X56.959 Y57.198 E0.30507
G1 X57.232 Y56.899 E0.00679
G1 X44.418 Y44.086 E0.30426
G1 X44.724 Y43.820 E0.00680
G1 X57.495 Y56.591 E0.30324
G1 X57.738 Y56.263 E0.00685
G1 X45.052 Y43.578 E0.30122
G1 X45.387 Y43.342 E0.00688
G1 X57.979 Y55.933 E0.29898
G1 X58.192 Y55.575 E0.00699
G1 X45.739 Y43.122 E0.29571
G1 X46.104 Y42.916 E0.00704
G1 X58.405 Y55.217 E0.29209
G1 X58.593 Y54.834 E0.00717
G1 X46.481 Y42.721 E0.28761
G1 X46.878 Y42.548 E0.00728
G1 X58.774 Y54.444 E0.28247
G1 X58.932 Y54.030 E0.00743
G1 X47.284 Y42.382 E0.27658
G1 X47.716 Y42.243 E0.00762
G1 X59.076 Y53.603 E0.26974
G1 X59.199 Y53.155 E0.00780
G1 X48.156 Y42.113 E0.26221
G1 X48.627 Y42.012 E0.00808
G1 X59.306 Y52.691 E0.25357
G1 X59.389 Y52.203 E0.00832
G1 X49.112 Y41.926 E0.24403
G1 X49.626 Y41.869 E0.00869
G1 X59.446 Y51.689 E0.23316
G1 X59.482 Y51.154 E0.00900
G1 X50.167 Y41.838 E0.22118
G1 X50.738 Y41.839 E0.00960
G1 X59.470 Y50.571 E0.20734
G1 X59.432 Y49.961 E0.01026
G1 X51.349 Y41.879 E0.19191
G1 X52.026 Y41.984 E0.01150
G1 X59.338 Y49.296 E0.17362
G1 X59.173 Y48.560 E0.01267
G1 X52.766 Y42.154 E0.15211
G1 X53.177 Y42.263 E0.00714
G1 X53.611 Y42.427 E0.00778
G1 X58.904 Y47.720 E0.12569
G1 X58.569 Y46.935 E0.01433
G1 X58.420 Y46.665 E0.00517
G1 X54.647 Y42.892 E0.08960
G1 X54.854 Y42.995 E0.00389
G1 X55.629 Y43.484 E0.01538
G1 X56.351 Y44.048 E0.01538
G1 X58.089 Y45.763 E0.04099
G1 E-3.50000 F3600.000
;WIPE_START
G1 F7200.000
G1 X56.351 Y44.048 E-1.15968
G1 X55.911 Y43.704 E-0.26532
;WIPE_END
G1 E-0.07500 F3600.000
G1 Z0.600 F9000.000
G1 X59.375 Y159.862
G1 Z0.100
G1 E5.00000 F2400.000
;TYPE:Perimeter
;WIDTH:0.42
G1 F1200.000
G1 X60.162 Y159.850 E0.01303
G1 X60.946 Y159.901 E0.01303
G1 X61.883 Y160.052 E0.01571
G1 X62.797 Y160.296 E0.01568
G1 X63.682 Y160.630 E0.01568
G1 X64.529 Y161.052 E0.01568
G1 X65.329 Y161.557 E0.01568
G1 X66.075 Y162.140 E0.01568
G1 X66.757 Y162.794 E0.01568
G1 X67.371 Y163.515 E0.01568
G1 X67.909 Y164.293 E0.01568
G1 X68.366 Y165.121 E0.01568
G1 X68.737 Y165.992 E0.01568
G1 X69.020 Y166.897 E0.01571
G1 X69.182 Y167.666 E0.01303
G1 X69.282 Y168.447 E0.01303
G1 X69.314 Y169.394 E0.01571
G1 X69.251 Y170.338 E0.01568
G1 X69.093 Y171.271 E0.01568
G1 X68.841 Y172.185 E0.01571
G1 X68.562 Y172.921 E0.01303
G1 X68.224 Y173.631 E0.01303
G1 X67.738 Y174.446 E0.01571
G1 X67.175 Y175.205 E0.01568
G1 X66.537 Y175.905 E0.01568
G1 X65.833 Y176.536 E0.01568
G1 X65.068 Y177.094 E0.01568
G1 X64.251 Y177.571 E0.01568
G1 X63.391 Y177.964 E0.01568
G1 X62.495 Y178.269 E0.01568
G1 X61.573 Y178.481 E0.01568
G1 X60.634 Y178.600 E0.01568
G1 X59.688 Y178.624 E0.01568
G1 X58.745 Y178.553 E0.01568
G1 X57.813 Y178.387 E0.01568
G1 X56.901 Y178.127 E0.01571
G1 X56.168 Y177.842 E0.01303
G1 X55.461 Y177.498 E0.01303
G1 X54.650 Y177.006 E0.01571
G1 X53.895 Y176.436 E0.01568
G1 X53.202 Y175.793 E0.01568
G1 X52.576 Y175.083 E0.01568
G1 X52.025 Y174.314 E0.01568
G1 X51.554 Y173.493 E0.01568
G1 X51.168 Y172.629 E0.01568
G1 X50.871 Y171.730 E0.01568
G1 X50.666 Y170.807 E0.01568
G1 X50.555 Y169.867 E0.01568
G1 X50.539 Y168.916 E0.01576
G1 X50.581 Y168.297 E0.01029
G1 X50.724 Y167.356 E0.01576
G1 X50.960 Y166.440 E0.01568
