; generated by PrusaSlicer 2.3.0-rc2+ on 2021-04-24 at 05:31:45 UTC

; 

; external perimeters extrusion width = 0.45mm
; perimeters extrusion width = 0.45mm
; infill extrusion width = 0.45mm
; solid infill extrusion width = 0.45mm
; top infill extrusion width = 0.40mm
; support material extrusion width = 0.40mm
; first layer extrusion width = 0.45mm

M201 X500 Y500 Z100 E5000 ; sets maximum accelerations, mm/sec^2
M203 X500 Y500 Z10 E60 ; sets maximum feedrates, mm/sec
M204 P500 R1000 T500 ; sets acceleration (P, T) and retract acceleration (R), mm/sec^2
M205 X8.00 Y8.00 Z0.40 E5.00 ; sets the jerk limits, mm/sec
M205 S0 T0 ; sets the minimum extruding and travel feed rate, mm/sec
M107
M190 S80 ; set bed temperature and wait for it to be reached
M104 S215 ; set temperature
;TYPE:Custom
G28 ; Home
M109 S215 ; set temperature and wait for it to be reached
G21 ; set units to millimeters
G90 ; use absolute coordinates
M83 ; use relative distances for extrusion
; Filament gcode
;LAYER_CHANGE
;Z:0.1
;HEIGHT:0.1
;BEFORE_LAYER_CHANGE
;0.1


G1 E-0.50000 F2700.000
G1 Z0.500 F9000.000
;AFTER_LAYER_CHANGE
;0.1
G1 X39.137 Y83.537
G1 Z0.100
G1 E0.50000 F2400.000
;TYPE:Skirt
;WIDTH:0.45
G1 F1200.000
G1 X40.091 Y83.124 E0.01852
G1 X41.271 Y82.819 E0.02172
G1 X42.479 Y82.714 E0.02160
G1 X177.507 Y82.714 E2.40574
G1 X178.885 Y82.847 E0.02467
G1 X180.214 Y83.239 E0.02467
G1 X181.450 Y83.878 E0.02479
G1 X182.537 Y84.736 E0.02467
G1 X183.446 Y85.790 E0.02479
G1 X184.135 Y86.991 E0.02467
G1 X184.585 Y88.301 E0.02467
G1 X184.779 Y89.679 E0.02479
G1 X184.747 Y130.746 E0.73167
G1 X184.569 Y131.763 E0.01840
G1 X184.251 Y132.738 E0.01828
G1 X183.800 Y133.660 E0.01828
G1 X183.219 Y134.514 E0.01840
G1 X182.528 Y135.272 E0.01828
G1 X181.732 Y135.930 E0.01840
G1 X180.857 Y136.466 E0.01828
G1 X179.909 Y136.876 E0.01840
G1 X178.729 Y137.181 E0.02172
G1 X177.521 Y137.286 E0.02160
G1 X42.273 Y137.282 E2.40966
G1 X41.187 Y137.166 E0.01947
G1 X40.124 Y136.887 E0.01958
G1 X39.120 Y136.454 E0.01947
G1 X38.193 Y135.876 E0.01947
G1 X37.363 Y135.166 E0.01947
G1 X36.644 Y134.335 E0.01958
G1 X36.062 Y133.410 E0.01947
G1 X35.624 Y132.409 E0.01947
G1 X35.322 Y131.249 E0.02136
G1 X35.215 Y130.061 E0.02124
G1 X35.244 Y89.341 E0.72550
G1 X35.412 Y88.315 E0.01852
G1 X35.724 Y87.323 E0.01852
G1 X36.174 Y86.386 E0.01852
G1 X36.752 Y85.523 E0.01852
G1 X37.448 Y84.751 E0.01852
G1 X38.246 Y84.085 E0.01852
G1 X39.086 Y83.568 E0.01757
G1 X39.310 Y83.934 F9000.000
G1 F1200.000
G1 X40.253 Y83.522 E0.01833
G1 X41.348 Y83.240 E0.02015
G1 X42.481 Y83.143 E0.02026
G1 X177.506 Y83.143 E2.40570
G1 X178.812 Y83.270 E0.02336
G1 X180.063 Y83.640 E0.02325
G1 X181.227 Y84.244 E0.02336
G1 X182.249 Y85.054 E0.02325
G1 X183.100 Y86.043 E0.02325
G1 X183.751 Y87.182 E0.02336
G1 X184.172 Y88.417 E0.02325
G1 X184.351 Y89.709 E0.02325
G1 X184.324 Y130.672 E0.72981
G1 X184.160 Y131.634 E0.01739
G1 X183.860 Y132.563 E0.01739
G1 X183.435 Y133.434 E0.01727
G1 X182.887 Y134.242 E0.01739
G1 X182.231 Y134.964 E0.01739
G1 X181.478 Y135.585 E0.01739
G1 X180.644 Y136.094 E0.01739
G1 X179.747 Y136.478 E0.01739
G1 X178.652 Y136.760 E0.02015
G1 X177.519 Y136.857 E0.02026
G1 X42.299 Y136.854 E2.40915
G1 X41.271 Y136.746 E0.01842
G1 X40.271 Y136.485 E0.01842
G1 X39.321 Y136.076 E0.01842
G1 X38.443 Y135.528 E0.01842
G1 X37.658 Y134.855 E0.01842
G1 X36.983 Y134.072 E0.01842
G1 X36.433 Y133.196 E0.01842
G1 X36.022 Y132.247 E0.01842
G1 X35.743 Y131.165 E0.01992
G1 X35.643 Y130.058 E0.01980
G1 X35.669 Y89.406 E0.72429
G1 X35.825 Y88.429 E0.01762
G1 X36.118 Y87.491 E0.01750
G1 X36.542 Y86.605 E0.01750
G1 X37.089 Y85.788 E0.01750
G1 X37.751 Y85.054 E0.01762
G1 X38.506 Y84.426 E0.01750
G1 X39.259 Y83.965 E0.01572
G1 E-0.35000 F2700.000
;WIPE_START
G1 F7200.000
G1 X39.624 Y83.802 E-0.14250
;WIPE_END
G1 E-0.00750 F2700.000
G1 Z0.600 F9000.000
G1 X41.433 Y83.661
G1 Z0.100
G1 E0.50000 F2400.000
G1 F1200.000
G1 X42.487 Y83.571 E0.01884
G1 X177.506 Y83.571 E2.40559
G1 X178.726 Y83.690 E0.02184
G1 X179.902 Y84.037 E0.02184
G1 X180.990 Y84.601 E0.02184
G1 X181.956 Y85.366 E0.02195
G1 X182.755 Y86.297 E0.02184
G1 X183.365 Y87.367 E0.02195
G1 X183.758 Y88.528 E0.02184
G1 X183.923 Y89.743 E0.02184
G1 X183.900 Y130.600 E0.72795
G1 X183.749 Y131.508 E0.01639
G1 X183.470 Y132.385 E0.01639
G1 X183.068 Y133.212 E0.01639
G1 X182.553 Y133.974 E0.01639
G1 X181.934 Y134.655 E0.01639
G1 X181.224 Y135.240 E0.01639
G1 X180.438 Y135.718 E0.01639
G1 X179.591 Y136.079 E0.01639
G1 X178.567 Y136.339 E0.01884
G1 X177.513 Y136.429 E0.01884
G1 X42.318 Y136.426 E2.40871
G1 X41.354 Y136.325 E0.01728
G1 X40.409 Y136.079 E0.01739
G1 X39.513 Y135.692 E0.01739
G1 X38.690 Y135.178 E0.01728
G1 X37.955 Y134.546 E0.01728
G1 X37.319 Y133.805 E0.01739
G1 X36.805 Y132.982 E0.01728
G1 X36.421 Y132.091 E0.01728
G1 X36.164 Y131.085 E0.01851
G1 X36.072 Y130.051 E0.01851
G1 X36.093 Y89.468 E0.72304
G1 X36.236 Y88.553 E0.01650
G1 X36.512 Y87.662 E0.01661
G1 X36.910 Y86.826 E0.01650
G1 X37.424 Y86.055 E0.01650
G1 X38.048 Y85.362 E0.01661
G1 X38.761 Y84.771 E0.01650
G1 X39.557 Y84.285 E0.01661
G1 X40.409 Y83.921 E0.01650
G1 X41.375 Y83.675 E0.01777
G1 E-0.35000 F2700.000
;WIPE_START
G1 F7200.000
G1 X41.773 Y83.638 E-0.14250
;WIPE_END
G1 E-0.00750 F2700.000
G1 Z0.600 F9000.000
G1 X43.582 Y114.082
G1 Z0.100
G1 E0.50000 F2400.000
;TYPE:Perimeter
G1 F1200.000
G1 X176.418 Y114.082 E2.36669
G1 X176.418 Y128.918 E0.26432
G1 X43.582 Y128.918 E2.36669
G1 X43.582 Y114.142 E0.26326
G1 X43.154 Y113.654 F9000.000
G1 F1200.000
G1 X176.846 Y113.654 E2.38196
G1 X176.846 Y129.346 E0.27959
G1 X43.154 Y129.346 E2.38196
G1 X43.154 Y113.714 E0.27853
G1 X42.725 Y113.225 F9000.000
;TYPE:External perimeter
G1 F1200.000
G1 X177.275 Y113.225 E2.39723
G1 X177.275 Y129.775 E0.29486
G1 X42.725 Y129.775 E2.39723
G1 X42.725 Y113.285 E0.29380
G1 X43.125 Y113.241 F9000.000
G1 E-0.35000 F2700.000
;WIPE_START
G1 F7200.000
G1 X43.125 Y113.285 E-0.14250
;WIPE_END
G1 E-0.00750 F2700.000
G1 Z0.600 F9000.000
G1 X175.419 Y114.211
G1 Z0.100
G1 E0.50000 F2400.000
;TYPE:Solid infill
;WIDTH:0.451694
G1 F1200.000
G1 X176.097 Y114.888 E0.01713
G1 X176.097 Y115.496 E0.01088
G1 X175.004 Y114.403 E0.02764
G1 X174.395 Y114.403 E0.01088
G1 X176.097 Y116.105 E0.04303
G1 X176.097 Y116.713 E0.01088
G1 X173.787 Y114.403 E0.05842
G1 X173.179 Y114.403 E0.01088
G1 X176.097 Y117.321 E0.07381
G1 X176.097 Y117.930 E0.01088
G1 X172.570 Y114.403 E0.08920
G1 X171.962 Y114.403 E0.01088
G1 X176.097 Y118.538 E0.10460
G1 X176.097 Y119.147 E0.01088
G1 X171.353 Y114.403 E0.11999
G1 X170.745 Y114.403 E0.01088
G1 X176.097 Y119.755 E0.13538
G1 X176.097 Y120.364 E0.01088
G1 X170.136 Y114.403 E0.15077
G1 X169.528 Y114.403 E0.01088
G1 X176.097 Y120.972 E0.16616
G1 X176.097 Y121.581 E0.01088
G1 X168.919 Y114.403 E0.18155
G1 X168.311 Y114.403 E0.01088
G1 X176.097 Y122.189 E0.19694
G1 X176.097 Y122.797 E0.01088
G1 X167.703 Y114.403 E0.21233
G1 X167.094 Y114.403 E0.01088
G1 X176.097 Y123.406 E0.22773
G1 X176.097 Y124.014 E0.01088
G1 X166.486 Y114.403 E0.24312
G1 X165.877 Y114.403 E0.01088
G1 X176.097 Y124.623 E0.25851
G1 X176.097 Y125.231 E0.01088
G1 X165.269 Y114.403 E0.27390
G1 X164.660 Y114.403 E0.01088
G1 X176.097 Y125.840 E0.28929
G1 X176.097 Y126.448 E0.01088
G1 X164.052 Y114.403 E0.30468
G1 X163.443 Y114.403 E0.01088
G1 X176.097 Y127.057 E0.32007
G1 X176.097 Y127.665 E0.01088
G1 X162.835 Y114.403 E0.33546
G1 X162.227 Y114.403 E0.01088
G1 X176.097 Y128.273 E0.35086
G1 X176.097 Y128.597 E0.00578
G1 X175.811 Y128.597 E0.00510
G1 X161.618 Y114.403 E0.35903
G1 X161.010 Y114.403 E0.01088
G1 X175.203 Y128.597 E0.35903
G1 X174.594 Y128.597 E0.01088
G1 X160.401 Y114.403 E0.35903
G1 X159.793 Y114.403 E0.01088
G1 X173.986 Y128.597 E0.35903
G1 X173.377 Y128.597 E0.01088
G1 X159.184 Y114.403 E0.35903
G1 X158.576 Y114.403 E0.01088
G1 X172.769 Y128.597 E0.35903
G1 X172.161 Y128.597 E0.01088
G1 X157.967 Y114.403 E0.35903
G1 X157.359 Y114.403 E0.01088
G1 X171.552 Y128.597 E0.35903
G1 X170.944 Y128.597 E0.01088
G1 X156.751 Y114.403 E0.35903
G1 X156.142 Y114.403 E0.01088
G1 X170.335 Y128.597 E0.35903
G1 X169.727 Y128.597 E0.01088
G1 X155.534 Y114.403 E0.35903
G1 X154.925 Y114.403 E0.01088
G1 X169.118 Y128.597 E0.35903
G1 X168.510 Y128.597 E0.01088
G1 X154.317 Y114.403 E0.35903
G1 X153.708 Y114.403 E0.01088
G1 X167.901 Y128.597 E0.35903
G1 X167.293 Y128.597 E0.01088
G1 X153.100 Y114.403 E0.35903
G1 X152.492 Y114.403 E0.01088
G1 X166.685 Y128.597 E0.35903
G1 X166.076 Y128.597 E0.01088
G1 X151.883 Y114.403 E0.35903
G1 X151.275 Y114.403 E0.01088
G1 X165.468 Y128.597 E0.35903
G1 X164.859 Y128.597 E0.01088
G1 X150.666 Y114.403 E0.35903
G1 X150.058 Y114.403 E0.01088
G1 X164.251 Y128.597 E0.35903
G1 X163.642 Y128.597 E0.01088
G1 X149.449 Y114.403 E0.35903
G1 X148.841 Y114.403 E0.01088
G1 X163.034 Y128.597 E0.35903
G1 X162.425 Y128.597 E0.01088
G1 X148.232 Y114.403 E0.35903
G1 X147.624 Y114.403 E0.01088
G1 X161.817 Y128.597 E0.35903
G1 X161.209 Y128.597 E0.01088
G1 X147.016 Y114.403 E0.35903
G1 X146.407 Y114.403 E0.01088
G1 X160.600 Y128.597 E0.35903
G1 X159.992 Y128.597 E0.01088
G1 X145.799 Y114.403 E0.35903
G1 X145.190 Y114.403 E0.01088
G1 X159.383 Y128.597 E0.35903
G1 X158.775 Y128.597 E0.01088
G1 X144.582 Y114.403 E0.35903
G1 X143.973 Y114.403 E0.01088
G1 X158.166 Y128.597 E0.35903
G1 X157.558 Y128.597 E0.01088
G1 X143.365 Y114.403 E0.35903
G1 X142.756 Y114.403 E0.01088
G1 X156.949 Y128.597 E0.35903
G1 X156.341 Y128.597 E0.01088
G1 X142.148 Y114.403 E0.35903
G1 X141.540 Y114.403 E0.01088
G1 X155.733 Y128.597 E0.35903
G1 X155.124 Y128.597 E0.01088
G1 X140.931 Y114.403 E0.35903
G1 X140.323 Y114.403 E0.01088
G1 X154.516 Y128.597 E0.35903
G1 X153.907 Y128.597 E0.01088
G1 X139.714 Y114.403 E0.35903
G1 X139.106 Y114.403 E0.01088
G1 X153.299 Y128.597 E0.35903
G1 X152.690 Y128.597 E0.01088
G1 X138.497 Y114.403 E0.35903
G1 X137.889 Y114.403 E0.01088
G1 X152.082 Y128.597 E0.35903
G1 X151.473 Y128.597 E0.01088
G1 X137.280 Y114.403 E0.35903
G1 X136.672 Y114.403 E0.01088
G1 X150.865 Y128.597 E0.35903
G1 X150.257 Y128.597 E0.01088
G1 X136.064 Y114.403 E0.35903
G1 X135.455 Y114.403 E0.01088
G1 X149.648 Y128.597 E0.35903
G1 X149.040 Y128.597 E0.01088
G1 X134.847 Y114.403 E0.35903
G1 X134.238 Y114.403 E0.01088
G1 X148.431 Y128.597 E0.35903
G1 X147.823 Y128.597 E0.01088
G1 X133.630 Y114.403 E0.35903
G1 X133.021 Y114.403 E0.01088
G1 X147.214 Y128.597 E0.35903
G1 X146.606 Y128.597 E0.01088
G1 X132.413 Y114.403 E0.35903
G1 X131.804 Y114.403 E0.01088
G1 X145.998 Y128.597 E0.35903
G1 X145.389 Y128.597 E0.01088
G1 X131.196 Y114.403 E0.35903
G1 X130.588 Y114.403 E0.01088
G1 X144.781 Y128.597 E0.35903
G1 X144.172 Y128.597 E0.01088
G1 X129.979 Y114.403 E0.35903
G1 X129.371 Y114.403 E0.01088
G1 X143.564 Y128.597 E0.35903
G1 X142.955 Y128.597 E0.01088
G1 X128.762 Y114.403 E0.35903
G1 X128.154 Y114.403 E0.01088
G1 X142.347 Y128.597 E0.35903
G1 X141.738 Y128.597 E0.01088
G1 X127.545 Y114.403 E0.35903
G1 X126.937 Y114.403 E0.01088
G1 X141.130 Y128.597 E0.35903
G1 X140.522 Y128.597 E0.01088
G1 X126.328 Y114.403 E0.35903
G1 X125.720 Y114.403 E0.01088
G1 X139.913 Y128.597 E0.35903
G1 X139.305 Y128.597 E0.01088
G1 X125.112 Y114.403 E0.35903
G1 X124.503 Y114.403 E0.01088
G1 X138.696 Y128.597 E0.35903
G1 X138.088 Y128.597 E0.01088
G1 X123.895 Y114.403 E0.35903
G1 X123.286 Y114.403 E0.01088
G1 X137.479 Y128.597 E0.35903
G1 X136.871 Y128.597 E0.01088
G1 X122.678 Y114.403 E0.35903
G1 X122.069 Y114.403 E0.01088
G1 X136.262 Y128.597 E0.35903
G1 X135.654 Y128.597 E0.01088
G1 X121.461 Y114.403 E0.35903
G1 X120.852 Y114.403 E0.01088
G1 X135.046 Y128.597 E0.35903
G1 X134.437 Y128.597 E0.01088
G1 X120.244 Y114.403 E0.35903
G1 X119.636 Y114.403 E0.01088
G1 X133.829 Y128.597 E0.35903
G1 X133.220 Y128.597 E0.01088
G1 X119.027 Y114.403 E0.35903
G1 X118.419 Y114.403 E0.01088
G1 X132.612 Y128.597 E0.35903
G1 X132.003 Y128.597 E0.01088
G1 X117.810 Y114.403 E0.35903
G1 X117.202 Y114.403 E0.01088
G1 X131.395 Y128.597 E0.35903
G1 X130.786 Y128.597 E0.01088
G1 X116.593 Y114.403 E0.35903
G1 X115.985 Y114.403 E0.01088
G1 X130.178 Y128.597 E0.35903
G1 X129.570 Y128.597 E0.01088
G1 X115.376 Y114.403 E0.35903
G1 X114.768 Y114.403 E0.01088
G1 X128.961 Y128.597 E0.35903
G1 X128.353 Y128.597 E0.01088
G1 X114.160 Y114.403 E0.35903
G1 X113.551 Y114.403 E0.01088
G1 X127.744 Y128.597 E0.35903
G1 X127.136 Y128.597 E0.01088
G1 X112.943 Y114.403 E0.35903
G1 X112.334 Y114.403 E0.01088
G1 X126.527 Y128.597 E0.35903
G1 X125.919 Y128.597 E0.01088
G1 X111.726 Y114.403 E0.35903
G1 X111.117 Y114.403 E0.01088
G1 X125.310 Y128.597 E0.35903
G1 X124.702 Y128.597 E0.01088
G1 X110.509 Y114.403 E0.35903
G1 X109.901 Y114.403 E0.01088
G1 X124.094 Y128.597 E0.35903
G1 X123.485 Y128.597 E0.01088
G1 X109.292 Y114.403 E0.35903
G1 X108.684 Y114.403 E0.01088
G1 X122.877 Y128.597 E0.35903
G1 X122.268 Y128.597 E0.01088
G1 X108.075 Y114.403 E0.35903
G1 X107.467 Y114.403 E0.01088
G1 X121.660 Y128.597 E0.35903
G1 X121.051 Y128.597 E0.01088
G1 X106.858 Y114.403 E0.35903
G1 X106.250 Y114.403 E0.01088
G1 X120.443 Y128.597 E0.35903
G1 X119.834 Y128.597 E0.01088
G1 X105.641 Y114.403 E0.35903
G1 X105.033 Y114.403 E0.01088
G1 X119.226 Y128.597 E0.35903
G1 X118.618 Y128.597 E0.01088
G1 X104.425 Y114.403 E0.35903
G1 X103.816 Y114.403 E0.01088
G1 X118.009 Y128.597 E0.35903
G1 X117.401 Y128.597 E0.01088
G1 X103.208 Y114.403 E0.35903
G1 X102.599 Y114.403 E0.01088
G1 X116.792 Y128.597 E0.35903
G1 X116.184 Y128.597 E0.01088
G1 X101.991 Y114.403 E0.35903
G1 X101.382 Y114.403 E0.01088
G1 X115.575 Y128.597 E0.35903
G1 X114.967 Y128.597 E0.01088
G1 X100.774 Y114.403 E0.35903
G1 X100.165 Y114.403 E0.01088
G1 X114.358 Y128.597 E0.35903
G1 X113.750 Y128.597 E0.01088
G1 X99.557 Y114.403 E0.35903
G1 X98.949 Y114.403 E0.01088
G1 X113.142 Y128.597 E0.35903
G1 X112.533 Y128.597 E0.01088
G1 X98.340 Y114.403 E0.35903
G1 X97.732 Y114.403 E0.01088
G1 X111.925 Y128.597 E0.35903
G1 X111.316 Y128.597 E0.01088
G1 X97.123 Y114.403 E0.35903
G1 X96.515 Y114.403 E0.01088
G1 X110.708 Y128.597 E0.35903
G1 X110.099 Y128.597 E0.01088
G1 X95.906 Y114.403 E0.35903
G1 X95.298 Y114.403 E0.01088
G1 X109.491 Y128.597 E0.35903
G1 X108.882 Y128.597 E0.01088
G1 X94.689 Y114.403 E0.35903
G1 X94.081 Y114.403 E0.01088
G1 X108.274 Y128.597 E0.35903
G1 X107.666 Y128.597 E0.01088
G1 X93.473 Y114.403 E0.35903
G1 X92.864 Y114.403 E0.01088
G1 X107.057 Y128.597 E0.35903
G1 X106.449 Y128.597 E0.01088
G1 X92.256 Y114.403 E0.35903
G1 X91.647 Y114.403 E0.01088
G1 X105.840 Y128.597 E0.35903
G1 X105.232 Y128.597 E0.01088
G1 X91.039 Y114.403 E0.35903
G1 X90.430 Y114.403 E0.01088
G1 X104.623 Y128.597 E0.35903
G1 X104.015 Y128.597 E0.01088
G1 X89.822 Y114.403 E0.35903
G1 X89.213 Y114.403 E0.01088
G1 X103.407 Y128.597 E0.35903
G1 X102.798 Y128.597 E0.01088
G1 X88.605 Y114.403 E0.35903
G1 X87.997 Y114.403 E0.01088
G1 X102.190 Y128.597 E0.35903
G1 X101.581 Y128.597 E0.01088
G1 X87.388 Y114.403 E0.35903
G1 X86.780 Y114.403 E0.01088
G1 X100.973 Y128.597 E0.35903
G1 X100.364 Y128.597 E0.01088
G1 X86.171 Y114.403 E0.35903
G1 X85.563 Y114.403 E0.01088
G1 X99.756 Y128.597 E0.35903
G1 X99.147 Y128.597 E0.01088
G1 X84.954 Y114.403 E0.35903
G1 X84.346 Y114.403 E0.01088
G1 X98.539 Y128.597 E0.35903
G1 X97.931 Y128.597 E0.01088
G1 X83.737 Y114.403 E0.35903
G1 X83.129 Y114.403 E0.01088
G1 X97.322 Y128.597 E0.35903
G1 X96.714 Y128.597 E0.01088
G1 X82.521 Y114.403 E0.35903
G1 X81.912 Y114.403 E0.01088
G1 X96.105 Y128.597 E0.35903
G1 X95.497 Y128.597 E0.01088
G1 X81.304 Y114.403 E0.35903
G1 X80.695 Y114.403 E0.01088
G1 X94.888 Y128.597 E0.35903
G1 X94.280 Y128.597 E0.01088
G1 X80.087 Y114.403 E0.35903
G1 X79.478 Y114.403 E0.01088
G1 X93.671 Y128.597 E0.35903
G1 X93.063 Y128.597 E0.01088
G1 X78.870 Y114.403 E0.35903
G1 X78.261 Y114.403 E0.01088
G1 X92.455 Y128.597 E0.35903
G1 X91.846 Y128.597 E0.01088
G1 X77.653 Y114.403 E0.35903
G1 X77.045 Y114.403 E0.01088
G1 X91.238 Y128.597 E0.35903
G1 X90.629 Y128.597 E0.01088
G1 X76.436 Y114.403 E0.35903
G1 X75.828 Y114.403 E0.01088
G1 X90.021 Y128.597 E0.35903
G1 X89.412 Y128.597 E0.01088
G1 X75.219 Y114.403 E0.35903
G1 X74.611 Y114.403 E0.01088
G1 X88.804 Y128.597 E0.35903
