; generated by PrusaSlicer 2.3.0-rc2+ on 2021-01-11 at 00:20:25 UTC

; 

; external perimeters extrusion width = 0.45mm
; perimeters extrusion width = 0.45mm
; infill extrusion width = 0.45mm
; solid infill extrusion width = 0.45mm
; top infill extrusion width = 0.40mm
; support material extrusion width = 0.38mm
; first layer extrusion width = 0.42mm

M201 X500 Y500 Z100 E5000 ; sets maximum accelerations, mm/sec^2
M203 X500 Y500 Z10 E60 ; sets maximum feedrates, mm/sec
M204 P500 R1000 T500 ; sets acceleration (P, T) and retract acceleration (R), mm/sec^2
M205 X8.00 Y8.00 Z0.40 E5.00 ; sets the jerk limits, mm/sec
M205 S0 T0 ; sets the minimum extruding and travel feed rate, mm/sec
M107
M190 S60 ; set bed temperature and wait for it to be reached
M104 S220 ; set temperature
;TYPE:Custom
G28 ; Home
M109 S220 ; set temperature and wait for it to be reached
G21 ; set units to millimeters
G90 ; use absolute coordinates
M83 ; use relative distances for extrusion
; Filament gcode
;LAYER_CHANGE
;Z:0.32
;HEIGHT:0.32
;BEFORE_LAYER_CHANGE
;0.32


G1 E-5.00000 F3600.000
G1 Z0.320 F9000.000
;AFTER_LAYER_CHANGE
;0.32
G1 X99.499 Y54.363
G1 E5.00000 F2400.000
;TYPE:Skirt
;WIDTH:0.42
G1 F1200.000
G1 X100.003 Y53.607 E0.04245
G1 X100.609 Y52.931 E0.04245
G1 X101.301 Y52.352 E0.04216
G1 X102.068 Y51.877 E0.04216
G1 X102.894 Y51.515 E0.04216
G1 X103.843 Y51.259 E0.04593
G1 X104.826 Y51.152 E0.04622
G1 X114.985 Y51.149 E0.47483
G1 X116.179 Y51.263 E0.05608
G1 X117.331 Y51.600 E0.05608
G1 X118.398 Y52.148 E0.05608
G1 X119.344 Y52.887 E0.05608
G1 X120.134 Y53.790 E0.05608
G1 X120.740 Y54.826 E0.05608
G1 X121.140 Y55.957 E0.05608
G1 X121.320 Y57.143 E0.05608
G1 X121.305 Y163.066 E4.95092
G1 X121.158 Y163.968 E0.04274
G1 X120.883 Y164.841 E0.04274
G1 X120.489 Y165.659 E0.04245
G1 X119.978 Y166.417 E0.04274
G1 X119.364 Y167.095 E0.04274
G1 X118.658 Y167.677 E0.04274
G1 X117.877 Y168.152 E0.04274
G1 X117.035 Y168.509 E0.04274
G1 X116.102 Y168.751 E0.04506
G1 X115.137 Y168.849 E0.04535
G1 X104.455 Y168.826 E0.49925
G1 X103.336 Y168.624 E0.05318
G1 X102.276 Y168.227 E0.05289
G1 X101.298 Y167.645 E0.05318
G1 X100.444 Y166.903 E0.05289
G1 X99.735 Y166.021 E0.05289
G1 X99.192 Y165.021 E0.05318
G1 X98.837 Y163.946 E0.05289
G1 X98.678 Y162.826 E0.05289
G1 X98.695 Y56.934 E4.94946
G1 X98.839 Y56.044 E0.04216
G1 X99.110 Y55.177 E0.04245
G1 X99.473 Y54.417 E0.03936
G1 E-3.50000 F3600.000
;WIPE_START
G1 F7200.000
G1 X100.003 Y53.607 E-0.45965
G1 X100.609 Y52.931 E-0.43142
G1 X101.301 Y52.352 E-0.42847
G1 X101.490 Y52.235 E-0.10547
;WIPE_END
G1 E-0.07500 F3600.000
G1 X105.583 Y58.061 F9000.000
G1 E5.00000 F2400.000
;TYPE:Perimeter
G1 F1200.000
G1 X114.417 Y58.061 E0.41294
G1 X114.417 Y161.939 E4.85531
G1 X105.583 Y161.939 E0.41294
G1 X105.583 Y58.121 E4.85250
G1 X105.231 Y57.710 F9000.000
;TYPE:External perimeter
G1 F1200.000
G1 X114.769 Y57.710 E0.44579
G1 X114.769 Y162.290 E4.88815
G1 X105.231 Y162.290 E0.44579
G1 X105.231 Y57.770 E4.88535
G1 X105.584 Y57.899 F9000.000
G1 E-3.50000 F3600.000
;WIPE_START
G1 F7200.000
G1 X108.231 Y57.751 E-1.42500
;WIPE_END
G1 E-0.07500 F3600.000
G1 X106.399 Y161.833 F9000.000
G1 E5.00000 F2400.000
;TYPE:Solid infill
;WIDTH:0.420226
G1 F1200.000
G1 X105.846 Y161.281 E0.03655
G1 X105.846 Y160.783 E0.02325
G1 X106.738 Y161.675 E0.05898
G1 X107.235 Y161.675 E0.02325
G1 X105.846 Y160.286 E0.09186
G1 X105.846 Y159.789 E0.02325
G1 X107.732 Y161.675 E0.12475
G1 X108.229 Y161.675 E0.02325
G1 X105.846 Y159.292 E0.15763
G1 X105.846 Y158.795 E0.02325
G1 X108.726 Y161.675 E0.19052
G1 X109.224 Y161.675 E0.02325
G1 X105.846 Y158.298 E0.22340
G1 X105.846 Y157.800 E0.02325
G1 X109.721 Y161.675 E0.25629
G1 X110.218 Y161.675 E0.02325
G1 X105.846 Y157.303 E0.28917
G1 X105.846 Y156.806 E0.02325
G1 X110.715 Y161.675 E0.32206
G1 X111.212 Y161.675 E0.02325
G1 X105.846 Y156.309 E0.35494
G1 X105.846 Y155.812 E0.02325
G1 X111.710 Y161.675 E0.38783
G1 X112.207 Y161.675 E0.02325
G1 X105.846 Y155.315 E0.42071
G1 X105.846 Y154.817 E0.02325
G1 X112.704 Y161.675 E0.45360
G1 X113.201 Y161.675 E0.02325
G1 X105.846 Y154.320 E0.48648
G1 X105.846 Y153.823 E0.02325
G1 X113.698 Y161.675 E0.51937
G1 X114.154 Y161.675 E0.02131
G1 X114.154 Y161.634 E0.00194
G1 X105.846 Y153.326 E0.54951
G1 X105.846 Y152.829 E0.02325
G1 X114.154 Y161.137 E0.54951
G1 X114.154 Y160.639 E0.02325
G1 X105.846 Y152.332 E0.54951
G1 X105.846 Y151.834 E0.02325
G1 X114.154 Y160.142 E0.54951
G1 X114.154 Y159.645 E0.02325
G1 X105.846 Y151.337 E0.54951
G1 X105.846 Y150.840 E0.02325
G1 X114.154 Y159.148 E0.54951
G1 X114.154 Y158.651 E0.02325
G1 X105.846 Y150.343 E0.54951
G1 X105.846 Y149.846 E0.02325
G1 X114.154 Y158.154 E0.54951
G1 X114.154 Y157.656 E0.02325
G1 X105.846 Y149.349 E0.54951
G1 X105.846 Y148.851 E0.02325
G1 X114.154 Y157.159 E0.54951
G1 X114.154 Y156.662 E0.02325
G1 X105.846 Y148.354 E0.54951
G1 X105.846 Y147.857 E0.02325
G1 X114.154 Y156.165 E0.54951
G1 X114.154 Y155.668 E0.02325
G1 X105.846 Y147.360 E0.54951
G1 X105.846 Y146.863 E0.02325
G1 X114.154 Y155.170 E0.54951
G1 X114.154 Y154.673 E0.02325
G1 X105.846 Y146.366 E0.54951
G1 X105.846 Y145.868 E0.02325
G1 X114.154 Y154.176 E0.54951
G1 X114.154 Y153.679 E0.02325
G1 X105.846 Y145.371 E0.54951
G1 X105.846 Y144.874 E0.02325
G1 X114.154 Y153.182 E0.54951
G1 X114.154 Y152.685 E0.02325
G1 X105.846 Y144.377 E0.54951
G1 X105.846 Y143.880 E0.02325
G1 X114.154 Y152.187 E0.54951
G1 X114.154 Y151.690 E0.02325
G1 X105.846 Y143.383 E0.54951
G1 X105.846 Y142.885 E0.02325
G1 X114.154 Y151.193 E0.54951
G1 X114.154 Y150.696 E0.02325
G1 X105.846 Y142.388 E0.54951
G1 X105.846 Y141.891 E0.02325
G1 X114.154 Y150.199 E0.54951
G1 X114.154 Y149.702 E0.02325
G1 X105.846 Y141.394 E0.54951
G1 X105.846 Y140.897 E0.02325
G1 X114.154 Y149.204 E0.54951
G1 X114.154 Y148.707 E0.02325
G1 X105.846 Y140.399 E0.54951
G1 X105.846 Y139.902 E0.02325
G1 X114.154 Y148.210 E0.54951
G1 X114.154 Y147.713 E0.02325
G1 X105.846 Y139.405 E0.54951
G1 X105.846 Y138.908 E0.02325
G1 X114.154 Y147.216 E0.54951
G1 X114.154 Y146.719 E0.02325
G1 X105.846 Y138.411 E0.54951
G1 X105.846 Y137.914 E0.02325
G1 X114.154 Y146.221 E0.54951
G1 X114.154 Y145.724 E0.02325
G1 X105.846 Y137.416 E0.54951
G1 X105.846 Y136.919 E0.02325
G1 X114.154 Y145.227 E0.54951
G1 X114.154 Y144.730 E0.02325
G1 X105.846 Y136.422 E0.54951
G1 X105.846 Y135.925 E0.02325
G1 X114.154 Y144.233 E0.54951
G1 X114.154 Y143.736 E0.02325
G1 X105.846 Y135.428 E0.54951
G1 X105.846 Y134.931 E0.02325
G1 X114.154 Y143.238 E0.54951
G1 X114.154 Y142.741 E0.02325
G1 X105.846 Y134.433 E0.54951
G1 X105.846 Y133.936 E0.02325
G1 X114.154 Y142.244 E0.54951
G1 X114.154 Y141.747 E0.02325
G1 X105.846 Y133.439 E0.54951
G1 X105.846 Y132.942 E0.02325
G1 X114.154 Y141.250 E0.54951
G1 X114.154 Y140.753 E0.02325
G1 X105.846 Y132.445 E0.54951
G1 X105.846 Y131.948 E0.02325
G1 X114.154 Y140.255 E0.54951
G1 X114.154 Y139.758 E0.02325
G1 X105.846 Y131.450 E0.54951
G1 X105.846 Y130.953 E0.02325
G1 X114.154 Y139.261 E0.54951
G1 X114.154 Y138.764 E0.02325
G1 X105.846 Y130.456 E0.54951
G1 X105.846 Y129.959 E0.02325
G1 X114.154 Y138.267 E0.54951
G1 X114.154 Y137.770 E0.02325
G1 X105.846 Y129.462 E0.54951
G1 X105.846 Y128.965 E0.02325
G1 X114.154 Y137.272 E0.54951
G1 X114.154 Y136.775 E0.02325
G1 X105.846 Y128.467 E0.54951
G1 X105.846 Y127.970 E0.02325
G1 X114.154 Y136.278 E0.54951
G1 X114.154 Y135.781 E0.02325
G1 X105.846 Y127.473 E0.54951
G1 X105.846 Y126.976 E0.02325
G1 X114.154 Y135.284 E0.54951
G1 X114.154 Y134.786 E0.02325
G1 X105.846 Y126.479 E0.54951
G1 X105.846 Y125.982 E0.02325
G1 X114.154 Y134.289 E0.54951
G1 X114.154 Y133.792 E0.02325
G1 X105.846 Y125.484 E0.54951
G1 X105.846 Y124.987 E0.02325
G1 X114.154 Y133.295 E0.54951
G1 X114.154 Y132.798 E0.02325
G1 X105.846 Y124.490 E0.54951
G1 X105.846 Y123.993 E0.02325
G1 X114.154 Y132.301 E0.54951
G1 X114.154 Y131.803 E0.02325
G1 X105.846 Y123.496 E0.54951
G1 X105.846 Y122.999 E0.02325
G1 X114.154 Y131.306 E0.54951
G1 X114.154 Y130.809 E0.02325
G1 X105.846 Y122.501 E0.54951
G1 X105.846 Y122.004 E0.02325
G1 X114.154 Y130.312 E0.54951
G1 X114.154 Y129.815 E0.02325
G1 X105.846 Y121.507 E0.54951
G1 X105.846 Y121.010 E0.02325
G1 X114.154 Y129.318 E0.54951
G1 X114.154 Y128.820 E0.02325
G1 X105.846 Y120.513 E0.54951
G1 X105.846 Y120.015 E0.02325
G1 X114.154 Y128.323 E0.54951
G1 X114.154 Y127.826 E0.02325
G1 X105.846 Y119.518 E0.54951
G1 X105.846 Y119.021 E0.02325
G1 X114.154 Y127.329 E0.54951
G1 X114.154 Y126.832 E0.02325
G1 X105.846 Y118.524 E0.54951
G1 X105.846 Y118.027 E0.02325
G1 X114.154 Y126.335 E0.54951
G1 X114.154 Y125.837 E0.02325
G1 X105.846 Y117.530 E0.54951
G1 X105.846 Y117.032 E0.02325
G1 X114.154 Y125.340 E0.54951
G1 X114.154 Y124.843 E0.02325
G1 X105.846 Y116.535 E0.54951
G1 X105.846 Y116.038 E0.02325
G1 X114.154 Y124.346 E0.54951
G1 X114.154 Y123.849 E0.02325
G1 X105.846 Y115.541 E0.54951
G1 X105.846 Y115.044 E0.02325
G1 X114.154 Y123.352 E0.54951
G1 X114.154 Y122.854 E0.02325
G1 X105.846 Y114.547 E0.54951
G1 X105.846 Y114.049 E0.02325
G1 X114.154 Y122.357 E0.54951
G1 X114.154 Y121.860 E0.02325
G1 X105.846 Y113.552 E0.54951
G1 X105.846 Y113.055 E0.02325
G1 X114.154 Y121.363 E0.54951
G1 X114.154 Y120.866 E0.02325
G1 X105.846 Y112.558 E0.54951
G1 X105.846 Y112.061 E0.02325
G1 X114.154 Y120.369 E0.54951
G1 X114.154 Y119.871 E0.02325
G1 X105.846 Y111.564 E0.54951
G1 X105.846 Y111.066 E0.02325
G1 X114.154 Y119.374 E0.54951
G1 X114.154 Y118.877 E0.02325
G1 X105.846 Y110.569 E0.54951
G1 X105.846 Y110.072 E0.02325
G1 X114.154 Y118.380 E0.54951
G1 X114.154 Y117.883 E0.02325
G1 X105.846 Y109.575 E0.54951
G1 X105.846 Y109.078 E0.02325
G1 X114.154 Y117.385 E0.54951
G1 X114.154 Y116.888 E0.02325
G1 X105.846 Y108.581 E0.54951
G1 X105.846 Y108.083 E0.02325
G1 X114.154 Y116.391 E0.54951
G1 X114.154 Y115.894 E0.02325
G1 X105.846 Y107.586 E0.54951
G1 X105.846 Y107.089 E0.02325
G1 X114.154 Y115.397 E0.54951
G1 X114.154 Y114.900 E0.02325
G1 X105.846 Y106.592 E0.54951
G1 X105.846 Y106.095 E0.02325
G1 X114.154 Y114.402 E0.54951
G1 X114.154 Y113.905 E0.02325
G1 X105.846 Y105.598 E0.54951
G1 X105.846 Y105.100 E0.02325
G1 X114.154 Y113.408 E0.54951
G1 X114.154 Y112.911 E0.02325
G1 X105.846 Y104.603 E0.54951
G1 X105.846 Y104.106 E0.02325
G1 X114.154 Y112.414 E0.54951
G1 X114.154 Y111.917 E0.02325
G1 X105.846 Y103.609 E0.54951
G1 X105.846 Y103.112 E0.02325
G1 X114.154 Y111.419 E0.54951
G1 X114.154 Y110.922 E0.02325
G1 X105.846 Y102.614 E0.54951
G1 X105.846 Y102.117 E0.02325
G1 X114.154 Y110.425 E0.54951
G1 X114.154 Y109.928 E0.02325
G1 X105.846 Y101.620 E0.54951
G1 X105.846 Y101.123 E0.02325
G1 X114.154 Y109.431 E0.54951
G1 X114.154 Y108.934 E0.02325
G1 X105.846 Y100.626 E0.54951
G1 X105.846 Y100.129 E0.02325
G1 X114.154 Y108.436 E0.54951
G1 X114.154 Y107.939 E0.02325
G1 X105.846 Y99.631 E0.54951
G1 X105.846 Y99.134 E0.02325
G1 X114.154 Y107.442 E0.54951
G1 X114.154 Y106.945 E0.02325
G1 X105.846 Y98.637 E0.54951
G1 X105.846 Y98.140 E0.02325
G1 X114.154 Y106.448 E0.54951
G1 X114.154 Y105.951 E0.02325
G1 X105.846 Y97.643 E0.54951
G1 X105.846 Y97.146 E0.02325
G1 X114.154 Y105.453 E0.54951
G1 X114.154 Y104.956 E0.02325
G1 X105.846 Y96.648 E0.54951
G1 X105.846 Y96.151 E0.02325
G1 X114.154 Y104.459 E0.54951
G1 X114.154 Y103.962 E0.02325
G1 X105.846 Y95.654 E0.54951
G1 X105.846 Y95.157 E0.02325
G1 X114.154 Y103.465 E0.54951
G1 X114.154 Y102.968 E0.02325
G1 X105.846 Y94.660 E0.54951
G1 X105.846 Y94.163 E0.02325
G1 X114.154 Y102.470 E0.54951
G1 X114.154 Y101.973 E0.02325
G1 X105.846 Y93.665 E0.54951
G1 X105.846 Y93.168 E0.02325
G1 X114.154 Y101.476 E0.54951
G1 X114.154 Y100.979 E0.02325
G1 X105.846 Y92.671 E0.54951
G1 X105.846 Y92.174 E0.02325
G1 X114.154 Y100.482 E0.54951
G1 X114.154 Y99.985 E0.02325
G1 X105.846 Y91.677 E0.54951
G1 X105.846 Y91.180 E0.02325
G1 X114.154 Y99.487 E0.54951
G1 X114.154 Y98.990 E0.02325
G1 X105.846 Y90.682 E0.54951
G1 X105.846 Y90.185 E0.02325
G1 X114.154 Y98.493 E0.54951
G1 X114.154 Y97.996 E0.02325
G1 X105.846 Y89.688 E0.54951
G1 X105.846 Y89.191 E0.02325
G1 X114.154 Y97.499 E0.54951
G1 X114.154 Y97.001 E0.02325
G1 X105.846 Y88.694 E0.54951
G1 X105.846 Y88.197 E0.02325
G1 X114.154 Y96.504 E0.54951
G1 X114.154 Y96.007 E0.02325
G1 X105.846 Y87.699 E0.54951
G1 X105.846 Y87.202 E0.02325
G1 X114.154 Y95.510 E0.54951
G1 X114.154 Y95.013 E0.02325
G1 X105.846 Y86.705 E0.54951
G1 X105.846 Y86.208 E0.02325
G1 X114.154 Y94.516 E0.54951
G1 X114.154 Y94.018 E0.02325
G1 X105.846 Y85.711 E0.54951
G1 X105.846 Y85.214 E0.02325
G1 X114.154 Y93.521 E0.54951
G1 X114.154 Y93.024 E0.02325
G1 X105.846 Y84.716 E0.54951
G1 X105.846 Y84.219 E0.02325
G1 X114.154 Y92.527 E0.54951
G1 X114.154 Y92.030 E0.02325
G1 X105.846 Y83.722 E0.54951
G1 X105.846 Y83.225 E0.02325
G1 X114.154 Y91.533 E0.54951
G1 X114.154 Y91.035 E0.02325
G1 X105.846 Y82.728 E0.54951
G1 X105.846 Y82.230 E0.02325
G1 X114.154 Y90.538 E0.54951
G1 X114.154 Y90.041 E0.02325
G1 X105.846 Y81.733 E0.54951
G1 X105.846 Y81.236 E0.02325
G1 X114.154 Y89.544 E0.54951
G1 X114.154 Y89.047 E0.02325
G1 X105.846 Y80.739 E0.54951
G1 X105.846 Y80.242 E0.02325
G1 X114.154 Y88.550 E0.54951
G1 X114.154 Y88.052 E0.02325
G1 X105.846 Y79.745 E0.54951
G1 X105.846 Y79.247 E0.02325
G1 X114.154 Y87.555 E0.54951
G1 X114.154 Y87.058 E0.02325
G1 X105.846 Y78.750 E0.54951
G1 X105.846 Y78.253 E0.02325
G1 X114.154 Y86.561 E0.54951
G1 X114.154 Y86.064 E0.02325
G1 X105.846 Y77.756 E0.54951
G1 X105.846 Y77.259 E0.02325
G1 X114.154 Y85.567 E0.54951
G1 X114.154 Y85.069 E0.02325
G1 X105.846 Y76.762 E0.54951
G1 X105.846 Y76.264 E0.02325
G1 X114.154 Y84.572 E0.54951
G1 X114.154 Y84.075 E0.02325
G1 X105.846 Y75.767 E0.54951
G1 X105.846 Y75.270 E0.02325
G1 X114.154 Y83.578 E0.54951
G1 X114.154 Y83.081 E0.02325
G1 X105.846 Y74.773 E0.54951
G1 X105.846 Y74.276 E0.02325
G1 X114.154 Y82.584 E0.54951
G1 X114.154 Y82.086 E0.02325
G1 X105.846 Y73.779 E0.54951
G1 X105.846 Y73.281 E0.02325
G1 X114.154 Y81.589 E0.54951
G1 X114.154 Y81.092 E0.02325
G1 X105.846 Y72.784 E0.54951
G1 X105.846 Y72.287 E0.02325
G1 X114.154 Y80.595 E0.54951
G1 X114.154 Y80.098 E0.02325
G1 X105.846 Y71.790 E0.54951
G1 X105.846 Y71.293 E0.02325
G1 X114.154 Y79.600 E0.54951
G1 X114.154 Y79.103 E0.02325
G1 X105.846 Y70.796 E0.54951
G1 X105.846 Y70.298 E0.02325
G1 X114.154 Y78.606 E0.54951
G1 X114.154 Y78.109 E0.02325
G1 X105.846 Y69.801 E0.54951
G1 X105.846 Y69.304 E0.02325
G1 X114.154 Y77.612 E0.54951
G1 X114.154 Y77.115 E0.02325
G1 X105.846 Y68.807 E0.54951
G1 X105.846 Y68.310 E0.02325
G1 X114.154 Y76.617 E0.54951
G1 X114.154 Y76.120 E0.02325
G1 X105.846 Y67.813 E0.54951
G1 X105.846 Y67.315 E0.02325
G1 X114.154 Y75.623 E0.54951
G1 X114.154 Y75.126 E0.02325
G1 X105.846 Y66.818 E0.54951
G1 X105.846 Y66.321 E0.02325
G1 X114.154 Y74.629 E0.54951
G1 X114.154 Y74.132 E0.02325
G1 X105.846 Y65.824 E0.54951
G1 X105.846 Y65.327 E0.02325
G1 X114.154 Y73.634 E0.54951
G1 X114.154 Y73.137 E0.02325
G1 X105.846 Y64.829 E0.54951
G1 X105.846 Y64.332 E0.02325
G1 X114.154 Y72.640 E0.54951
G1 X114.154 Y72.143 E0.02325
G1 X105.846 Y63.835 E0.54951
G1 X105.846 Y63.338 E0.02325
G1 X114.154 Y71.646 E0.54951
G1 X114.154 Y71.149 E0.02325
G1 X105.846 Y62.841 E0.54951
G1 X105.846 Y62.344 E0.02325
G1 X114.154 Y70.651 E0.54951
G1 X114.154 Y70.154 E0.02325
G1 X105.846 Y61.846 E0.54951
G1 X105.846 Y61.349 E0.02325
G1 X114.154 Y69.657 E0.54951
G1 X114.154 Y69.160 E0.02325
G1 X105.846 Y60.852 E0.54951
G1 X105.846 Y60.355 E0.02325
G1 X114.154 Y68.663 E0.54951
G1 X114.154 Y68.166 E0.02325
G1 X105.846 Y59.858 E0.54951
G1 X105.846 Y59.361 E0.02325
G1 X114.154 Y67.668 E0.54951
G1 X114.154 Y67.171 E0.02325
G1 X105.846 Y58.863 E0.54951
G1 X105.846 Y58.366 E0.02325
G1 X114.154 Y66.674 E0.54951
G1 X114.154 Y66.177 E0.02325
G1 X106.302 Y58.325 E0.51937
G1 X106.799 Y58.325 E0.02325
G1 X114.154 Y65.680 E0.48648
G1 X114.154 Y65.183 E0.02325
G1 X107.296 Y58.325 E0.45360
G1 X107.793 Y58.325 E0.02325
G1 X114.154 Y64.685 E0.42071
G1 X114.154 Y64.188 E0.02325
G1 X108.291 Y58.325 E0.38783
G1 X108.788 Y58.325 E0.02325
G1 X114.154 Y63.691 E0.35494
G1 X114.154 Y63.194 E0.02325
G1 X109.285 Y58.325 E0.32206
G1 X109.782 Y58.325 E0.02325
G1 X114.154 Y62.697 E0.28917
