; generated by PrusaSlicer 2.3.0-rc2+ on 2021-04-04 at 16:08:19 UTC

; 

; external perimeters extrusion width = 0.45mm
; perimeters extrusion width = 0.45mm
; infill extrusion width = 0.45mm
; solid infill extrusion width = 0.45mm
; top infill extrusion width = 0.40mm

M73 P0 R44
M73 Q0 S44
M201 X9000 Y9000 Z9000 E10000 ; sets maximum accelerations, mm/sec^2
M203 X500 Y500 Z500 E120 ; sets maximum feedrates, mm/sec
M204 P1500 R1500 T1500 ; sets acceleration (P, T) and retract acceleration (R), mm/sec^2
M205 X20.00 Y20.00 Z20.00 E25.00 ; sets the jerk limits, mm/sec
M205 S0 T0 ; sets the minimum extruding and travel feed rate, mm/sec
M107
M190 S80 ; set bed temperature and wait for it to be reached
M104 S205 ; set temperature
;TYPE:Custom
G28 ; home all axes
G29 L1  ; Load the mesh saved in slot 1
G29 J   ; 3-point ABL, tilt mesh accordingly
M109 S205 ; set temperature and wait for it to be reached
G21 ; set units to millimeters
G90 ; use absolute coordinates
M82 ; use absolute distances for extrusion
G92 E0
;LAYER_CHANGE
;Z:0.2
;HEIGHT:0.2
G1 Z0.200 F9000.000
G1 E-3.00000 F2700.000
G92 E0
G1 Z0.700 F9000.000
G1 X36.066 Y-0.001
G1 Z0.200
G1 E3.00000 F2700.000
;TYPE:Skirt
;WIDTH:0.45
G1 F3600.000
G1 X36.068 Y71.519 E5.42089
G1 X35.949 Y72.769 E5.46340
G1 X35.603 Y73.976 E5.50591
G1 X35.185 Y74.855 E5.53884
G1 X34.651 Y75.661 E5.57156
G1 X34.003 Y76.387 E5.60449
G1 X33.259 Y77.013 E5.63743
G1 X32.433 Y77.528 E5.67036
G1 X31.542 Y77.919 E5.70330
G1 X30.604 Y78.179 E5.73623
G1 X29.646 Y78.303 E5.76895
G1 X-29.306 Y78.314 E7.76439
G1 X-30.536 Y78.192 E7.80624
G1 X-31.731 Y77.848 E7.84831
G1 X-32.632 Y77.418 E7.88212
G1 X-33.461 Y76.861 E7.91592
G1 X-34.199 Y76.188 E7.94973
G1 X-34.831 Y75.415 E7.98353
G1 X-35.344 Y74.558 E8.01734
G1 X-35.725 Y73.635 E8.05114
G1 X-35.968 Y72.666 E8.08495
G1 X-36.066 Y71.672 E8.11875
G1 X-36.068 Y-71.519 E12.96562
G1 X-35.949 Y-72.769 E13.00813
G1 X-35.603 Y-73.976 E13.05063
G1 X-35.191 Y-74.844 E13.08313
G1 X-34.659 Y-75.650 E13.11585
G1 X-34.022 Y-76.369 E13.14835
G1 X-33.285 Y-76.994 E13.18106
G1 X-32.472 Y-77.506 E13.21356
G1 X-31.590 Y-77.901 E13.24628
G1 X-30.667 Y-78.166 E13.27878
G1 X-29.710 Y-78.299 E13.31150
G1 X29.261 Y-78.314 E15.30759
G1 X30.555 Y-78.189 E15.35161
G1 X31.803 Y-77.820 E15.39564
G1 X32.957 Y-77.220 E15.43967
G1 X33.977 Y-76.413 E15.48370
G1 X34.824 Y-75.426 E15.52773
G1 X35.468 Y-74.296 E15.57175
G1 X35.886 Y-73.064 E15.61578
G1 X36.063 Y-71.782 E15.65959
G1 X36.066 Y-0.061 E18.08725
G1 X35.659 Y-0.061 F9000.000
G1 F3600.000
G1 X35.661 Y71.519 E20.51015
G1 X35.548 Y72.700 E20.55031
G1 X35.221 Y73.834 E20.59026
G1 X34.826 Y74.663 E20.62135
G1 X34.320 Y75.422 E20.65223
G1 X33.708 Y76.106 E20.68332
G1 X33.008 Y76.692 E20.71419
G1 X32.227 Y77.176 E20.74528
G1 X31.391 Y77.540 E20.77616
G1 X30.512 Y77.782 E20.80704
G1 X29.600 Y77.898 E20.83813
G1 X-29.298 Y77.907 E22.83177
G1 X-30.460 Y77.793 E22.87130
G1 X-31.588 Y77.467 E22.91104
G1 X-32.434 Y77.063 E22.94276
G1 X-33.216 Y76.535 E22.97470
G1 X-33.908 Y75.904 E23.00642
G1 X-34.501 Y75.178 E23.03814
G1 X-34.981 Y74.373 E23.06986
G1 X-35.341 Y73.501 E23.10180
G1 X-35.568 Y72.591 E23.13352
G1 X-35.660 Y71.652 E23.16545
G1 X-35.661 Y-71.519 E28.01163
G1 X-35.548 Y-72.700 E28.05179
G1 X-35.221 Y-73.834 E28.09174
G1 X-34.829 Y-74.658 E28.12262
G1 X-34.328 Y-75.412 E28.15328
G1 X-33.726 Y-76.089 E28.18395
G1 X-33.029 Y-76.677 E28.21483
G1 X-32.255 Y-77.161 E28.24571
G1 X-31.426 Y-77.528 E28.27637
G1 X-30.555 Y-77.774 E28.30704
G1 X-29.657 Y-77.894 E28.33771
G1 X29.261 Y-77.907 E30.33198
G1 X30.479 Y-77.789 E30.37341
G1 X31.652 Y-77.441 E30.41483
G1 X32.738 Y-76.877 E30.45626
G1 X33.697 Y-76.117 E30.49768
G1 X34.494 Y-75.188 E30.53911
G1 X35.099 Y-74.124 E30.58053
G1 X35.492 Y-72.965 E30.62195
G1 X35.656 Y-71.752 E30.66338
G1 X35.659 Y-0.121 E33.08800
G1 E30.08800 F2700.000
G92 E0
G1 Z0.700 F9000.000
G1 X28.215 Y70.461
G1 Z0.200
G1 E3.00000 F2700.000
;TYPE:Perimeter
G1 F3600.000
G1 X20.471 Y70.461 E3.26214
G1 X20.471 Y-70.461 E8.03218
G1 X28.215 Y-70.461 E8.29432
G1 X28.215 Y70.401 E13.06232
M73 P0 R43
M73 Q0 S43
G1 X28.622 Y70.868 F9000.000
G1 F3600.000
G1 X20.064 Y70.868 E13.35202
G1 X20.064 Y-70.868 E18.14961
G1 X28.622 Y-70.868 E18.43931
G1 X28.622 Y70.808 E23.23487
G1 X29.029 Y71.275 F9000.000
;TYPE:External perimeter
G1 F3600.000
G1 X19.656 Y71.275 E23.55213
M73 P1 R43
M73 Q1 S43
G1 X19.656 Y-71.275 E28.37728
G1 X29.029 Y-71.275 E28.69454
G1 X29.029 Y71.215 E33.51766
G1 X28.679 Y71.083 F9000.000
G1 E30.51766 F2700.000
G92 E0
G1 Z0.700 F9000.000
G1 X28.093 Y-69.514
G1 Z0.200
G1 E3.00000 F2700.000
;TYPE:Solid infill
;WIDTH:0.450838
G1 F3600.000
G1 X27.452 Y-70.156 E3.03077
G1 X26.875 Y-70.156 E3.05034
G1 X27.910 Y-69.120 E3.10000
G1 X27.910 Y-68.543 E3.11956
G1 X26.298 Y-70.156 E3.19689
G1 X25.721 Y-70.156 E3.21646
G1 X27.910 Y-67.967 E3.32146
G1 X27.910 Y-67.390 E3.34103
G1 X25.144 Y-70.156 E3.47370
G1 X24.567 Y-70.156 E3.49326
G1 X27.910 Y-66.813 E3.65361
G1 X27.910 Y-66.236 E3.67318
G1 X23.990 Y-70.156 E3.86119
G1 X23.413 Y-70.156 E3.88076
G1 X27.910 Y-65.659 E4.09645
G1 X27.910 Y-65.082 E4.11601
G1 X22.836 Y-70.156 E4.35938
G1 X22.260 Y-70.156 E4.37894
G1 X27.910 Y-64.505 E4.64997
G1 X27.910 Y-63.928 E4.66954
G1 X21.683 Y-70.156 E4.96825
G1 X21.106 Y-70.156 E4.98781
G1 X27.910 Y-63.352 E5.31419
G1 X27.910 Y-62.775 E5.33376
G1 X20.776 Y-69.909 E5.67596
G1 X20.776 Y-69.332 E5.69552
G1 X27.910 Y-62.198 E6.03773
G1 X27.910 Y-61.621 E6.05729
G1 X20.776 Y-68.755 E6.39949
G1 X20.776 Y-68.178 E6.41906
G1 X27.910 Y-61.044 E6.76126
G1 X27.910 Y-60.467 E6.78083
G1 X20.776 Y-67.601 E7.12303
G1 X20.776 Y-67.024 E7.14260
G1 X27.910 Y-59.890 E7.48480
G1 X27.910 Y-59.313 E7.50437
G1 X20.776 Y-66.447 E7.84657
G1 X20.776 Y-65.870 E7.86614
G1 X27.910 Y-58.736 E8.20834
G1 X27.910 Y-58.160 E8.22790
G1 X20.776 Y-65.294 E8.57011
G1 X20.776 Y-64.717 E8.58967
G1 X27.910 Y-57.583 E8.93188
G1 X27.910 Y-57.006 E8.95144
G1 X20.776 Y-64.140 E9.29364
G1 X20.776 Y-63.563 E9.31321
G1 X27.910 Y-56.429 E9.65541
G1 X27.910 Y-55.852 E9.67498
G1 X20.776 Y-62.986 E10.01718
G1 X20.776 Y-62.409 E10.03675
G1 X27.910 Y-55.275 E10.37895
G1 X27.910 Y-54.698 E10.39852
G1 X20.776 Y-61.832 E10.74072
G1 X20.776 Y-61.255 E10.76029
G1 X27.910 Y-54.121 E11.10249
G1 X27.910 Y-53.544 E11.12205
G1 X20.776 Y-60.678 E11.46426
G1 X20.776 Y-60.102 E11.48382
G1 X27.910 Y-52.968 E11.82602
G1 X27.910 Y-52.391 E11.84559
G1 X20.776 Y-59.525 E12.18779
G1 X20.776 Y-58.948 E12.20736
G1 X27.910 Y-51.814 E12.54956
G1 X27.910 Y-51.237 E12.56913
G1 X20.776 Y-58.371 E12.91133
G1 X20.776 Y-57.794 E12.93090
G1 X27.910 Y-50.660 E13.27310
G1 X27.910 Y-50.083 E13.29267
G1 X20.776 Y-57.217 E13.63487
G1 X20.776 Y-56.640 E13.65443
G1 X27.910 Y-49.506 E13.99664
G1 X27.910 Y-48.929 E14.01620
G1 X20.776 Y-56.063 E14.35840
G1 X20.776 Y-55.486 E14.37797
G1 X27.910 Y-48.353 E14.72017
G1 X27.910 Y-47.776 E14.73974
G1 X20.776 Y-54.910 E15.08194
G1 X20.776 Y-54.333 E15.10151
G1 X27.910 Y-47.199 E15.44371
G1 X27.910 Y-46.622 E15.46328
G1 X20.776 Y-53.756 E15.80548
G1 X20.776 Y-53.179 E15.82505
G1 X27.910 Y-46.045 E16.16725
G1 X27.910 Y-45.468 E16.18681
G1 X20.776 Y-52.602 E16.52902
G1 X20.776 Y-52.025 E16.54858
G1 X27.910 Y-44.891 E16.89079
G1 X27.910 Y-44.314 E16.91035
G1 X20.776 Y-51.448 E17.25255
G1 X20.776 Y-50.871 E17.27212
G1 X27.910 Y-43.737 E17.61432
G1 X27.910 Y-43.161 E17.63389
G1 X20.776 Y-50.295 E17.97609
G1 X20.776 Y-49.718 E17.99566
G1 X27.910 Y-42.584 E18.33786
G1 X27.910 Y-42.007 E18.35743
G1 X20.776 Y-49.141 E18.69963
G1 X20.776 Y-48.564 E18.71920
G1 X27.910 Y-41.430 E19.06140
G1 X27.910 Y-40.853 E19.08096
G1 X20.776 Y-47.987 E19.42317
G1 X20.776 Y-47.410 E19.44273
G1 X27.910 Y-40.276 E19.78493
G1 X27.910 Y-39.699 E19.80450
G1 X20.776 Y-46.833 E20.14670
G1 X20.776 Y-46.256 E20.16627
G1 X27.910 Y-39.122 E20.50847
G1 X27.910 Y-38.546 E20.52804
G1 X20.776 Y-45.679 E20.87024
G1 X20.776 Y-45.103 E20.88981
G1 X27.910 Y-37.969 E21.23201
G1 X27.910 Y-37.392 E21.25158
G1 X20.776 Y-44.526 E21.59378
G1 X20.776 Y-43.949 E21.61334
G1 X27.910 Y-36.815 E21.95555
G1 X27.910 Y-36.238 E21.97511
G1 X20.776 Y-43.372 E22.31732
G1 X20.776 Y-42.795 E22.33688
G1 X27.910 Y-35.661 E22.67908
G1 X27.910 Y-35.084 E22.69865
G1 X20.776 Y-42.218 E23.04085
G1 X20.776 Y-41.641 E23.06042
G1 X27.910 Y-34.507 E23.40262
G1 X27.910 Y-33.930 E23.42219
G1 X20.776 Y-41.064 E23.76439
G1 X20.776 Y-40.488 E23.78396
G1 X27.910 Y-33.354 E24.12616
G1 X27.910 Y-32.777 E24.14573
G1 X20.776 Y-39.911 E24.48793
G1 X20.776 Y-39.334 E24.50749
G1 X27.910 Y-32.200 E24.84970
G1 X27.910 Y-31.623 E24.86926
G1 X20.776 Y-38.757 E25.21146
G1 X20.776 Y-38.180 E25.23103
G1 X27.910 Y-31.046 E25.57323
G1 X27.910 Y-30.469 E25.59280
G1 X20.776 Y-37.603 E25.93500
G1 X20.776 Y-37.026 E25.95457
G1 X27.910 Y-29.892 E26.29677
G1 X27.910 Y-29.315 E26.31634
G1 X20.776 Y-36.449 E26.65854
G1 X20.776 Y-35.872 E26.67811
G1 X27.910 Y-28.739 E27.02031
G1 X27.910 Y-28.162 E27.03988
G1 X20.776 Y-35.296 E27.38208
G1 X20.776 Y-34.719 E27.40164
G1 X27.910 Y-27.585 E27.74385
G1 X27.910 Y-27.008 E27.76341
G1 X20.776 Y-34.142 E28.10561
G1 X20.776 Y-33.565 E28.12518
G1 X27.910 Y-26.431 E28.46738
G1 X27.910 Y-25.854 E28.48695
G1 X20.776 Y-32.988 E28.82915
G1 X20.776 Y-32.411 E28.84872
G1 X27.910 Y-25.277 E29.19092
G1 X27.910 Y-24.700 E29.21049
G1 X20.776 Y-31.834 E29.55269
G1 X20.776 Y-31.257 E29.57226
G1 X27.910 Y-24.123 E29.91446
G1 X27.910 Y-23.547 E29.93402
G1 X20.776 Y-30.681 E30.27623
G1 X20.776 Y-30.104 E30.29579
G1 X27.910 Y-22.970 E30.63800
G1 X27.910 Y-22.393 E30.65756
G1 X20.776 Y-29.527 E30.99976
G1 X20.776 Y-28.950 E31.01933
G1 X27.910 Y-21.816 E31.36153
G1 X27.910 Y-21.239 E31.38110
G1 X20.776 Y-28.373 E31.72330
G1 X20.776 Y-27.796 E31.74287
G1 X27.910 Y-20.662 E32.08507
G1 X27.910 Y-20.085 E32.10464
G1 X20.776 Y-27.219 E32.44684
G1 X20.776 Y-26.642 E32.46641
G1 X27.910 Y-19.508 E32.80861
G1 X27.910 Y-18.932 E32.82817
G1 X20.776 Y-26.065 E33.17038
G1 X20.776 Y-25.489 E33.18994
G1 X27.910 Y-18.355 E33.53214
G1 X27.910 Y-17.778 E33.55171
G1 X20.776 Y-24.912 E33.89391
G1 X20.776 Y-24.335 E33.91348
G1 X27.910 Y-17.201 E34.25568
G1 X27.910 Y-16.624 E34.27525
G1 X20.776 Y-23.758 E34.61745
G1 X20.776 Y-23.181 E34.63702
G1 X27.910 Y-16.047 E34.97922
G1 X27.910 Y-15.470 E34.99879
G1 X20.776 Y-22.604 E35.34099
G1 X20.776 Y-22.027 E35.36056
G1 X27.910 Y-14.893 E35.70276
G1 X27.910 Y-14.316 E35.72232
G1 X20.776 Y-21.450 E36.06453
G1 X20.776 Y-20.874 E36.08409
G1 X27.910 Y-13.740 E36.42629
G1 X27.910 Y-13.163 E36.44586
G1 X20.776 Y-20.297 E36.78806
G1 X20.776 Y-19.720 E36.80763
G1 X27.910 Y-12.586 E37.14983
G1 X27.910 Y-12.009 E37.16940
G1 X20.776 Y-19.143 E37.51160
G1 X20.776 Y-18.566 E37.53117
G1 X27.910 Y-11.432 E37.87337
G1 X27.910 Y-10.855 E37.89294
G1 X20.776 Y-17.989 E38.23514
G1 X20.776 Y-17.412 E38.25470
G1 X27.910 Y-10.278 E38.59691
G1 X27.910 Y-9.701 E38.61647
G1 X20.776 Y-16.835 E38.95867
M73 P2 R43
M73 Q2 S43
G1 X20.776 Y-16.258 E38.97824
G1 X27.910 Y-9.124 E39.32044
G1 X27.910 Y-8.548 E39.34001
G1 X20.776 Y-15.682 E39.68221
G1 X20.776 Y-15.105 E39.70178
G1 X27.910 Y-7.971 E40.04398
G1 X27.910 Y-7.394 E40.06355
G1 X20.776 Y-14.528 E40.40575
G1 X20.776 Y-13.951 E40.42532
G1 X27.910 Y-6.817 E40.76752
G1 X27.910 Y-6.240 E40.78709
G1 X20.776 Y-13.374 E41.12929
G1 X20.776 Y-12.797 E41.14885
G1 X27.910 Y-5.663 E41.49106
G1 X27.910 Y-5.086 E41.51062
G1 X20.776 Y-12.220 E41.85282
G1 X20.776 Y-11.643 E41.87239
G1 X27.910 Y-4.509 E42.21459
G1 X27.910 Y-3.933 E42.23416
G1 X20.776 Y-11.066 E42.57636
G1 X20.776 Y-10.490 E42.59593
G1 X27.910 Y-3.356 E42.93813
G1 X27.910 Y-2.779 E42.95770
G1 X20.776 Y-9.913 E43.29990
G1 X20.776 Y-9.336 E43.31947
G1 X27.910 Y-2.202 E43.66167
G1 X27.910 Y-1.625 E43.68123
G1 X20.776 Y-8.759 E44.02344
G1 X20.776 Y-8.182 E44.04300
G1 X27.910 Y-1.048 E44.38521
G1 X27.910 Y-0.471 E44.40477
G1 X20.776 Y-7.605 E44.74697
G1 X20.776 Y-7.028 E44.76654
G1 X27.910 Y0.106 E45.10874
G1 X27.910 Y0.683 E45.12831
G1 X20.776 Y-6.451 E45.47051
G1 X20.776 Y-5.875 E45.49008
G1 X27.910 Y1.259 E45.83228
G1 X27.910 Y1.836 E45.85185
G1 X20.776 Y-5.298 E46.19405
G1 X20.776 Y-4.721 E46.21362
G1 X27.910 Y2.413 E46.55582
G1 X27.910 Y2.990 E46.57538
G1 X20.776 Y-4.144 E46.91759
G1 X20.776 Y-3.567 E46.93715
G1 X27.910 Y3.567 E47.27935
G1 X27.910 Y4.144 E47.29892
G1 X20.776 Y-2.990 E47.64112
G1 X20.776 Y-2.413 E47.66069
G1 X27.910 Y4.721 E48.00289
G1 X27.910 Y5.298 E48.02246
G1 X20.776 Y-1.836 E48.36466
G1 X20.776 Y-1.259 E48.38423
G1 X27.910 Y5.874 E48.72643
G1 X27.910 Y6.451 E48.74600
G1 X20.776 Y-0.683 E49.08820
G1 X20.776 Y-0.106 E49.10776
G1 X27.910 Y7.028 E49.44997
G1 X27.910 Y7.605 E49.46953
G1 X20.776 Y0.471 E49.81174
G1 X20.776 Y1.048 E49.83130
G1 X27.910 Y8.182 E50.17350
G1 X27.910 Y8.759 E50.19307
G1 X20.776 Y1.625 E50.53527
G1 X20.776 Y2.202 E50.55484
G1 X27.910 Y9.336 E50.89704
G1 X27.910 Y9.913 E50.91661
G1 X20.776 Y2.779 E51.25881
G1 X20.776 Y3.356 E51.27838
G1 X27.910 Y10.490 E51.62058
G1 X27.910 Y11.066 E51.64015
G1 X20.776 Y3.932 E51.98235
G1 X20.776 Y4.509 E52.00191
G1 X27.910 Y11.643 E52.34412
G1 X27.910 Y12.220 E52.36368
G1 X20.776 Y5.086 E52.70588
G1 X20.776 Y5.663 E52.72545
G1 X27.910 Y12.797 E53.06765
G1 X27.910 Y13.374 E53.08722
G1 X20.776 Y6.240 E53.42942
G1 X20.776 Y6.817 E53.44899
G1 X27.910 Y13.951 E53.79119
G1 X27.910 Y14.528 E53.81076
G1 X20.776 Y7.394 E54.15296
G1 X20.776 Y7.971 E54.17253
G1 X27.910 Y15.105 E54.51473
G1 X27.910 Y15.681 E54.53429
G1 X20.776 Y8.548 E54.87650
G1 X20.776 Y9.124 E54.89606
G1 X27.910 Y16.258 E55.23826
G1 X27.910 Y16.835 E55.25783
G1 X20.776 Y9.701 E55.60003
G1 X20.776 Y10.278 E55.61960
G1 X27.910 Y17.412 E55.96180
G1 X27.910 Y17.989 E55.98137
G1 X20.776 Y10.855 E56.32357
G1 X20.776 Y11.432 E56.34314
G1 X27.910 Y18.566 E56.68534
G1 X27.910 Y19.143 E56.70491
G1 X20.776 Y12.009 E57.04711
G1 X20.776 Y12.586 E57.06667
G1 X27.910 Y19.720 E57.40888
G1 X27.910 Y20.297 E57.42844
G1 X20.776 Y13.163 E57.77064
G1 X20.776 Y13.739 E57.79021
G1 X27.910 Y20.873 E58.13241
G1 X27.910 Y21.450 E58.15198
G1 X20.776 Y14.316 E58.49418
G1 X20.776 Y14.893 E58.51375
G1 X27.910 Y22.027 E58.85595
G1 X27.910 Y22.604 E58.87552
G1 X20.776 Y15.470 E59.21772
G1 X20.776 Y16.047 E59.23729
G1 X27.910 Y23.181 E59.57949
G1 X27.910 Y23.758 E59.59906
G1 X20.776 Y16.624 E59.94126
G1 X20.776 Y17.201 E59.96082
G1 X27.910 Y24.335 E60.30303
G1 X27.910 Y24.912 E60.32259
G1 X20.776 Y17.778 E60.66479
G1 X20.776 Y18.355 E60.68436
G1 X27.910 Y25.488 E61.02656
G1 X27.910 Y26.065 E61.04613
G1 X20.776 Y18.931 E61.38833
G1 X20.776 Y19.508 E61.40790
G1 X27.910 Y26.642 E61.75010
G1 X27.910 Y27.219 E61.76967
G1 X20.776 Y20.085 E62.11187
G1 X20.776 Y20.662 E62.13144
G1 X27.910 Y27.796 E62.47364
G1 X27.910 Y28.373 E62.49320
G1 X20.776 Y21.239 E62.83541
G1 X20.776 Y21.816 E62.85497
G1 X27.910 Y28.950 E63.19717
G1 X27.910 Y29.527 E63.21674
G1 X20.776 Y22.393 E63.55894
G1 X20.776 Y22.970 E63.57851
G1 X27.910 Y30.104 E63.92071
G1 X27.910 Y30.680 E63.94028
G1 X20.776 Y23.546 E64.28248
G1 X20.776 Y24.123 E64.30205
G1 X27.910 Y31.257 E64.64425
G1 X27.910 Y31.834 E64.66382
G1 X20.776 Y24.700 E65.00602
G1 X20.776 Y25.277 E65.02558
G1 X27.910 Y32.411 E65.36779
G1 X27.910 Y32.988 E65.38735
G1 X20.776 Y25.854 E65.72955
G1 X20.776 Y26.431 E65.74912
G1 X27.910 Y33.565 E66.09132
G1 X27.910 Y34.142 E66.11089
G1 X20.776 Y27.008 E66.45309
G1 X20.776 Y27.585 E66.47266
G1 X27.910 Y34.719 E66.81486
G1 X27.910 Y35.296 E66.83443
G1 X20.776 Y28.162 E67.17663
G1 X20.776 Y28.738 E67.19620
G1 X27.910 Y35.872 E67.53840
G1 X27.910 Y36.449 E67.55796
G1 X20.776 Y29.315 E67.90017
G1 X20.776 Y29.892 E67.91973
G1 X27.910 Y37.026 E68.26194
G1 X27.910 Y37.603 E68.28150
G1 X20.776 Y30.469 E68.62370
G1 X20.776 Y31.046 E68.64327
G1 X27.910 Y38.180 E68.98547
G1 X27.910 Y38.757 E69.00504
G1 X20.776 Y31.623 E69.34724
G1 X20.776 Y32.200 E69.36681
G1 X27.910 Y39.334 E69.70901
G1 X27.910 Y39.911 E69.72858
G1 X20.776 Y32.777 E70.07078
G1 X20.776 Y33.354 E70.09035
G1 X27.910 Y40.487 E70.43255
G1 X27.910 Y41.064 E70.45211
G1 X20.776 Y33.930 E70.79432
G1 X20.776 Y34.507 E70.81388
