; generated by PrusaSlicer 2.3.0-rc2+ on 2021-05-05 at 18:52:26 UTC

; 

; external perimeters extrusion width = 0.45mm
; perimeters extrusion width = 0.45mm
; infill extrusion width = 0.45mm
; solid infill extrusion width = 0.45mm
; top infill extrusion width = 0.40mm

M73 P0 R63
M73 Q0 S63
M201 X9000 Y9000 Z9000 E10000 ; sets maximum accelerations, mm/sec^2
M203 X500 Y500 Z500 E120 ; sets maximum feedrates, mm/sec
M204 P1500 R1500 T1500 ; sets acceleration (P, T) and retract acceleration (R), mm/sec^2
M205 X20.00 Y20.00 Z20.00 E25.00 ; sets the jerk limits, mm/sec
M205 S0 T0 ; sets the minimum extruding and travel feed rate, mm/sec
M107
M190 S80 ; set bed temperature and wait for it to be reached
M104 S205 ; set temperature
;TYPE:Custom
G28     ; home all axes
G29 L1  ; Load the mesh stored in slot 1 (from G29 S1)
G29 J   ; 3-Point mesh tilt
M109 S205 ; set temperature and wait for it to be reached
G21 ; set units to millimeters
G90 ; use absolute coordinates
M82 ; use absolute distances for extrusion
G92 E0
M900 K0.3 ; Custom linear advance
;LAYER_CHANGE
;Z:0.1
;HEIGHT:0.1
G1 Z0.100 F9000.000
G10 ; retract
G92 E0
G1 Z0.600
G1 X36.453 Y-0.002
G1 Z0.100
G11 ; unretract
G92 E0
;TYPE:Skirt
;WIDTH:0.45
G1 F3600.000
G1 X36.456 Y71.527 E1.27440
G1 X36.330 Y72.852 E1.29812
G1 X35.961 Y74.139 E1.32197
G1 X35.520 Y75.073 E1.34037
G1 X34.947 Y75.940 E1.35889
G1 X34.261 Y76.712 E1.37729
G1 X33.468 Y77.384 E1.39581
G1 X32.593 Y77.932 E1.41421
G1 X31.643 Y78.353 E1.43273
G1 X30.642 Y78.635 E1.45124
G1 X29.618 Y78.772 E1.46964
G1 X-29.231 Y78.785 E2.51814
G1 X-30.543 Y78.655 E2.54163
G1 X-31.810 Y78.291 E2.56512
G1 X-32.773 Y77.833 E2.58411
G1 X-33.658 Y77.240 E2.60311
G1 X-34.448 Y76.523 E2.62210
G1 X-35.124 Y75.699 E2.64109
G1 X-35.673 Y74.786 E2.66008
G1 X-36.085 Y73.795 E2.67919
G1 X-36.346 Y72.762 E2.69819
G1 X-36.454 Y71.701 E2.71718
G1 X-36.456 Y-71.527 E5.26902
G1 X-36.330 Y-72.852 E5.29274
G1 X-35.961 Y-74.139 E5.31659
G1 X-35.523 Y-75.067 E5.33487
G1 X-34.959 Y-75.924 E5.35315
G1 X-34.275 Y-76.698 E5.37155
G1 X-33.495 Y-77.364 E5.38984
G1 X-32.628 Y-77.913 E5.40812
G1 X-31.693 Y-78.335 E5.42640
G1 X-30.707 Y-78.622 E5.44468
G1 X-29.692 Y-78.767 E5.46296
G1 X29.177 Y-78.786 E6.51181
G1 X30.556 Y-78.653 E6.53648
G1 X31.884 Y-78.261 E6.56116
G1 X33.120 Y-77.622 E6.58595
G1 X34.208 Y-76.764 E6.61062
G1 X35.117 Y-75.710 E6.63542
G1 X35.806 Y-74.509 E6.66009
G1 X36.255 Y-73.199 E6.68477
G1 X36.449 Y-71.821 E6.70956
G1 X36.453 Y-0.062 E7.98807
G1 X36.025 Y-0.062 F9000.000
G1 F3600.000
G1 X36.028 Y71.519 E9.26341
G1 X35.907 Y72.780 E9.28596
G1 X35.559 Y73.991 E9.30841
G1 X35.138 Y74.878 E9.32591
G1 X34.598 Y75.691 E9.34330
G1 X33.948 Y76.419 E9.36069
G1 X33.201 Y77.048 E9.37808
G1 X32.367 Y77.567 E9.39559
G1 X31.473 Y77.959 E9.41298
G1 X30.533 Y78.220 E9.43037
G1 X29.565 Y78.346 E9.44776
G1 X-29.222 Y78.357 E10.49515
G1 X-30.463 Y78.234 E10.51736
G1 X-31.661 Y77.889 E10.53958
G1 X-32.566 Y77.458 E10.55743
G1 X-33.403 Y76.895 E10.57539
G1 X-34.144 Y76.221 E10.59324
G1 X-34.782 Y75.441 E10.61120
G1 X-35.297 Y74.581 E10.62905
G1 X-35.682 Y73.649 E10.64702
G1 X-35.926 Y72.678 E10.66487
G1 X-36.026 Y71.674 E10.68283
G1 X-36.028 Y-71.519 E13.23406
G1 X-35.907 Y-72.780 E13.25662
G1 X-35.559 Y-73.991 E13.27906
G1 X-35.144 Y-74.867 E13.29634
G1 X-34.610 Y-75.676 E13.31361
G1 X-33.966 Y-76.401 E13.33089
G1 X-33.227 Y-77.029 E13.34816
G1 X-32.407 Y-77.545 E13.36544
G1 X-31.522 Y-77.941 E13.38271
G1 X-30.590 Y-78.209 E13.39999
G1 X-29.636 Y-78.341 E13.41715
G1 X29.177 Y-78.357 E14.46500
G1 X30.482 Y-78.230 E14.48836
G1 X31.734 Y-77.860 E14.51161
G1 X32.897 Y-77.256 E14.53497
G1 X33.920 Y-76.446 E14.55822
G1 X34.771 Y-75.457 E14.58146
G1 X35.422 Y-74.318 E14.60483
G1 X35.844 Y-73.077 E14.62819
G1 X36.022 Y-71.784 E14.65144
G1 X36.025 Y-0.122 E15.92822
G1 X35.597 Y-0.122 F9000.000
G1 F3600.000
G1 X35.599 Y71.519 E17.20461
G1 X35.486 Y72.702 E17.22578
G1 X35.159 Y73.838 E17.24685
G1 X34.764 Y74.669 E17.26324
G1 X34.254 Y75.435 E17.27963
G1 X33.641 Y76.120 E17.29602
G1 X32.940 Y76.707 E17.31230
G1 X32.159 Y77.192 E17.32869
G1 X31.321 Y77.558 E17.34497
G1 X30.434 Y77.803 E17.36136
G1 X29.522 Y77.919 E17.37776
G1 X-29.215 Y77.928 E18.42424
G1 X-30.385 Y77.813 E18.44519
G1 X-31.509 Y77.488 E18.46603
G1 X-32.356 Y77.084 E18.48276
G1 X-33.140 Y76.557 E18.49959
G1 X-33.834 Y75.925 E18.51632
G1 X-34.432 Y75.193 E18.53316
G1 X-34.917 Y74.382 E18.54999
G1 X-35.277 Y73.508 E18.56683
G1 X-35.505 Y72.598 E18.58355
G1 X-35.597 Y71.657 E18.60039
G1 X-35.599 Y-71.519 E21.15130
G1 X-35.486 Y-72.702 E21.17247
G1 X-35.159 Y-73.838 E21.19354
G1 X-34.767 Y-74.663 E21.20982
G1 X-34.262 Y-75.425 E21.22610
G1 X-33.654 Y-76.107 E21.24238
G1 X-32.961 Y-76.693 E21.25855
G1 X-32.192 Y-77.174 E21.27472
G1 X-31.357 Y-77.545 E21.29100
G1 X-30.484 Y-77.793 E21.30716
G1 X-29.578 Y-77.916 E21.32344
G1 X29.177 Y-77.929 E22.37026
G1 X30.397 Y-77.810 E22.39210
G1 X31.573 Y-77.463 E22.41394
G1 X32.661 Y-76.899 E22.43578
G1 X33.627 Y-76.134 E22.45774
G1 X34.425 Y-75.203 E22.47958
G1 X35.035 Y-74.133 E22.50153
G1 X35.428 Y-72.972 E22.52337
G1 X35.594 Y-71.751 E22.54532
G1 X35.597 Y-0.182 E23.82044
G10 ; retract
G92 E0
G1 Z0.600 F9000.000
G1 X28.089 Y70.418
G1 Z0.100
G11 ; unretract
G92 E0
;TYPE:Perimeter
G1 F3600.000
G1 X20.597 Y70.418 E0.13347
G1 X20.597 Y-70.418 E2.64269
G1 X28.089 Y-70.418 E2.77617
G1 X28.089 Y70.358 E5.28432
G1 X28.517 Y70.846 F9000.000
G1 F3600.000
G1 X20.169 Y70.846 E5.43306
G1 X20.169 Y-70.846 E7.95755
G1 X28.517 Y-70.846 E8.10629
G1 X28.517 Y70.786 E10.62971
G1 X28.946 Y71.275 F9000.000
;TYPE:External perimeter
G1 F3600.000
G1 X19.740 Y71.275 E10.79373
G1 X19.740 Y-71.275 E13.33349
G1 X28.946 Y-71.275 E13.49750
G1 X28.946 Y71.215 E16.03619
M73 P1 R63
M73 Q1 S63
G1 X28.595 Y71.082 F9000.000
G10 ; retract
G92 E0
G1 Z0.600
G1 X27.960 Y-69.423
G1 Z0.100
G11 ; unretract
G92 E0
;TYPE:Solid infill
;WIDTH:0.450067
G1 F3600.000
G1 X27.286 Y-70.097 E0.01697
G1 X26.680 Y-70.097 E0.02778
G1 X27.767 Y-69.010 E0.05517
G1 X27.767 Y-68.404 E0.06597
G1 X26.074 Y-70.097 E0.10863
G1 X25.468 Y-70.097 E0.11943
G1 X27.767 Y-67.797 E0.17737
G1 X27.767 Y-67.191 E0.18817
G1 X24.862 Y-70.097 E0.26139
G1 X24.256 Y-70.097 E0.27219
G1 X27.767 Y-66.585 E0.36068
G1 X27.767 Y-65.979 E0.37148
G1 X23.650 Y-70.097 E0.47525
G1 X23.043 Y-70.097 E0.48605
G1 X27.767 Y-65.373 E0.60509
G1 X27.767 Y-64.767 E0.61589
G1 X22.437 Y-70.097 E0.75020
G1 X21.831 Y-70.097 E0.76101
G1 X27.767 Y-64.161 E0.91060
G1 X27.767 Y-63.554 E0.92140
G1 X21.225 Y-70.097 E1.08626
G1 X20.918 Y-70.097 E1.09173
G1 X20.918 Y-69.797 E1.09706
G1 X27.767 Y-62.948 E1.26966
G1 X27.767 Y-62.342 E1.28046
G1 X20.918 Y-69.191 E1.45305
G1 X20.918 Y-68.585 E1.46385
G1 X27.767 Y-61.736 E1.63644
G1 X27.767 Y-61.130 E1.64724
G1 X20.918 Y-67.979 E1.81983
G1 X20.918 Y-67.372 E1.83064
G1 X27.767 Y-60.524 E2.00323
G1 X27.767 Y-59.918 E2.01403
G1 X20.918 Y-66.766 E2.18662
G1 X20.918 Y-66.160 E2.19742
G1 X27.767 Y-59.311 E2.37001
G1 X27.767 Y-58.705 E2.38082
G1 X20.918 Y-65.554 E2.55341
G1 X20.918 Y-64.948 E2.56421
G1 X27.767 Y-58.099 E2.73680
G1 X27.767 Y-57.493 E2.74760
G1 X20.918 Y-64.342 E2.92019
G1 X20.918 Y-63.736 E2.93099
G1 X27.767 Y-56.887 E3.10359
G1 X27.767 Y-56.281 E3.11439
G1 X20.918 Y-63.129 E3.28698
G1 X20.918 Y-62.523 E3.29778
G1 X27.767 Y-55.675 E3.47037
G1 X27.767 Y-55.068 E3.48117
G1 X20.918 Y-61.917 E3.65377
G1 X20.918 Y-61.311 E3.66457
G1 X27.767 Y-54.462 E3.83716
G1 X27.767 Y-53.856 E3.84796
G1 X20.918 Y-60.705 E4.02055
G1 X20.918 Y-60.099 E4.03135
G1 X27.767 Y-53.250 E4.20394
G1 X27.767 Y-52.644 E4.21475
G1 X20.918 Y-59.493 E4.38734
G1 X20.918 Y-58.886 E4.39814
G1 X27.767 Y-52.038 E4.57073
G1 X27.767 Y-51.432 E4.58153
G1 X20.918 Y-58.280 E4.75412
G1 X20.918 Y-57.674 E4.76492
G1 X27.767 Y-50.825 E4.93752
G1 X27.767 Y-50.219 E4.94832
G1 X20.918 Y-57.068 E5.12091
G1 X20.918 Y-56.462 E5.13171
G1 X27.767 Y-49.613 E5.30430
G1 X27.767 Y-49.007 E5.31510
G1 X20.918 Y-55.856 E5.48770
G1 X20.918 Y-55.250 E5.49850
G1 X27.767 Y-48.401 E5.67109
G1 X27.767 Y-47.795 E5.68189
G1 X20.918 Y-54.643 E5.85448
G1 X20.918 Y-54.037 E5.86528
G1 X27.767 Y-47.189 E6.03787
G1 X27.767 Y-46.582 E6.04868
G1 X20.918 Y-53.431 E6.22127
G1 X20.918 Y-52.825 E6.23207
G1 X27.767 Y-45.976 E6.40466
G1 X27.767 Y-45.370 E6.41546
G1 X20.918 Y-52.219 E6.58805
G1 X20.918 Y-51.613 E6.59886
G1 X27.767 Y-44.764 E6.77145
G1 X27.767 Y-44.158 E6.78225
G1 X20.918 Y-51.007 E6.95484
G1 X20.918 Y-50.400 E6.96564
G1 X27.767 Y-43.552 E7.13823
G1 X27.767 Y-42.946 E7.14903
G1 X20.918 Y-49.794 E7.32163
G1 X20.918 Y-49.188 E7.33243
G1 X27.767 Y-42.339 E7.50502
G1 X27.767 Y-41.733 E7.51582
G1 X20.918 Y-48.582 E7.68841
G1 X20.918 Y-47.976 E7.69921
G1 X27.767 Y-41.127 E7.87181
G1 X27.767 Y-40.521 E7.88261
G1 X20.918 Y-47.370 E8.05520
G1 X20.918 Y-46.764 E8.06600
G1 X27.767 Y-39.915 E8.23859
G1 X27.767 Y-39.309 E8.24939
G1 X20.918 Y-46.157 E8.42198
G1 X20.918 Y-45.551 E8.43279
G1 X27.767 Y-38.703 E8.60538
G1 X27.767 Y-38.096 E8.61618
G1 X20.918 Y-44.945 E8.78877
G1 X20.918 Y-44.339 E8.79957
G1 X27.767 Y-37.490 E8.97216
G1 X27.767 Y-36.884 E8.98296
G1 X20.918 Y-43.733 E9.15556
G1 X20.918 Y-43.127 E9.16636
G1 X27.767 Y-36.278 E9.33895
G1 X27.767 Y-35.672 E9.34975
G1 X20.918 Y-42.521 E9.52234
G1 X20.918 Y-41.914 E9.53314
G1 X27.767 Y-35.066 E9.70574
G1 X27.767 Y-34.460 E9.71654
G1 X20.918 Y-41.308 E9.88913
G1 X20.918 Y-40.702 E9.89993
G1 X27.767 Y-33.853 E10.07252
G1 X27.767 Y-33.247 E10.08332
G1 X20.918 Y-40.096 E10.25591
G1 X20.918 Y-39.490 E10.26672
G1 X27.767 Y-32.641 E10.43931
G1 X27.767 Y-32.035 E10.45011
G1 X20.918 Y-38.884 E10.62270
G1 X20.918 Y-38.278 E10.63350
G1 X27.767 Y-31.429 E10.80609
G1 X27.767 Y-30.823 E10.81689
G1 X20.918 Y-37.671 E10.98949
G1 X20.918 Y-37.065 E11.00029
G1 X27.767 Y-30.217 E11.17288
G1 X27.767 Y-29.610 E11.18368
G1 X20.918 Y-36.459 E11.35627
G1 X20.918 Y-35.853 E11.36707
G1 X27.767 Y-29.004 E11.53967
G1 X27.767 Y-28.398 E11.55047
G1 X20.918 Y-35.247 E11.72306
G1 X20.918 Y-34.641 E11.73386
G1 X27.767 Y-27.792 E11.90645
G1 X27.767 Y-27.186 E11.91725
G1 X20.918 Y-34.035 E12.08985
G1 X20.918 Y-33.428 E12.10065
G1 X27.767 Y-26.580 E12.27324
G1 X27.767 Y-25.974 E12.28404
G1 X20.918 Y-32.822 E12.45663
G1 X20.918 Y-32.216 E12.46743
G1 X27.767 Y-25.367 E12.64002
G1 X27.767 Y-24.761 E12.65083
G1 X20.918 Y-31.610 E12.82342
G1 X20.918 Y-31.004 E12.83422
G1 X27.767 Y-24.155 E13.00681
G1 X27.767 Y-23.549 E13.01761
G1 X20.918 Y-30.398 E13.19020
G1 X20.918 Y-29.792 E13.20100
G1 X27.767 Y-22.943 E13.37360
G1 X27.767 Y-22.337 E13.38440
G1 X20.918 Y-29.185 E13.55699
G1 X20.918 Y-28.579 E13.56779
G1 X27.767 Y-21.731 E13.74038
G1 X27.767 Y-21.124 E13.75118
G1 X20.918 Y-27.973 E13.92378
G1 X20.918 Y-27.367 E13.93458
G1 X27.767 Y-20.518 E14.10717
M73 P1 R62
M73 Q1 S62
G1 X27.767 Y-19.912 E14.11797
G1 X20.918 Y-26.761 E14.29056
G1 X20.918 Y-26.155 E14.30136
G1 X27.767 Y-19.306 E14.47395
G1 X27.767 Y-18.700 E14.48476
G1 X20.918 Y-25.549 E14.65735
G1 X20.918 Y-24.942 E14.66815
G1 X27.767 Y-18.094 E14.84074
G1 X27.767 Y-17.488 E14.85154
G1 X20.918 Y-24.336 E15.02413
G1 X20.918 Y-23.730 E15.03493
G1 X27.767 Y-16.881 E15.20753
G1 X27.767 Y-16.275 E15.21833
G1 X20.918 Y-23.124 E15.39092
G1 X20.918 Y-22.518 E15.40172
G1 X27.767 Y-15.669 E15.57431
G1 X27.767 Y-15.063 E15.58511
G1 X20.918 Y-21.912 E15.75771
G1 X20.918 Y-21.306 E15.76851
G1 X27.767 Y-14.457 E15.94110
G1 X27.767 Y-13.851 E15.95190
G1 X20.918 Y-20.700 E16.12449
G1 X20.918 Y-20.093 E16.13529
G1 X27.767 Y-13.245 E16.30789
G1 X27.767 Y-12.638 E16.31869
G1 X20.918 Y-19.487 E16.49128
G1 X20.918 Y-18.881 E16.50208
G1 X27.767 Y-12.032 E16.67467
G1 X27.767 Y-11.426 E16.68547
G1 X20.918 Y-18.275 E16.85806
G1 X20.918 Y-17.669 E16.86887
G1 X27.767 Y-10.820 E17.04146
G1 X27.767 Y-10.214 E17.05226
G1 X20.918 Y-17.063 E17.22485
G1 X20.918 Y-16.457 E17.23565
G1 X27.767 Y-9.608 E17.40824
G1 X27.767 Y-9.002 E17.41904
G1 X20.918 Y-15.850 E17.59164
G1 X20.918 Y-15.244 E17.60244
G1 X27.767 Y-8.395 E17.77503
G1 X27.767 Y-7.789 E17.78583
G1 X20.918 Y-14.638 E17.95842
G1 X20.918 Y-14.032 E17.96922
G1 X27.767 Y-7.183 E18.14182
G1 X27.767 Y-6.577 E18.15262
G1 X20.918 Y-13.426 E18.32521
G1 X20.918 Y-12.820 E18.33601
G1 X27.767 Y-5.971 E18.50860
G1 X27.767 Y-5.365 E18.51940
G1 X20.918 Y-12.214 E18.69199
G1 X20.918 Y-11.607 E18.70280
G1 X27.767 Y-4.759 E18.87539
G1 X27.767 Y-4.152 E18.88619
G1 X20.918 Y-11.001 E19.05878
G1 X20.918 Y-10.395 E19.06958
G1 X27.767 Y-3.546 E19.24217
G1 X27.767 Y-2.940 E19.25297
G1 X20.918 Y-9.789 E19.42557
G1 X20.918 Y-9.183 E19.43637
G1 X27.767 Y-2.334 E19.60896
G1 X27.767 Y-1.728 E19.61976
G1 X20.918 Y-8.577 E19.79235
G1 X20.918 Y-7.971 E19.80315
G1 X27.767 Y-1.122 E19.97575
G1 X27.767 Y-0.516 E19.98655
G1 X20.918 Y-7.364 E20.15914
G1 X20.918 Y-6.758 E20.16994
G1 X27.767 Y0.091 E20.34253
G1 X27.767 Y0.697 E20.35333
G1 X20.918 Y-6.152 E20.52593
G1 X20.918 Y-5.546 E20.53673
G1 X27.767 Y1.303 E20.70932
G1 X27.767 Y1.909 E20.72012
G1 X20.918 Y-4.940 E20.89271
G1 X20.918 Y-4.334 E20.90351
G1 X27.767 Y2.515 E21.07610
G1 X27.767 Y3.121 E21.08691
G1 X20.918 Y-3.728 E21.25950
G1 X20.918 Y-3.121 E21.27030
G1 X27.767 Y3.727 E21.44289
G1 X27.767 Y4.334 E21.45369
G1 X20.918 Y-2.515 E21.62628
G1 X20.918 Y-1.909 E21.63708
G1 X27.767 Y4.940 E21.80968
G1 X27.767 Y5.546 E21.82048
G1 X20.918 Y-1.303 E21.99307
G1 X20.918 Y-0.697 E22.00387
G1 X27.767 Y6.152 E22.17646
G1 X27.767 Y6.758 E22.18726
G1 X20.918 Y-0.091 E22.35986
G1 X20.918 Y0.515 E22.37066
G1 X27.767 Y7.364 E22.54325
G1 X27.767 Y7.970 E22.55405
G1 X20.918 Y1.122 E22.72664
G1 X20.918 Y1.728 E22.73744
G1 X27.767 Y8.577 E22.91003
G1 X27.767 Y9.183 E22.92084
G1 X20.918 Y2.334 E23.09343
G1 X20.918 Y2.940 E23.10423
G1 X27.767 Y9.789 E23.27682
G1 X27.767 Y10.395 E23.28762
G1 X20.918 Y3.546 E23.46021
G1 X20.918 Y4.152 E23.47102
G1 X27.767 Y11.001 E23.64361
G1 X27.767 Y11.607 E23.65441
G1 X20.918 Y4.758 E23.82700
G1 X20.918 Y5.365 E23.83780
G1 X27.767 Y12.213 E24.01039
G1 X27.767 Y12.820 E24.02119
G1 X20.918 Y5.971 E24.19379
G1 X20.918 Y6.577 E24.20459
G1 X27.767 Y13.426 E24.37718
G1 X27.767 Y14.032 E24.38798
G1 X20.918 Y7.183 E24.56057
G1 X20.918 Y7.789 E24.57137
G1 X27.767 Y14.638 E24.74397
G1 X27.767 Y15.244 E24.75477
G1 X20.918 Y8.395 E24.92736
G1 X20.918 Y9.001 E24.93816
G1 X27.767 Y15.850 E25.11075
G1 X27.767 Y16.456 E25.12155
G1 X20.918 Y9.608 E25.29414
G1 X20.918 Y10.214 E25.30495
G1 X27.767 Y17.062 E25.47754
G1 X27.767 Y17.669 E25.48834
G1 X20.918 Y10.820 E25.66093
G1 X20.918 Y11.426 E25.67173
G1 X27.767 Y18.275 E25.84432
G1 X27.767 Y18.881 E25.85512
G1 X20.918 Y12.032 E26.02772
G1 X20.918 Y12.638 E26.03852
G1 X27.767 Y19.487 E26.21111
G1 X27.767 Y20.093 E26.22191
G1 X20.918 Y13.244 E26.39450
G1 X20.918 Y13.851 E26.40530
G1 X27.767 Y20.699 E26.57790
G1 X27.767 Y21.305 E26.58870
G1 X20.918 Y14.457 E26.76129
G1 X20.918 Y15.063 E26.77209
G1 X27.767 Y21.912 E26.94468
G1 X27.767 Y22.518 E26.95548
G1 X20.918 Y15.669 E27.12807
G1 X20.918 Y16.275 E27.13888
G1 X27.767 Y23.124 E27.31147
G1 X27.767 Y23.730 E27.32227
G1 X20.918 Y16.881 E27.49486
G1 X20.918 Y17.487 E27.50566
G1 X27.767 Y24.336 E27.67825
G1 X27.767 Y24.942 E27.68905
G1 X20.918 Y18.094 E27.86165
G1 X20.918 Y18.700 E27.87245
G1 X27.767 Y25.548 E28.04504
G1 X27.767 Y26.155 E28.05584
G1 X20.918 Y19.306 E28.22843
G1 X20.918 Y19.912 E28.23923
G1 X27.767 Y26.761 E28.41183
G1 X27.767 Y27.367 E28.42263
G1 X20.918 Y20.518 E28.59522
G1 X20.918 Y21.124 E28.60602
G1 X27.767 Y27.973 E28.77861
G1 X27.767 Y28.579 E28.78941
G1 X20.918 Y21.730 E28.96201
G1 X20.918 Y22.337 E28.97281
G1 X27.767 Y29.185 E29.14540
G1 X27.767 Y29.791 E29.15620
G1 X20.918 Y22.943 E29.32879
G1 X20.918 Y23.549 E29.33959
G1 X27.767 Y30.398 E29.51218
G1 X27.767 Y31.004 E29.52299
G1 X20.918 Y24.155 E29.69558
G1 X20.918 Y24.761 E29.70638
G1 X27.767 Y31.610 E29.87897
G1 X27.767 Y32.216 E29.88977
G1 X20.918 Y25.367 E30.06236
G1 X20.918 Y25.973 E30.07316
G1 X27.767 Y32.822 E30.24576
G1 X27.767 Y33.428 E30.25656
G1 X20.918 Y26.580 E30.42915
G1 X20.918 Y27.186 E30.43995
G1 X27.767 Y34.034 E30.61254
G1 X27.767 Y34.641 E30.62334
