; generated by PrusaSlicer 2.3.0-rc2+ on 2021-01-10 at 19:37:00 UTC

; 

; external perimeters extrusion width = 0.45mm
; perimeters extrusion width = 0.45mm
; infill extrusion width = 0.45mm
; solid infill extrusion width = 0.45mm
; top infill extrusion width = 0.40mm
; support material extrusion width = 0.38mm
; first layer extrusion width = 0.42mm

M201 X500 Y500 Z100 E5000 ; sets maximum accelerations, mm/sec^2
M203 X500 Y500 Z10 E60 ; sets maximum feedrates, mm/sec
M204 P500 R1000 T500 ; sets acceleration (P, T) and retract acceleration (R), mm/sec^2
M205 X8.00 Y8.00 Z0.40 E5.00 ; sets the jerk limits, mm/sec
M205 S0 T0 ; sets the minimum extruding and travel feed rate, mm/sec
M107
M190 S60 ; set bed temperature and wait for it to be reached
M104 S220 ; set temperature
;TYPE:Custom
G28 ; Home
M109 S220 ; set temperature and wait for it to be reached
G21 ; set units to millimeters
G90 ; use absolute coordinates
M83 ; use relative distances for extrusion
; Filament gcode
;LAYER_CHANGE
;Z:0.32
;HEIGHT:0.32
;BEFORE_LAYER_CHANGE
;0.32


G1 E-5.00000 F3600.000
G1 Z0.320 F9000.000
;AFTER_LAYER_CHANGE
;0.32
G1 X99.068 Y36.287
G1 E5.00000 F2400.000
;TYPE:Skirt
;WIDTH:0.42
G1 F1200.000
G1 X99.447 Y35.455 E0.04274
G1 X99.942 Y34.686 E0.04274
G1 X100.543 Y33.997 E0.04274
G1 X101.236 Y33.400 E0.04274
G1 X102.013 Y32.906 E0.04303
G1 X102.847 Y32.532 E0.04274
G1 X103.818 Y32.264 E0.04710
G1 X104.820 Y32.152 E0.04710
G1 X114.985 Y32.149 E0.47513
G1 X116.192 Y32.266 E0.05666
G1 X117.354 Y32.610 E0.05666
G1 X118.430 Y33.168 E0.05666
G1 X119.376 Y33.917 E0.05637
G1 X120.166 Y34.836 E0.05666
G1 X120.768 Y35.888 E0.05666
G1 X121.159 Y37.035 E0.05666
G1 X121.324 Y38.230 E0.05637
G1 X121.316 Y181.923 E6.71632
G1 X121.188 Y182.835 E0.04303
G1 X120.928 Y183.724 E0.04332
G1 X120.541 Y184.567 E0.04332
G1 X120.039 Y185.338 E0.04303
G1 X119.431 Y186.030 E0.04303
G1 X118.724 Y186.629 E0.04332
G1 X117.943 Y187.117 E0.04303
G1 X117.094 Y187.489 E0.04332
G1 X116.139 Y187.744 E0.04622
G1 X115.155 Y187.849 E0.04622
G1 X104.598 Y187.837 E0.49345
G1 X103.450 Y187.654 E0.05434
G1 X102.360 Y187.267 E0.05405
G1 X101.354 Y186.685 E0.05434
G1 X100.470 Y185.930 E0.05434
G1 X99.742 Y185.031 E0.05405
G1 X99.187 Y184.010 E0.05434
G1 X98.827 Y182.904 E0.05434
G1 X98.675 Y181.751 E0.05434
G1 X98.684 Y38.077 E6.71545
G1 X98.812 Y37.165 E0.04303
G1 X99.051 Y36.345 E0.03994
G1 E-3.50000 F3600.000
;WIPE_START
G1 F7200.000
G1 X99.447 Y35.455 E-0.46259
G1 X99.942 Y34.686 E-0.43437
G1 X100.543 Y33.997 E-0.43437
G1 X100.692 Y33.868 E-0.09367
;WIPE_END
G1 E-0.07500 F3600.000
G1 X105.231 Y38.710 F9000.000
G1 E5.00000 F2400.000
;TYPE:External perimeter
G1 F1200.000
G1 X114.769 Y38.710 E0.44579
G1 X114.769 Y181.290 E6.66430
G1 X105.231 Y181.290 E0.44579
G1 X105.231 Y38.770 E6.66150
G1 X105.582 Y38.902 F9000.000
G1 X105.583 Y39.061
;TYPE:Perimeter
G1 F1200.000
G1 X114.417 Y39.061 E0.41294
G1 X114.417 Y180.939 E6.63146
G1 X105.583 Y180.939 E0.41294
G1 X105.583 Y39.121 E6.62865
G1 E-3.50000 F3600.000
;WIPE_START
G1 F7200.000
G1 X108.583 Y39.101 E-1.42500
;WIPE_END
G1 E-0.07500 F3600.000
G1 X106.400 Y180.833 F9000.000
G1 E5.00000 F2400.000
;TYPE:Solid infill
;WIDTH:0.420729
G1 F1200.000
G1 X105.846 Y180.279 E0.03669
G1 X105.846 Y179.782 E0.02332
G1 X106.740 Y180.675 E0.05919
G1 X107.238 Y180.675 E0.02332
G1 X105.846 Y179.284 E0.09217
G1 X105.846 Y178.786 E0.02332
G1 X107.736 Y180.675 E0.12515
G1 X108.233 Y180.675 E0.02332
G1 X105.846 Y178.288 E0.15813
G1 X105.846 Y177.790 E0.02332
G1 X108.731 Y180.675 E0.19111
G1 X109.229 Y180.675 E0.02332
G1 X105.846 Y177.292 E0.22409
G1 X105.846 Y176.794 E0.02332
G1 X109.727 Y180.675 E0.25707
G1 X110.225 Y180.675 E0.02332
G1 X105.846 Y176.296 E0.29005
G1 X105.846 Y175.798 E0.02332
G1 X110.723 Y180.675 E0.32303
G1 X111.221 Y180.675 E0.02332
G1 X105.846 Y175.301 E0.35600
G1 X105.846 Y174.803 E0.02332
G1 X111.719 Y180.675 E0.38898
G1 X112.216 Y180.675 E0.02332
G1 X105.846 Y174.305 E0.42196
G1 X105.846 Y173.807 E0.02332
G1 X112.714 Y180.675 E0.45494
G1 X113.212 Y180.675 E0.02332
G1 X105.846 Y173.309 E0.48792
G1 X105.846 Y172.811 E0.02332
G1 X113.710 Y180.675 E0.52090
G1 X114.154 Y180.675 E0.02079
G1 X114.154 Y180.621 E0.00253
G1 X105.846 Y172.313 E0.55030
G1 X105.846 Y171.815 E0.02332
G1 X114.154 Y180.123 E0.55030
G1 X114.154 Y179.625 E0.02332
G1 X105.846 Y171.318 E0.55030
G1 X105.846 Y170.820 E0.02332
G1 X114.154 Y179.127 E0.55030
G1 X114.154 Y178.630 E0.02332
G1 X105.846 Y170.322 E0.55030
G1 X105.846 Y169.824 E0.02332
G1 X114.154 Y178.132 E0.55030
G1 X114.154 Y177.634 E0.02332
G1 X105.846 Y169.326 E0.55030
G1 X105.846 Y168.828 E0.02332
G1 X114.154 Y177.136 E0.55030
G1 X114.154 Y176.638 E0.02332
G1 X105.846 Y168.330 E0.55030
G1 X105.846 Y167.832 E0.02332
G1 X114.154 Y176.140 E0.55030
G1 X114.154 Y175.642 E0.02332
G1 X105.846 Y167.334 E0.55030
G1 X105.846 Y166.837 E0.02332
G1 X114.154 Y175.144 E0.55030
G1 X114.154 Y174.647 E0.02332
G1 X105.846 Y166.339 E0.55030
G1 X105.846 Y165.841 E0.02332
G1 X114.154 Y174.149 E0.55030
G1 X114.154 Y173.651 E0.02332
G1 X105.846 Y165.343 E0.55030
G1 X105.846 Y164.845 E0.02332
G1 X114.154 Y173.153 E0.55030
G1 X114.154 Y172.655 E0.02332
G1 X105.846 Y164.347 E0.55030
G1 X105.846 Y163.849 E0.02332
G1 X114.154 Y172.157 E0.55030
G1 X114.154 Y171.659 E0.02332
G1 X105.846 Y163.351 E0.55030
G1 X105.846 Y162.854 E0.02332
G1 X114.154 Y171.161 E0.55030
G1 X114.154 Y170.663 E0.02332
G1 X105.846 Y162.356 E0.55030
G1 X105.846 Y161.858 E0.02332
G1 X114.154 Y170.166 E0.55030
G1 X114.154 Y169.668 E0.02332
G1 X105.846 Y161.360 E0.55030
G1 X105.846 Y160.862 E0.02332
G1 X114.154 Y169.170 E0.55030
G1 X114.154 Y168.672 E0.02332
G1 X105.846 Y160.364 E0.55030
G1 X105.846 Y159.866 E0.02332
G1 X114.154 Y168.174 E0.55030
G1 X114.154 Y167.676 E0.02332
G1 X105.846 Y159.368 E0.55030
G1 X105.846 Y158.870 E0.02332
G1 X114.154 Y167.178 E0.55030
G1 X114.154 Y166.680 E0.02332
G1 X105.846 Y158.373 E0.55030
G1 X105.846 Y157.875 E0.02332
G1 X114.154 Y166.183 E0.55030
G1 X114.154 Y165.685 E0.02332
G1 X105.846 Y157.377 E0.55030
G1 X105.846 Y156.879 E0.02332
G1 X114.154 Y165.187 E0.55030
G1 X114.154 Y164.689 E0.02332
G1 X105.846 Y156.381 E0.55030
G1 X105.846 Y155.883 E0.02332
G1 X114.154 Y164.191 E0.55030
G1 X114.154 Y163.693 E0.02332
G1 X105.846 Y155.385 E0.55030
G1 X105.846 Y154.887 E0.02332
G1 X114.154 Y163.195 E0.55030
G1 X114.154 Y162.697 E0.02332
G1 X105.846 Y154.390 E0.55030
G1 X105.846 Y153.892 E0.02332
G1 X114.154 Y162.199 E0.55030
G1 X114.154 Y161.702 E0.02332
G1 X105.846 Y153.394 E0.55030
G1 X105.846 Y152.896 E0.02332
G1 X114.154 Y161.204 E0.55030
G1 X114.154 Y160.706 E0.02332
G1 X105.846 Y152.398 E0.55030
G1 X105.846 Y151.900 E0.02332
G1 X114.154 Y160.208 E0.55030
G1 X114.154 Y159.710 E0.02332
G1 X105.846 Y151.402 E0.55030
G1 X105.846 Y150.904 E0.02332
G1 X114.154 Y159.212 E0.55030
G1 X114.154 Y158.714 E0.02332
G1 X105.846 Y150.406 E0.55030
G1 X105.846 Y149.909 E0.02332
G1 X114.154 Y158.216 E0.55030
G1 X114.154 Y157.719 E0.02332
G1 X105.846 Y149.411 E0.55030
G1 X105.846 Y148.913 E0.02332
G1 X114.154 Y157.221 E0.55030
G1 X114.154 Y156.723 E0.02332
G1 X105.846 Y148.415 E0.55030
G1 X105.846 Y147.917 E0.02332
G1 X114.154 Y156.225 E0.55030
G1 X114.154 Y155.727 E0.02332
G1 X105.846 Y147.419 E0.55030
G1 X105.846 Y146.921 E0.02332
G1 X114.154 Y155.229 E0.55030
G1 X114.154 Y154.731 E0.02332
G1 X105.846 Y146.423 E0.55030
G1 X105.846 Y145.926 E0.02332
G1 X114.154 Y154.233 E0.55030
G1 X114.154 Y153.735 E0.02332
G1 X105.846 Y145.428 E0.55030
G1 X105.846 Y144.930 E0.02332
G1 X114.154 Y153.238 E0.55030
G1 X114.154 Y152.740 E0.02332
G1 X105.846 Y144.432 E0.55030
G1 X105.846 Y143.934 E0.02332
G1 X114.154 Y152.242 E0.55030
G1 X114.154 Y151.744 E0.02332
G1 X105.846 Y143.436 E0.55030
G1 X105.846 Y142.938 E0.02332
G1 X114.154 Y151.246 E0.55030
G1 X114.154 Y150.748 E0.02332
G1 X105.846 Y142.440 E0.55030
G1 X105.846 Y141.942 E0.02332
G1 X114.154 Y150.250 E0.55030
G1 X114.154 Y149.752 E0.02332
G1 X105.846 Y141.445 E0.55030
G1 X105.846 Y140.947 E0.02332
G1 X114.154 Y149.255 E0.55030
G1 X114.154 Y148.757 E0.02332
G1 X105.846 Y140.449 E0.55030
G1 X105.846 Y139.951 E0.02332
G1 X114.154 Y148.259 E0.55030
G1 X114.154 Y147.761 E0.02332
G1 X105.846 Y139.453 E0.55030
G1 X105.846 Y138.955 E0.02332
G1 X114.154 Y147.263 E0.55030
G1 X114.154 Y146.765 E0.02332
G1 X105.846 Y138.457 E0.55030
G1 X105.846 Y137.959 E0.02332
G1 X114.154 Y146.267 E0.55030
G1 X114.154 Y145.769 E0.02332
G1 X105.846 Y137.462 E0.55030
G1 X105.846 Y136.964 E0.02332
G1 X114.154 Y145.271 E0.55030
G1 X114.154 Y144.774 E0.02332
G1 X105.846 Y136.466 E0.55030
G1 X105.846 Y135.968 E0.02332
G1 X114.154 Y144.276 E0.55030
G1 X114.154 Y143.778 E0.02332
G1 X105.846 Y135.470 E0.55030
G1 X105.846 Y134.972 E0.02332
G1 X114.154 Y143.280 E0.55030
G1 X114.154 Y142.782 E0.02332
G1 X105.846 Y134.474 E0.55030
G1 X105.846 Y133.976 E0.02332
G1 X114.154 Y142.284 E0.55030
G1 X114.154 Y141.786 E0.02332
G1 X105.846 Y133.478 E0.55030
G1 X105.846 Y132.981 E0.02332
G1 X114.154 Y141.288 E0.55030
G1 X114.154 Y140.791 E0.02332
G1 X105.846 Y132.483 E0.55030
G1 X105.846 Y131.985 E0.02332
G1 X114.154 Y140.293 E0.55030
G1 X114.154 Y139.795 E0.02332
G1 X105.846 Y131.487 E0.55030
G1 X105.846 Y130.989 E0.02332
G1 X114.154 Y139.297 E0.55030
G1 X114.154 Y138.799 E0.02332
G1 X105.846 Y130.491 E0.55030
G1 X105.846 Y129.993 E0.02332
G1 X114.154 Y138.301 E0.55030
G1 X114.154 Y137.803 E0.02332
G1 X105.846 Y129.495 E0.55030
G1 X105.846 Y128.998 E0.02332
G1 X114.154 Y137.305 E0.55030
G1 X114.154 Y136.807 E0.02332
G1 X105.846 Y128.500 E0.55030
G1 X105.846 Y128.002 E0.02332
G1 X114.154 Y136.310 E0.55030
G1 X114.154 Y135.812 E0.02332
G1 X105.846 Y127.504 E0.55030
G1 X105.846 Y127.006 E0.02332
G1 X114.154 Y135.314 E0.55030
G1 X114.154 Y134.816 E0.02332
G1 X105.846 Y126.508 E0.55030
G1 X105.846 Y126.010 E0.02332
G1 X114.154 Y134.318 E0.55030
G1 X114.154 Y133.820 E0.02332
G1 X105.846 Y125.512 E0.55030
G1 X105.846 Y125.014 E0.02332
G1 X114.154 Y133.322 E0.55030
G1 X114.154 Y132.824 E0.02332
G1 X105.846 Y124.517 E0.55030
G1 X105.846 Y124.019 E0.02332
G1 X114.154 Y132.327 E0.55030
G1 X114.154 Y131.829 E0.02332
G1 X105.846 Y123.521 E0.55030
G1 X105.846 Y123.023 E0.02332
G1 X114.154 Y131.331 E0.55030
G1 X114.154 Y130.833 E0.02332
G1 X105.846 Y122.525 E0.55030
G1 X105.846 Y122.027 E0.02332
G1 X114.154 Y130.335 E0.55030
G1 X114.154 Y129.837 E0.02332
G1 X105.846 Y121.529 E0.55030
G1 X105.846 Y121.031 E0.02332
G1 X114.154 Y129.339 E0.55030
G1 X114.154 Y128.841 E0.02332
G1 X105.846 Y120.534 E0.55030
G1 X105.846 Y120.036 E0.02332
G1 X114.154 Y128.343 E0.55030
G1 X114.154 Y127.846 E0.02332
G1 X105.846 Y119.538 E0.55030
G1 X105.846 Y119.040 E0.02332
G1 X114.154 Y127.348 E0.55030
G1 X114.154 Y126.850 E0.02332
G1 X105.846 Y118.542 E0.55030
G1 X105.846 Y118.044 E0.02332
G1 X114.154 Y126.352 E0.55030
G1 X114.154 Y125.854 E0.02332
G1 X105.846 Y117.546 E0.55030
G1 X105.846 Y117.048 E0.02332
G1 X114.154 Y125.356 E0.55030
G1 X114.154 Y124.858 E0.02332
G1 X105.846 Y116.550 E0.55030
G1 X105.846 Y116.053 E0.02332
G1 X114.154 Y124.360 E0.55030
G1 X114.154 Y123.862 E0.02332
G1 X105.846 Y115.555 E0.55030
G1 X105.846 Y115.057 E0.02332
G1 X114.154 Y123.365 E0.55030
G1 X114.154 Y122.867 E0.02332
G1 X105.846 Y114.559 E0.55030
G1 X105.846 Y114.061 E0.02332
G1 X114.154 Y122.369 E0.55030
G1 X114.154 Y121.871 E0.02332
G1 X105.846 Y113.563 E0.55030
G1 X105.846 Y113.065 E0.02332
G1 X114.154 Y121.373 E0.55030
G1 X114.154 Y120.875 E0.02332
G1 X105.846 Y112.567 E0.55030
G1 X105.846 Y112.070 E0.02332
G1 X114.154 Y120.377 E0.55030
G1 X114.154 Y119.879 E0.02332
G1 X105.846 Y111.572 E0.55030
G1 X105.846 Y111.074 E0.02332
G1 X114.154 Y119.382 E0.55030
G1 X114.154 Y118.884 E0.02332
G1 X105.846 Y110.576 E0.55030
G1 X105.846 Y110.078 E0.02332
G1 X114.154 Y118.386 E0.55030
G1 X114.154 Y117.888 E0.02332
G1 X105.846 Y109.580 E0.55030
G1 X105.846 Y109.082 E0.02332
G1 X114.154 Y117.390 E0.55030
G1 X114.154 Y116.892 E0.02332
G1 X105.846 Y108.584 E0.55030
G1 X105.846 Y108.086 E0.02332
G1 X114.154 Y116.394 E0.55030
G1 X114.154 Y115.896 E0.02332
G1 X105.846 Y107.589 E0.55030
G1 X105.846 Y107.091 E0.02332
G1 X114.154 Y115.398 E0.55030
G1 X114.154 Y114.901 E0.02332
G1 X105.846 Y106.593 E0.55030
G1 X105.846 Y106.095 E0.02332
G1 X114.154 Y114.403 E0.55030
G1 X114.154 Y113.905 E0.02332
G1 X105.846 Y105.597 E0.55030
G1 X105.846 Y105.099 E0.02332
G1 X114.154 Y113.407 E0.55030
G1 X114.154 Y112.909 E0.02332
G1 X105.846 Y104.601 E0.55030
G1 X105.846 Y104.103 E0.02332
G1 X114.154 Y112.411 E0.55030
G1 X114.154 Y111.913 E0.02332
G1 X105.846 Y103.606 E0.55030
G1 X105.846 Y103.108 E0.02332
G1 X114.154 Y111.415 E0.55030
G1 X114.154 Y110.918 E0.02332
G1 X105.846 Y102.610 E0.55030
G1 X105.846 Y102.112 E0.02332
G1 X114.154 Y110.420 E0.55030
G1 X114.154 Y109.922 E0.02332
G1 X105.846 Y101.614 E0.55030
G1 X105.846 Y101.116 E0.02332
G1 X114.154 Y109.424 E0.55030
G1 X114.154 Y108.926 E0.02332
G1 X105.846 Y100.618 E0.55030
G1 X105.846 Y100.120 E0.02332
G1 X114.154 Y108.428 E0.55030
G1 X114.154 Y107.930 E0.02332
G1 X105.846 Y99.622 E0.55030
G1 X105.846 Y99.125 E0.02332
G1 X114.154 Y107.432 E0.55030
G1 X114.154 Y106.934 E0.02332
G1 X105.846 Y98.627 E0.55030
G1 X105.846 Y98.129 E0.02332
G1 X114.154 Y106.437 E0.55030
G1 X114.154 Y105.939 E0.02332
G1 X105.846 Y97.631 E0.55030
G1 X105.846 Y97.133 E0.02332
G1 X114.154 Y105.441 E0.55030
G1 X114.154 Y104.943 E0.02332
G1 X105.846 Y96.635 E0.55030
G1 X105.846 Y96.137 E0.02332
G1 X114.154 Y104.445 E0.55030
G1 X114.154 Y103.947 E0.02332
G1 X105.846 Y95.639 E0.55030
G1 X105.846 Y95.142 E0.02332
G1 X114.154 Y103.449 E0.55030
G1 X114.154 Y102.951 E0.02332
G1 X105.846 Y94.644 E0.55030
G1 X105.846 Y94.146 E0.02332
G1 X114.154 Y102.454 E0.55030
G1 X114.154 Y101.956 E0.02332
G1 X105.846 Y93.648 E0.55030
G1 X105.846 Y93.150 E0.02332
G1 X114.154 Y101.458 E0.55030
G1 X114.154 Y100.960 E0.02332
G1 X105.846 Y92.652 E0.55030
G1 X105.846 Y92.154 E0.02332
G1 X114.154 Y100.462 E0.55030
G1 X114.154 Y99.964 E0.02332
G1 X105.846 Y91.656 E0.55030
G1 X105.846 Y91.158 E0.02332
G1 X114.154 Y99.466 E0.55030
G1 X114.154 Y98.968 E0.02332
G1 X105.846 Y90.661 E0.55030
G1 X105.846 Y90.163 E0.02332
G1 X114.154 Y98.470 E0.55030
G1 X114.154 Y97.973 E0.02332
G1 X105.846 Y89.665 E0.55030
G1 X105.846 Y89.167 E0.02332
G1 X114.154 Y97.475 E0.55030
G1 X114.154 Y96.977 E0.02332
G1 X105.846 Y88.669 E0.55030
G1 X105.846 Y88.171 E0.02332
G1 X114.154 Y96.479 E0.55030
G1 X114.154 Y95.981 E0.02332
G1 X105.846 Y87.673 E0.55030
G1 X105.846 Y87.175 E0.02332
G1 X114.154 Y95.483 E0.55030
G1 X114.154 Y94.985 E0.02332
G1 X105.846 Y86.678 E0.55030
G1 X105.846 Y86.180 E0.02332
G1 X114.154 Y94.487 E0.55030
G1 X114.154 Y93.990 E0.02332
G1 X105.846 Y85.682 E0.55030
G1 X105.846 Y85.184 E0.02332
G1 X114.154 Y93.492 E0.55030
G1 X114.154 Y92.994 E0.02332
G1 X105.846 Y84.686 E0.55030
G1 X105.846 Y84.188 E0.02332
G1 X114.154 Y92.496 E0.55030
G1 X114.154 Y91.998 E0.02332
G1 X105.846 Y83.690 E0.55030
G1 X105.846 Y83.192 E0.02332
G1 X114.154 Y91.500 E0.55030
G1 X114.154 Y91.002 E0.02332
G1 X105.846 Y82.694 E0.55030
G1 X105.846 Y82.197 E0.02332
G1 X114.154 Y90.504 E0.55030
G1 X114.154 Y90.006 E0.02332
G1 X105.846 Y81.699 E0.55030
G1 X105.846 Y81.201 E0.02332
G1 X114.154 Y89.509 E0.55030
G1 X114.154 Y89.011 E0.02332
G1 X105.846 Y80.703 E0.55030
G1 X105.846 Y80.205 E0.02332
G1 X114.154 Y88.513 E0.55030
G1 X114.154 Y88.015 E0.02332
G1 X105.846 Y79.707 E0.55030
G1 X105.846 Y79.209 E0.02332
G1 X114.154 Y87.517 E0.55030
G1 X114.154 Y87.019 E0.02332
G1 X105.846 Y78.711 E0.55030
G1 X105.846 Y78.214 E0.02332
G1 X114.154 Y86.521 E0.55030
G1 X114.154 Y86.023 E0.02332
G1 X105.846 Y77.716 E0.55030
G1 X105.846 Y77.218 E0.02332
G1 X114.154 Y85.526 E0.55030
G1 X114.154 Y85.028 E0.02332
G1 X105.846 Y76.720 E0.55030
G1 X105.846 Y76.222 E0.02332
G1 X114.154 Y84.530 E0.55030
G1 X114.154 Y84.032 E0.02332
G1 X105.846 Y75.724 E0.55030
G1 X105.846 Y75.226 E0.02332
G1 X114.154 Y83.534 E0.55030
G1 X114.154 Y83.036 E0.02332
G1 X105.846 Y74.728 E0.55030
G1 X105.846 Y74.230 E0.02332
G1 X114.154 Y82.538 E0.55030
G1 X114.154 Y82.040 E0.02332
G1 X105.846 Y73.733 E0.55030
