; generated by PrusaSlicer 2.3.0-rc2+ on 2021-01-11 at 05:55:51 UTC

; 

; external perimeters extrusion width = 0.45mm
; perimeters extrusion width = 0.45mm
; infill extrusion width = 0.45mm
; solid infill extrusion width = 0.45mm
; top infill extrusion width = 0.40mm
; support material extrusion width = 0.38mm
; first layer extrusion width = 0.42mm

M201 X500 Y500 Z100 E5000 ; sets maximum accelerations, mm/sec^2
M203 X500 Y500 Z10 E60 ; sets maximum feedrates, mm/sec
M204 P500 R1000 T500 ; sets acceleration (P, T) and retract acceleration (R), mm/sec^2
M205 X8.00 Y8.00 Z0.40 E5.00 ; sets the jerk limits, mm/sec
M205 S0 T0 ; sets the minimum extruding and travel feed rate, mm/sec
M107
M190 S60 ; set bed temperature and wait for it to be reached
M104 S220 ; set temperature
;TYPE:Custom
G28 ; Home
M109 S220 ; set temperature and wait for it to be reached
G21 ; set units to millimeters
G90 ; use absolute coordinates
M83 ; use relative distances for extrusion
; Filament gcode
;LAYER_CHANGE
;Z:0.32
;HEIGHT:0.32
;BEFORE_LAYER_CHANGE
;0.32


G1 E-5.00000 F3600.000
G1 Z0.320 F9000.000
;AFTER_LAYER_CHANGE
;0.32
G1 X98.797 Y21.238
G1 E5.00000 F2400.000
;TYPE:Skirt
;WIDTH:0.42
G1 F1200.000
G1 X99.044 Y20.352 E0.04303
G1 X99.418 Y19.510 E0.04303
G1 X99.913 Y18.726 E0.04332
G1 X100.512 Y18.027 E0.04303
G1 X101.211 Y17.419 E0.04332
G1 X101.991 Y16.918 E0.04332
G1 X102.830 Y16.539 E0.04303
G1 X103.806 Y16.266 E0.04739
G1 X104.820 Y16.152 E0.04768
G1 X114.985 Y16.149 E0.47513
G1 X116.192 Y16.266 E0.05666
G1 X117.360 Y16.612 E0.05695
G1 X118.440 Y17.175 E0.05695
G1 X119.393 Y17.934 E0.05695
G1 X120.184 Y18.861 E0.05695
G1 X120.781 Y19.916 E0.05666
G1 X121.167 Y21.072 E0.05695
G1 X121.326 Y22.280 E0.05695
G1 X121.320 Y197.848 E8.20622
G1 X121.201 Y198.774 E0.04361
G1 X120.949 Y199.666 E0.04332
G1 X120.570 Y200.512 E0.04332
G1 X120.073 Y201.294 E0.04332
G1 X119.466 Y201.995 E0.04332
G1 X118.764 Y202.600 E0.04332
G1 X117.976 Y203.100 E0.04361
G1 X117.129 Y203.476 E0.04332
G1 X116.163 Y203.740 E0.04681
G1 X115.162 Y203.849 E0.04710
G1 X104.673 Y203.842 E0.49025
G1 X103.511 Y203.669 E0.05492
G1 X102.400 Y203.285 E0.05492
G1 X101.379 Y202.703 E0.05492
G1 X100.483 Y201.943 E0.05492
G1 X99.742 Y201.031 E0.05492
G1 X99.179 Y199.992 E0.05521
G1 X98.820 Y198.874 E0.05492
G1 X98.673 Y197.708 E0.05492
G1 X98.680 Y22.152 E8.20564
G1 X98.789 Y21.298 E0.04023
G1 E-3.50000 F3600.000
;WIPE_START
G1 F7200.000
G1 X99.044 Y20.352 E-0.46554
G1 X99.418 Y19.510 E-0.43732
G1 X99.913 Y18.726 E-0.44027
G1 X100.025 Y18.595 E-0.08188
;WIPE_END
G1 E-0.07500 F3600.000
G1 X105.583 Y23.061 F9000.000
G1 E5.00000 F2400.000
;TYPE:Perimeter
G1 F1200.000
G1 X114.417 Y23.061 E0.41294
G1 X114.417 Y196.939 E8.12716
G1 X105.583 Y196.939 E0.41294
G1 X105.583 Y23.121 E8.12436
G1 X105.231 Y22.710 F9000.000
;TYPE:External perimeter
G1 F1200.000
G1 X114.769 Y22.710 E0.44579
G1 X114.769 Y197.290 E8.16001
G1 X105.231 Y197.290 E0.44579
G1 X105.231 Y22.770 E8.15720
G1 X105.581 Y22.904 F9000.000
G1 E-3.50000 F3600.000
;WIPE_START
G1 F7200.000
G1 X108.231 Y22.751 E-1.42500
;WIPE_END
G1 E-0.07500 F3600.000
G1 X105.688 Y196.123 F9000.000
G1 E5.00000 F2400.000
;TYPE:Solid infill
;WIDTH:0.420031
G1 F1200.000
G1 X106.240 Y196.675 E0.03651
G1 X106.737 Y196.675 E0.02323
G1 X105.846 Y195.784 E0.05891
G1 X105.846 Y195.287 E0.02323
G1 X107.234 Y196.675 E0.09176
G1 X107.731 Y196.675 E0.02323
G1 X105.846 Y194.790 E0.12460
G1 X105.846 Y194.293 E0.02323
G1 X108.228 Y196.675 E0.15745
G1 X108.725 Y196.675 E0.02323
G1 X105.846 Y193.797 E0.19030
G1 X105.846 Y193.300 E0.02323
G1 X109.222 Y196.675 E0.22315
G1 X109.719 Y196.675 E0.02323
G1 X105.846 Y192.803 E0.25600
G1 X105.846 Y192.306 E0.02323
G1 X110.215 Y196.675 E0.28885
G1 X110.712 Y196.675 E0.02323
G1 X105.846 Y191.809 E0.32169
G1 X105.846 Y191.312 E0.02323
G1 X111.209 Y196.675 E0.35454
G1 X111.706 Y196.675 E0.02323
G1 X105.846 Y190.815 E0.38739
G1 X105.846 Y190.318 E0.02323
G1 X112.203 Y196.675 E0.42024
G1 X112.700 Y196.675 E0.02323
G1 X105.846 Y189.821 E0.45309
G1 X105.846 Y189.324 E0.02323
G1 X113.197 Y196.675 E0.48594
G1 X113.694 Y196.675 E0.02323
G1 X105.846 Y188.828 E0.51878
G1 X105.846 Y188.331 E0.02323
G1 X114.154 Y196.638 E0.54920
G1 X114.154 Y196.142 E0.02323
G1 X105.846 Y187.834 E0.54920
G1 X105.846 Y187.337 E0.02323
G1 X114.154 Y195.645 E0.54920
G1 X114.154 Y195.148 E0.02323
G1 X105.846 Y186.840 E0.54920
G1 X105.846 Y186.343 E0.02323
G1 X114.154 Y194.651 E0.54920
G1 X114.154 Y194.154 E0.02323
G1 X105.846 Y185.846 E0.54920
G1 X105.846 Y185.349 E0.02323
G1 X114.154 Y193.657 E0.54920
G1 X114.154 Y193.160 E0.02323
G1 X105.846 Y184.852 E0.54920
G1 X105.846 Y184.356 E0.02323
G1 X114.154 Y192.663 E0.54920
G1 X114.154 Y192.166 E0.02323
G1 X105.846 Y183.859 E0.54920
G1 X105.846 Y183.362 E0.02323
G1 X114.154 Y191.669 E0.54920
G1 X114.154 Y191.173 E0.02323
G1 X105.846 Y182.865 E0.54920
G1 X105.846 Y182.368 E0.02323
G1 X114.154 Y190.676 E0.54920
G1 X114.154 Y190.179 E0.02323
G1 X105.846 Y181.871 E0.54920
G1 X105.846 Y181.374 E0.02323
G1 X114.154 Y189.682 E0.54920
G1 X114.154 Y189.185 E0.02323
G1 X105.846 Y180.877 E0.54920
G1 X105.846 Y180.380 E0.02323
G1 X114.154 Y188.688 E0.54920
G1 X114.154 Y188.191 E0.02323
G1 X105.846 Y179.883 E0.54920
G1 X105.846 Y179.387 E0.02323
G1 X114.154 Y187.694 E0.54920
G1 X114.154 Y187.197 E0.02323
G1 X105.846 Y178.890 E0.54920
G1 X105.846 Y178.393 E0.02323
G1 X114.154 Y186.701 E0.54920
G1 X114.154 Y186.204 E0.02323
G1 X105.846 Y177.896 E0.54920
G1 X105.846 Y177.399 E0.02323
G1 X114.154 Y185.707 E0.54920
G1 X114.154 Y185.210 E0.02323
G1 X105.846 Y176.902 E0.54920
G1 X105.846 Y176.405 E0.02323
G1 X114.154 Y184.713 E0.54920
G1 X114.154 Y184.216 E0.02323
G1 X105.846 Y175.908 E0.54920
G1 X105.846 Y175.411 E0.02323
G1 X114.154 Y183.719 E0.54920
G1 X114.154 Y183.222 E0.02323
G1 X105.846 Y174.914 E0.54920
G1 X105.846 Y174.418 E0.02323
G1 X114.154 Y182.725 E0.54920
G1 X114.154 Y182.228 E0.02323
G1 X105.846 Y173.921 E0.54920
G1 X105.846 Y173.424 E0.02323
G1 X114.154 Y181.732 E0.54920
G1 X114.154 Y181.235 E0.02323
G1 X105.846 Y172.927 E0.54920
G1 X105.846 Y172.430 E0.02323
G1 X114.154 Y180.738 E0.54920
G1 X114.154 Y180.241 E0.02323
G1 X105.846 Y171.933 E0.54920
G1 X105.846 Y171.436 E0.02323
G1 X114.154 Y179.744 E0.54920
G1 X114.154 Y179.247 E0.02323
G1 X105.846 Y170.939 E0.54920
G1 X105.846 Y170.442 E0.02323
G1 X114.154 Y178.750 E0.54920
G1 X114.154 Y178.253 E0.02323
G1 X105.846 Y169.946 E0.54920
G1 X105.846 Y169.449 E0.02323
G1 X114.154 Y177.756 E0.54920
G1 X114.154 Y177.260 E0.02323
G1 X105.846 Y168.952 E0.54920
G1 X105.846 Y168.455 E0.02323
G1 X114.154 Y176.763 E0.54920
G1 X114.154 Y176.266 E0.02323
G1 X105.846 Y167.958 E0.54920
G1 X105.846 Y167.461 E0.02323
G1 X114.154 Y175.769 E0.54920
G1 X114.154 Y175.272 E0.02323
G1 X105.846 Y166.964 E0.54920
G1 X105.846 Y166.467 E0.02323
G1 X114.154 Y174.775 E0.54920
G1 X114.154 Y174.278 E0.02323
G1 X105.846 Y165.970 E0.54920
G1 X105.846 Y165.473 E0.02323
G1 X114.154 Y173.781 E0.54920
G1 X114.154 Y173.284 E0.02323
G1 X105.846 Y164.977 E0.54920
G1 X105.846 Y164.480 E0.02323
G1 X114.154 Y172.787 E0.54920
G1 X114.154 Y172.291 E0.02323
G1 X105.846 Y163.983 E0.54920
G1 X105.846 Y163.486 E0.02323
G1 X114.154 Y171.794 E0.54920
G1 X114.154 Y171.297 E0.02323
G1 X105.846 Y162.989 E0.54920
G1 X105.846 Y162.492 E0.02323
G1 X114.154 Y170.800 E0.54920
G1 X114.154 Y170.303 E0.02323
G1 X105.846 Y161.995 E0.54920
G1 X105.846 Y161.498 E0.02323
G1 X114.154 Y169.806 E0.54920
G1 X114.154 Y169.309 E0.02323
G1 X105.846 Y161.001 E0.54920
G1 X105.846 Y160.505 E0.02323
G1 X114.154 Y168.812 E0.54920
G1 X114.154 Y168.315 E0.02323
G1 X105.846 Y160.008 E0.54920
G1 X105.846 Y159.511 E0.02323
G1 X114.154 Y167.819 E0.54920
G1 X114.154 Y167.322 E0.02323
G1 X105.846 Y159.014 E0.54920
G1 X105.846 Y158.517 E0.02323
G1 X114.154 Y166.825 E0.54920
G1 X114.154 Y166.328 E0.02323
G1 X105.846 Y158.020 E0.54920
G1 X105.846 Y157.523 E0.02323
G1 X114.154 Y165.831 E0.54920
G1 X114.154 Y165.334 E0.02323
G1 X105.846 Y157.026 E0.54920
G1 X105.846 Y156.529 E0.02323
G1 X114.154 Y164.837 E0.54920
G1 X114.154 Y164.340 E0.02323
G1 X105.846 Y156.032 E0.54920
G1 X105.846 Y155.536 E0.02323
G1 X114.154 Y163.843 E0.54920
G1 X114.154 Y163.346 E0.02323
G1 X105.846 Y155.039 E0.54920
G1 X105.846 Y154.542 E0.02323
G1 X114.154 Y162.850 E0.54920
G1 X114.154 Y162.353 E0.02323
G1 X105.846 Y154.045 E0.54920
G1 X105.846 Y153.548 E0.02323
G1 X114.154 Y161.856 E0.54920
G1 X114.154 Y161.359 E0.02323
G1 X105.846 Y153.051 E0.54920
G1 X105.846 Y152.554 E0.02323
G1 X114.154 Y160.862 E0.54920
G1 X114.154 Y160.365 E0.02323
G1 X105.846 Y152.057 E0.54920
G1 X105.846 Y151.560 E0.02323
G1 X114.154 Y159.868 E0.54920
G1 X114.154 Y159.371 E0.02323
G1 X105.846 Y151.064 E0.54920
G1 X105.846 Y150.567 E0.02323
G1 X114.154 Y158.874 E0.54920
G1 X114.154 Y158.378 E0.02323
G1 X105.846 Y150.070 E0.54920
G1 X105.846 Y149.573 E0.02323
G1 X114.154 Y157.881 E0.54920
G1 X114.154 Y157.384 E0.02323
G1 X105.846 Y149.076 E0.54920
G1 X105.846 Y148.579 E0.02323
G1 X114.154 Y156.887 E0.54920
G1 X114.154 Y156.390 E0.02323
G1 X105.846 Y148.082 E0.54920
G1 X105.846 Y147.585 E0.02323
G1 X114.154 Y155.893 E0.54920
G1 X114.154 Y155.396 E0.02323
G1 X105.846 Y147.088 E0.54920
G1 X105.846 Y146.591 E0.02323
G1 X114.154 Y154.899 E0.54920
G1 X114.154 Y154.402 E0.02323
G1 X105.846 Y146.095 E0.54920
G1 X105.846 Y145.598 E0.02323
G1 X114.154 Y153.905 E0.54920
G1 X114.154 Y153.409 E0.02323
G1 X105.846 Y145.101 E0.54920
G1 X105.846 Y144.604 E0.02323
G1 X114.154 Y152.912 E0.54920
G1 X114.154 Y152.415 E0.02323
G1 X105.846 Y144.107 E0.54920
G1 X105.846 Y143.610 E0.02323
G1 X114.154 Y151.918 E0.54920
G1 X114.154 Y151.421 E0.02323
G1 X105.846 Y143.113 E0.54920
G1 X105.846 Y142.616 E0.02323
G1 X114.154 Y150.924 E0.54920
G1 X114.154 Y150.427 E0.02323
G1 X105.846 Y142.119 E0.54920
G1 X105.846 Y141.623 E0.02323
G1 X114.154 Y149.930 E0.54920
G1 X114.154 Y149.433 E0.02323
G1 X105.846 Y141.126 E0.54920
G1 X105.846 Y140.629 E0.02323
G1 X114.154 Y148.937 E0.54920
G1 X114.154 Y148.440 E0.02323
G1 X105.846 Y140.132 E0.54920
G1 X105.846 Y139.635 E0.02323
G1 X114.154 Y147.943 E0.54920
G1 X114.154 Y147.446 E0.02323
G1 X105.846 Y139.138 E0.54920
G1 X105.846 Y138.641 E0.02323
G1 X114.154 Y146.949 E0.54920
G1 X114.154 Y146.452 E0.02323
G1 X105.846 Y138.144 E0.54920
G1 X105.846 Y137.647 E0.02323
G1 X114.154 Y145.955 E0.54920
G1 X114.154 Y145.458 E0.02323
G1 X105.846 Y137.150 E0.54920
G1 X105.846 Y136.654 E0.02323
G1 X114.154 Y144.961 E0.54920
G1 X114.154 Y144.464 E0.02323
G1 X105.846 Y136.157 E0.54920
G1 X105.846 Y135.660 E0.02323
G1 X114.154 Y143.968 E0.54920
G1 X114.154 Y143.471 E0.02323
G1 X105.846 Y135.163 E0.54920
G1 X105.846 Y134.666 E0.02323
G1 X114.154 Y142.974 E0.54920
G1 X114.154 Y142.477 E0.02323
G1 X105.846 Y134.169 E0.54920
G1 X105.846 Y133.672 E0.02323
G1 X114.154 Y141.980 E0.54920
G1 X114.154 Y141.483 E0.02323
G1 X105.846 Y133.175 E0.54920
G1 X105.846 Y132.678 E0.02323
G1 X114.154 Y140.986 E0.54920
G1 X114.154 Y140.489 E0.02323
G1 X105.846 Y132.182 E0.54920
G1 X105.846 Y131.685 E0.02323
G1 X114.154 Y139.992 E0.54920
G1 X114.154 Y139.495 E0.02323
G1 X105.846 Y131.188 E0.54920
G1 X105.846 Y130.691 E0.02323
G1 X114.154 Y138.999 E0.54920
G1 X114.154 Y138.502 E0.02323
G1 X105.846 Y130.194 E0.54920
G1 X105.846 Y129.697 E0.02323
G1 X114.154 Y138.005 E0.54920
G1 X114.154 Y137.508 E0.02323
G1 X105.846 Y129.200 E0.54920
G1 X105.846 Y128.703 E0.02323
G1 X114.154 Y137.011 E0.54920
G1 X114.154 Y136.514 E0.02323
G1 X105.846 Y128.206 E0.54920
G1 X105.846 Y127.709 E0.02323
G1 X114.154 Y136.017 E0.54920
G1 X114.154 Y135.520 E0.02323
G1 X105.846 Y127.213 E0.54920
G1 X105.846 Y126.716 E0.02323
G1 X114.154 Y135.023 E0.54920
G1 X114.154 Y134.527 E0.02323
G1 X105.846 Y126.219 E0.54920
G1 X105.846 Y125.722 E0.02323
G1 X114.154 Y134.030 E0.54920
G1 X114.154 Y133.533 E0.02323
G1 X105.846 Y125.225 E0.54920
G1 X105.846 Y124.728 E0.02323
G1 X114.154 Y133.036 E0.54920
G1 X114.154 Y132.539 E0.02323
G1 X105.846 Y124.231 E0.54920
G1 X105.846 Y123.734 E0.02323
G1 X114.154 Y132.042 E0.54920
G1 X114.154 Y131.545 E0.02323
G1 X105.846 Y123.237 E0.54920
G1 X105.846 Y122.740 E0.02323
G1 X114.154 Y131.048 E0.54920
G1 X114.154 Y130.551 E0.02323
G1 X105.846 Y122.244 E0.54920
G1 X105.846 Y121.747 E0.02323
G1 X114.154 Y130.054 E0.54920
G1 X114.154 Y129.558 E0.02323
G1 X105.846 Y121.250 E0.54920
G1 X105.846 Y120.753 E0.02323
G1 X114.154 Y129.061 E0.54920
G1 X114.154 Y128.564 E0.02323
G1 X105.846 Y120.256 E0.54920
G1 X105.846 Y119.759 E0.02323
G1 X114.154 Y128.067 E0.54920
G1 X114.154 Y127.570 E0.02323
G1 X105.846 Y119.262 E0.54920
G1 X105.846 Y118.765 E0.02323
G1 X114.154 Y127.073 E0.54920
G1 X114.154 Y126.576 E0.02323
G1 X105.846 Y118.268 E0.54920
G1 X105.846 Y117.772 E0.02323
G1 X114.154 Y126.079 E0.54920
G1 X114.154 Y125.582 E0.02323
G1 X105.846 Y117.275 E0.54920
G1 X105.846 Y116.778 E0.02323
G1 X114.154 Y125.086 E0.54920
G1 X114.154 Y124.589 E0.02323
G1 X105.846 Y116.281 E0.54920
G1 X105.846 Y115.784 E0.02323
G1 X114.154 Y124.092 E0.54920
G1 X114.154 Y123.595 E0.02323
G1 X105.846 Y115.287 E0.54920
G1 X105.846 Y114.790 E0.02323
G1 X114.154 Y123.098 E0.54920
G1 X114.154 Y122.601 E0.02323
G1 X105.846 Y114.293 E0.54920
G1 X105.846 Y113.796 E0.02323
G1 X114.154 Y122.104 E0.54920
G1 X114.154 Y121.607 E0.02323
G1 X105.846 Y113.299 E0.54920
G1 X105.846 Y112.803 E0.02323
G1 X114.154 Y121.110 E0.54920
G1 X114.154 Y120.613 E0.02323
G1 X105.846 Y112.306 E0.54920
G1 X105.846 Y111.809 E0.02323
G1 X114.154 Y120.117 E0.54920
G1 X114.154 Y119.620 E0.02323
G1 X105.846 Y111.312 E0.54920
G1 X105.846 Y110.815 E0.02323
G1 X114.154 Y119.123 E0.54920
G1 X114.154 Y118.626 E0.02323
G1 X105.846 Y110.318 E0.54920
G1 X105.846 Y109.821 E0.02323
G1 X114.154 Y118.129 E0.54920
G1 X114.154 Y117.632 E0.02323
G1 X105.846 Y109.324 E0.54920
G1 X105.846 Y108.827 E0.02323
G1 X114.154 Y117.135 E0.54920
G1 X114.154 Y116.638 E0.02323
G1 X105.846 Y108.331 E0.54920
G1 X105.846 Y107.834 E0.02323
G1 X114.154 Y116.141 E0.54920
G1 X114.154 Y115.645 E0.02323
G1 X105.846 Y107.337 E0.54920
G1 X105.846 Y106.840 E0.02323
G1 X114.154 Y115.148 E0.54920
G1 X114.154 Y114.651 E0.02323
G1 X105.846 Y106.343 E0.54920
G1 X105.846 Y105.846 E0.02323
G1 X114.154 Y114.154 E0.54920
G1 X114.154 Y113.657 E0.02323
G1 X105.846 Y105.349 E0.54920
G1 X105.846 Y104.852 E0.02323
G1 X114.154 Y113.160 E0.54920
G1 X114.154 Y112.663 E0.02323
G1 X105.846 Y104.355 E0.54920
G1 X105.846 Y103.858 E0.02323
G1 X114.154 Y112.166 E0.54920
G1 X114.154 Y111.669 E0.02323
G1 X105.846 Y103.362 E0.54920
G1 X105.846 Y102.865 E0.02323
G1 X114.154 Y111.172 E0.54920
G1 X114.154 Y110.676 E0.02323
G1 X105.846 Y102.368 E0.54920
G1 X105.846 Y101.871 E0.02323
G1 X114.154 Y110.179 E0.54920
G1 X114.154 Y109.682 E0.02323
G1 X105.846 Y101.374 E0.54920
G1 X105.846 Y100.877 E0.02323
G1 X114.154 Y109.185 E0.54920
G1 X114.154 Y108.688 E0.02323
G1 X105.846 Y100.380 E0.54920
G1 X105.846 Y99.883 E0.02323
G1 X114.154 Y108.191 E0.54920
G1 X114.154 Y107.694 E0.02323
G1 X105.846 Y99.386 E0.54920
G1 X105.846 Y98.890 E0.02323
G1 X114.154 Y107.197 E0.54920
G1 X114.154 Y106.700 E0.02323
G1 X105.846 Y98.393 E0.54920
G1 X105.846 Y97.896 E0.02323
G1 X114.154 Y106.204 E0.54920
G1 X114.154 Y105.707 E0.02323
G1 X105.846 Y97.399 E0.54920
G1 X105.846 Y96.902 E0.02323
G1 X114.154 Y105.210 E0.54920
G1 X114.154 Y104.713 E0.02323
G1 X105.846 Y96.405 E0.54920
G1 X105.846 Y95.908 E0.02323
G1 X114.154 Y104.216 E0.54920
G1 X114.154 Y103.719 E0.02323
G1 X105.846 Y95.411 E0.54920
G1 X105.846 Y94.914 E0.02323
G1 X114.154 Y103.222 E0.54920
G1 X114.154 Y102.725 E0.02323
G1 X105.846 Y94.417 E0.54920
G1 X105.846 Y93.921 E0.02323
G1 X114.154 Y102.228 E0.54920
G1 X114.154 Y101.731 E0.02323
G1 X105.846 Y93.424 E0.54920
G1 X105.846 Y92.927 E0.02323
G1 X114.154 Y101.235 E0.54920
G1 X114.154 Y100.738 E0.02323
G1 X105.846 Y92.430 E0.54920
G1 X105.846 Y91.933 E0.02323
G1 X114.154 Y100.241 E0.54920
G1 X114.154 Y99.744 E0.02323
G1 X105.846 Y91.436 E0.54920
G1 X105.846 Y90.939 E0.02323
G1 X114.154 Y99.247 E0.54920
G1 X114.154 Y98.750 E0.02323
G1 X105.846 Y90.442 E0.54920
