; generated by PrusaSlicer 2.3.0-rc2+ on 2021-01-08 at 22:03:44 UTC

; 

; external perimeters extrusion width = 0.45mm
; perimeters extrusion width = 0.45mm
; infill extrusion width = 0.45mm
; solid infill extrusion width = 0.45mm
; top infill extrusion width = 0.40mm
; support material extrusion width = 0.38mm
; first layer extrusion width = 0.42mm

M201 X500 Y500 Z100 E5000 ; sets maximum accelerations, mm/sec^2
M203 X500 Y500 Z10 E60 ; sets maximum feedrates, mm/sec
M204 P500 R1000 T500 ; sets acceleration (P, T) and retract acceleration (R), mm/sec^2
M205 X8.00 Y8.00 Z0.40 E5.00 ; sets the jerk limits, mm/sec
M205 S0 T0 ; sets the minimum extruding and travel feed rate, mm/sec
M107
M190 S80 ; set bed temperature and wait for it to be reached
M104 S220 ; set temperature
;TYPE:Custom
G28 ; Home
M109 S220 ; set temperature and wait for it to be reached
G21 ; set units to millimeters
G90 ; use absolute coordinates
M83 ; use relative distances for extrusion
; Filament gcode
;LAYER_CHANGE
;Z:0.32
;HEIGHT:0.32
;BEFORE_LAYER_CHANGE
;0.32


G1 E-5.00000 F3600.000
G1 Z0.320 F9000.000
;AFTER_LAYER_CHANGE
;0.32
G1 X43.623 Y36.169
G1 E5.00000 F2400.000
;TYPE:Skirt
;WIDTH:0.42
G1 F1200.000
G1 X43.904 Y35.253 E0.04477
G1 X44.319 Y34.389 E0.04477
G1 X44.859 Y33.598 E0.04477
G1 X45.512 Y32.897 E0.04477
G1 X46.262 Y32.302 E0.04477
G1 X47.094 Y31.827 E0.04477
G1 X47.988 Y31.483 E0.04477
G1 X48.924 Y31.276 E0.04477
G1 X49.749 Y31.213 E0.03868
G1 X69.471 Y31.055 E0.92188
G1 X79.479 Y31.055 E0.46779
G1 X119.418 Y31.185 E1.86678
G1 X140.108 Y31.347 E0.96707
G1 X199.605 Y32.340 E2.78135
G1 X200.966 Y32.529 E0.06419
G1 X202.259 Y33.008 E0.06448
G1 X203.419 Y33.756 E0.06448
G1 X204.386 Y34.731 E0.06419
G1 X204.970 Y35.604 E0.04913
G1 X205.405 Y36.568 E0.04942
G1 X205.673 Y37.584 E0.04913
G1 X205.770 Y38.631 E0.04913
G1 X205.770 Y181.733 E6.68869
G1 X205.603 Y183.133 E0.06592
G1 X205.132 Y184.463 E0.06592
G1 X204.375 Y185.660 E0.06621
G1 X203.377 Y186.656 E0.06592
G1 X202.585 Y187.195 E0.04477
G1 X201.726 Y187.606 E0.04448
G1 X200.810 Y187.886 E0.04477
G1 X199.869 Y188.024 E0.04448
G1 X179.941 Y188.328 E0.93154
G1 X169.900 Y188.328 E0.46934
G1 X49.731 Y186.915 E5.61716
G1 X48.344 Y186.742 E0.06535
G1 X47.023 Y186.267 E0.06564
G1 X45.843 Y185.517 E0.06535
G1 X44.852 Y184.522 E0.06564
G1 X44.264 Y183.643 E0.04942
G1 X43.832 Y182.684 E0.04913
G1 X43.564 Y181.662 E0.04942
G1 X43.468 Y180.615 E0.04913
G1 X43.468 Y37.558 E6.68662
G1 X43.617 Y36.228 E0.06254
G1 E-3.50000 F3600.000
;WIPE_START
G1 F7200.000
G1 X43.904 Y35.253 E-0.48305
G1 X44.319 Y34.389 E-0.45501
G1 X44.859 Y33.598 E-0.45501
G1 X44.904 Y33.549 E-0.03192
;WIPE_END
G1 E-0.07500 F3600.000
G1 X47.722 Y35.933 F9000.000
G1 E5.00000 F2400.000
G1 F1200.000
G1 X48.472 Y35.261 E0.04706
G1 X48.898 Y35.060 E0.02202
G1 X49.334 Y34.948 E0.02106
G1 X60.264 Y34.948 E0.51088
G1 X60.700 Y35.061 E0.02106
G1 X61.124 Y35.261 E0.02189
G1 X61.874 Y35.933 E0.04706
G1 X62.263 Y36.601 E0.03614
G1 X62.412 Y37.241 E0.03070
G1 X62.412 Y180.887 E6.71414
G1 X62.263 Y181.527 E0.03070
G1 X61.874 Y182.195 E0.03614
G1 X61.124 Y182.867 E0.04706
G1 X60.698 Y183.068 E0.02202
G1 X60.262 Y183.181 E0.02105
G1 X49.497 Y183.199 E0.50317
G1 X48.857 Y183.050 E0.03072
G1 X48.188 Y182.662 E0.03614
G1 X47.516 Y181.910 E0.04710
G1 X47.288 Y181.406 E0.02586
G1 X47.184 Y180.887 E0.02474
G1 X47.184 Y37.241 E6.71414
G1 X47.333 Y36.601 E0.03070
G1 X47.692 Y35.985 E0.03333
G1 X47.980 Y36.173 F9000.000
G1 F1200.000
G1 X48.647 Y35.568 E0.04209
G1 X49.032 Y35.385 E0.01994
G1 X49.398 Y35.294 E0.01764
G1 X60.200 Y35.294 E0.50487
G1 X60.566 Y35.386 E0.01767
G1 X60.950 Y35.568 E0.01982
G1 X61.616 Y36.173 E0.04209
G1 X61.944 Y36.751 E0.03106
G1 X62.060 Y37.260 E0.02442
G1 X62.060 Y180.868 E6.71233
G1 X61.944 Y181.377 E0.02442
G1 X61.616 Y181.955 E0.03106
G1 X60.950 Y182.561 E0.04209
G1 X60.564 Y182.743 E0.01994
G1 X60.198 Y182.835 E0.01764
G1 X49.516 Y182.848 E0.49929
G1 X49.006 Y182.731 E0.02443
G1 X48.428 Y182.404 E0.03106
G1 X47.823 Y181.738 E0.04205
G1 X47.628 Y181.314 E0.02180
G1 X47.536 Y180.869 E0.02126
G1 X47.536 Y37.260 E6.71236
G1 X47.652 Y36.751 E0.02442
G1 X47.950 Y36.225 E0.02826
G1 X48.240 Y36.410 F9000.000
G1 F1200.000
G1 X48.822 Y35.874 E0.03698
G1 X49.165 Y35.711 E0.01777
G1 X49.460 Y35.640 E0.01415
G1 X60.138 Y35.640 E0.49909
G1 X60.433 Y35.712 E0.01421
G1 X60.775 Y35.874 E0.01767
G1 X61.356 Y36.410 E0.03698
G1 X61.624 Y36.897 E0.02597
G1 X61.709 Y37.279 E0.01831
G1 X61.709 Y180.849 E6.71056
G1 X61.624 Y181.231 E0.01831
G1 X61.356 Y181.718 E0.02597
G1 X60.775 Y182.255 E0.03698
G1 X60.431 Y182.417 E0.01777
G1 X60.136 Y182.488 E0.01416
G1 X49.535 Y182.496 E0.49554
G1 X49.152 Y182.411 E0.01831
G1 X48.666 Y182.143 E0.02597
G1 X48.129 Y181.562 E0.03698
G1 X47.967 Y181.219 E0.01773
G1 X47.887 Y180.849 E0.01767
G1 X47.887 Y37.279 E6.71058
G1 X47.972 Y36.897 E0.01831
G1 X48.211 Y36.463 E0.02316
G1 X48.504 Y36.644 F9000.000
G1 F1200.000
G1 X48.997 Y36.179 E0.03172
G1 X49.297 Y36.037 E0.01550
G1 X49.518 Y35.987 E0.01057
G1 X60.079 Y35.987 E0.49363
G1 X60.301 Y36.038 E0.01065
G1 X60.599 Y36.179 E0.01541
G1 X61.092 Y36.644 E0.03172
G1 X61.301 Y37.039 E0.02085
G1 X61.358 Y37.298 E0.01239
G1 X61.358 Y180.831 E6.70885
G1 X61.301 Y181.090 E0.01239
G1 X61.092 Y181.484 E0.02085
G1 X60.599 Y181.949 E0.03172
G1 X60.299 Y182.091 E0.01550
G1 X60.078 Y182.141 E0.01057
G1 X49.553 Y182.145 E0.49198
G1 X49.294 Y182.089 E0.01239
G1 X48.900 Y181.880 E0.02085
G1 X48.434 Y181.386 E0.03172
G1 X48.293 Y181.087 E0.01544
G1 X48.238 Y180.831 E0.01225
G1 X48.238 Y37.298 E6.70887
G1 X48.295 Y37.039 E0.01239
G1 X48.476 Y36.697 E0.01805
G1 X48.619 Y37.174 F9000.000
G1 F1200.000
G1 X48.771 Y36.874 E0.01571
G1 X49.175 Y36.484 E0.02626
G1 X49.427 Y36.364 E0.01305
G1 X49.570 Y36.335 E0.00683
G1 X60.058 Y36.338 E0.49020
G1 X60.167 Y36.364 E0.00523
G1 X60.421 Y36.484 E0.01316
G1 X60.825 Y36.874 E0.02626
G1 X60.977 Y37.174 E0.01571
G1 X61.006 Y37.315 E0.00672
G1 X61.006 Y180.813 E6.70722
G1 X60.977 Y180.954 E0.00672
G1 X60.825 Y181.254 E0.01571
G1 X60.421 Y181.644 E0.02626
G1 X60.169 Y181.764 E0.01305
G1 X60.026 Y181.794 E0.00683
G1 X49.570 Y181.794 E0.48870
G1 X49.430 Y181.764 E0.00672
G1 X49.130 Y181.613 E0.01571
G1 X48.739 Y181.209 E0.02626
G1 X48.620 Y180.956 E0.01305
G1 X48.590 Y180.813 E0.00683
G1 X48.590 Y37.315 E6.70722
G1 X48.607 Y37.233 E0.00392
G1 X48.947 Y37.302 F9000.000
G1 F1200.000
G1 X49.043 Y37.098 E0.01052
G1 X49.354 Y36.788 E0.02052
G1 X49.587 Y36.686 E0.01190
G1 X60.009 Y36.686 E0.48717
G1 X60.243 Y36.788 E0.01190
G1 X60.553 Y37.098 E0.02052
G1 X60.655 Y37.331 E0.01190
G1 X60.655 Y180.797 E6.70569
G1 X60.553 Y181.030 E0.01190
G1 X60.243 Y181.340 E0.02052
G1 X60.009 Y181.442 E0.01190
G1 X49.587 Y181.442 E0.48717
G1 X49.354 Y181.340 E0.01190
G1 X49.043 Y181.030 E0.02052
G1 X48.941 Y180.797 E0.01190
G1 X48.941 Y37.361 E6.70430
G1 X49.319 Y37.319 F9000.000
G1 F1200.000
G1 X49.574 Y37.064 E0.01687
G1 X49.639 Y37.037 E0.00327
G1 X59.957 Y37.037 E0.48229
G1 X60.022 Y37.064 E0.00327
G1 X60.277 Y37.319 E0.01687
G1 X60.304 Y37.384 E0.00327
G1 X60.304 Y180.745 E6.70080
G1 X60.277 Y180.809 E0.00327
G1 X60.022 Y181.064 E0.01687
G1 X59.957 Y181.091 E0.00327
G1 X49.639 Y181.091 E0.48229
G1 X49.574 Y181.064 E0.00327
G1 X49.319 Y180.809 E0.01687
G1 X49.292 Y180.745 E0.00327
G1 X49.296 Y37.375 E6.70123
G1 X49.644 Y37.491 F9000.000
G1 F1200.000
G1 X49.747 Y37.388 E0.00680
G1 X59.850 Y37.388 E0.47222
G1 X59.952 Y37.491 E0.00680
G1 X59.952 Y180.637 E6.69073
G1 X59.850 Y180.740 E0.00680
G1 X49.747 Y180.740 E0.47222
G1 X49.644 Y180.637 E0.00680
G1 X49.644 Y37.551 E6.68793
G1 E-3.50000 F3600.000
;WIPE_START
G1 F7200.000
G1 X49.747 Y37.388 E-0.09152
G1 X52.554 Y37.388 E-1.33348
;WIPE_END
G1 E-0.07500 F3600.000
G1 X67.418 Y35.775 F9000.000
G1 E5.00000 F2400.000
G1 F1200.000
G1 X68.169 Y35.104 E0.04706
G1 X68.595 Y34.902 E0.02202
G1 X69.031 Y34.790 E0.02106
G1 X79.961 Y34.790 E0.51088
G1 X80.397 Y34.904 E0.02106
G1 X80.820 Y35.104 E0.02189
G1 X81.571 Y35.775 E0.04706
G1 X81.959 Y36.444 E0.03614
G1 X82.108 Y37.083 E0.03070
G1 X82.108 Y180.730 E6.71414
G1 X81.959 Y181.369 E0.03070
G1 X81.571 Y182.038 E0.03614
G1 X80.820 Y182.709 E0.04706
G1 X80.394 Y182.910 E0.02202
G1 X79.958 Y183.023 E0.02105
G1 X69.193 Y183.041 E0.50317
G1 X68.553 Y182.892 E0.03072
G1 X67.885 Y182.504 E0.03614
G1 X67.213 Y181.753 E0.04710
G1 X66.985 Y181.248 E0.02586
G1 X66.881 Y180.729 E0.02474
G1 X66.881 Y37.083 E6.71414
G1 X67.030 Y36.444 E0.03070
G1 X67.388 Y35.827 E0.03333
G1 X67.676 Y36.015 F9000.000
G1 F1200.000
G1 X68.343 Y35.410 E0.04209
G1 X68.729 Y35.228 E0.01994
G1 X69.095 Y35.136 E0.01764
G1 X79.896 Y35.136 E0.50487
G1 X80.263 Y35.229 E0.01767
G1 X80.646 Y35.410 E0.01982
G1 X81.313 Y36.015 E0.04209
G1 X81.640 Y36.593 E0.03106
G1 X81.757 Y37.103 E0.02442
G1 X81.757 Y180.710 E6.71233
G1 X81.640 Y181.220 E0.02442
G1 X81.313 Y181.798 E0.03106
G1 X80.646 Y182.403 E0.04209
G1 X80.260 Y182.585 E0.01994
G1 X79.894 Y182.677 E0.01764
G1 X69.212 Y182.690 E0.49929
G1 X68.703 Y182.574 E0.02443
G1 X68.125 Y182.246 E0.03106
G1 X67.520 Y181.580 E0.04205
G1 X67.324 Y181.156 E0.02180
G1 X67.232 Y180.711 E0.02126
G1 X67.232 Y37.103 E6.71236
G1 X67.349 Y36.593 E0.02442
G1 X67.647 Y36.067 E0.02826
G1 X67.937 Y36.253 F9000.000
G1 F1200.000
G1 X68.518 Y35.716 E0.03698
G1 X68.862 Y35.553 E0.01777
G1 X69.156 Y35.482 E0.01415
G1 X79.834 Y35.482 E0.49909
G1 X80.129 Y35.554 E0.01421
G1 X80.471 Y35.716 E0.01767
G1 X81.052 Y36.253 E0.03698
G1 X81.320 Y36.739 E0.02597
G1 X81.406 Y37.122 E0.01831
G1 X81.406 Y180.691 E6.71056
G1 X81.320 Y181.073 E0.01831
G1 X81.052 Y181.560 E0.02597
G1 X80.471 Y182.097 E0.03698
G1 X80.127 Y182.259 E0.01777
G1 X79.833 Y182.331 E0.01416
G1 X69.231 Y182.339 E0.49554
G1 X68.849 Y182.253 E0.01831
G1 X68.362 Y181.986 E0.02597
G1 X67.825 Y181.404 E0.03698
G1 X67.663 Y181.061 E0.01773
G1 X67.584 Y180.692 E0.01767
G1 X67.584 Y37.122 E6.71058
G1 X67.669 Y36.739 E0.01831
G1 X67.908 Y36.305 E0.02316
G1 X68.200 Y36.487 F9000.000
G1 F1200.000
G1 X68.694 Y36.021 E0.03172
G1 X68.994 Y35.880 E0.01550
G1 X69.214 Y35.829 E0.01057
G1 X79.775 Y35.829 E0.49363
G1 X79.997 Y35.880 E0.01065
G1 X80.295 Y36.021 E0.01541
G1 X80.789 Y36.487 E0.03172
G1 X80.998 Y36.881 E0.02085
G1 X81.054 Y37.140 E0.01239
G1 X81.054 Y180.673 E6.70885
G1 X80.998 Y180.932 E0.01239
G1 X80.789 Y181.326 E0.02085
G1 X80.295 Y181.792 E0.03172
G1 X79.995 Y181.933 E0.01550
G1 X79.775 Y181.984 E0.01057
G1 X69.249 Y181.987 E0.49198
G1 X68.990 Y181.931 E0.01239
G1 X68.596 Y181.722 E0.02085
G1 X68.131 Y181.228 E0.03172
G1 X67.990 Y180.930 E0.01544
G1 X67.935 Y180.673 E0.01225
G1 X67.935 Y37.140 E6.70887
G1 X67.991 Y36.881 E0.01239
G1 X68.172 Y36.540 E0.01805
G1 X68.316 Y37.017 F9000.000
G1 F1200.000
G1 X68.467 Y36.717 E0.01571
G1 X68.871 Y36.326 E0.02626
G1 X69.124 Y36.207 E0.01305
G1 X69.267 Y36.177 E0.00683
G1 X79.754 Y36.180 E0.49020
G1 X79.863 Y36.206 E0.00523
G1 X80.118 Y36.326 E0.01316
G1 X80.522 Y36.717 E0.02626
G1 X80.673 Y37.017 E0.01571
G1 X80.703 Y37.157 E0.00672
G1 X80.703 Y180.655 E6.70722
G1 X80.673 Y180.796 E0.00672
G1 X80.522 Y181.096 E0.01571
G1 X80.118 Y181.487 E0.02626
G1 X79.865 Y181.606 E0.01305
G1 X79.722 Y181.636 E0.00683
G1 X69.267 Y181.636 E0.48870
G1 X69.126 Y181.607 E0.00672
G1 X68.826 Y181.455 E0.01571
G1 X68.435 Y181.051 E0.02626
G1 X68.316 Y180.799 E0.01305
G1 X68.286 Y180.655 E0.00683
G1 X68.286 Y37.157 E6.70722
G1 X68.303 Y37.075 E0.00392
G1 X68.643 Y37.144 F9000.000
G1 F1200.000
G1 X68.740 Y36.941 E0.01052
G1 X69.050 Y36.630 E0.02052
G1 X69.283 Y36.528 E0.01190
G1 X79.706 Y36.528 E0.48717
G1 X79.939 Y36.630 E0.01190
G1 X80.250 Y36.941 E0.02052
G1 X80.352 Y37.174 E0.01190
G1 X80.352 Y180.639 E6.70569
G1 X80.250 Y180.872 E0.01190
G1 X79.939 Y181.183 E0.02052
G1 X79.706 Y181.285 E0.01190
G1 X69.283 Y181.285 E0.48717
G1 X69.050 Y181.183 E0.01190
G1 X68.740 Y180.872 E0.02052
G1 X68.638 Y180.639 E0.01190
G1 X68.638 Y37.203 E6.70430
G1 X69.016 Y37.161 F9000.000
G1 F1200.000
G1 X69.271 Y36.906 E0.01687
G1 X69.335 Y36.879 E0.00327
G1 X79.654 Y36.879 E0.48229
G1 X79.718 Y36.906 E0.00327
G1 X79.973 Y37.161 E0.01687
G1 X80.000 Y37.226 E0.00327
G1 X80.000 Y180.587 E6.70080
G1 X79.973 Y180.651 E0.00327
G1 X79.718 Y180.907 E0.01687
G1 X79.654 Y180.933 E0.00327
G1 X69.335 Y180.933 E0.48229
G1 X69.271 Y180.907 E0.00327
G1 X69.016 Y180.651 E0.01687
G1 X68.989 Y180.587 E0.00327
G1 X68.993 Y37.217 E6.70123
G1 X69.340 Y37.334 F9000.000
G1 F1200.000
G1 X69.443 Y37.231 E0.00680
G1 X79.546 Y37.231 E0.47222
G1 X79.649 Y37.334 E0.00680
G1 X79.649 Y180.479 E6.69073
G1 X79.546 Y180.582 E0.00680
G1 X69.443 Y180.582 E0.47222
G1 X69.340 Y180.479 E0.00680
G1 X69.340 Y37.394 E6.68793
G1 E-3.50000 F3600.000
;WIPE_START
G1 F7200.000
G1 X69.443 Y37.231 E-0.09152
G1 X72.250 Y37.231 E-1.33348
;WIPE_END
G1 E-0.07500 F3600.000
G1 X87.627 Y36.447 F9000.000
G1 E5.00000 F2400.000
G1 F1200.000
G1 X88.377 Y35.776 E0.04706
G1 X88.803 Y35.575 E0.02202
G1 X89.239 Y35.462 E0.02106
G1 X100.169 Y35.462 E0.51088
G1 X100.605 Y35.576 E0.02106
G1 X101.029 Y35.776 E0.02189
G1 X101.779 Y36.447 E0.04706
G1 X102.168 Y37.116 E0.03614
G1 X102.317 Y37.755 E0.03070
G1 X102.317 Y181.402 E6.71414
G1 X102.168 Y182.041 E0.03070
G1 X101.779 Y182.710 E0.03614
G1 X101.029 Y183.381 E0.04706
G1 X100.603 Y183.583 E0.02202
G1 X100.167 Y183.695 E0.02105
G1 X89.402 Y183.714 E0.50317
G1 X88.761 Y183.564 E0.03072
G1 X88.093 Y183.176 E0.03614
G1 X87.421 Y182.425 E0.04710
G1 X87.193 Y181.921 E0.02586
G1 X87.089 Y181.402 E0.02474
G1 X87.089 Y37.755 E6.71414
G1 X87.238 Y37.116 E0.03070
G1 X87.597 Y36.499 E0.03333
G1 X87.885 Y36.687 F9000.000
G1 F1200.000
G1 X88.551 Y36.082 E0.04209
G1 X88.937 Y35.900 E0.01994
G1 X89.303 Y35.808 E0.01764
G1 X100.105 Y35.808 E0.50487
G1 X100.471 Y35.901 E0.01767
G1 X100.855 Y36.082 E0.01982
G1 X101.521 Y36.687 E0.04209
G1 X101.849 Y37.265 E0.03106
G1 X101.965 Y37.775 E0.02442
G1 X101.965 Y181.382 E6.71233
G1 X101.849 Y181.892 E0.02442
G1 X101.521 Y182.470 E0.03106
G1 X100.855 Y183.075 E0.04209
G1 X100.469 Y183.257 E0.01994
G1 X100.103 Y183.349 E0.01764
G1 X89.421 Y183.362 E0.49929
G1 X88.911 Y183.246 E0.02443
G1 X88.333 Y182.918 E0.03106
G1 X87.728 Y182.252 E0.04205
G1 X87.533 Y181.829 E0.02180
G1 X87.441 Y181.383 E0.02126
G1 X87.441 Y37.775 E6.71236
G1 X87.557 Y37.265 E0.02442
G1 X87.855 Y36.740 E0.02826
G1 X88.145 Y36.925 F9000.000
G1 F1200.000
G1 X88.726 Y36.388 E0.03698
G1 X89.070 Y36.225 E0.01777
G1 X89.365 Y36.154 E0.01415
G1 X100.042 Y36.154 E0.49909
G1 X100.338 Y36.226 E0.01421
G1 X100.680 Y36.388 E0.01767
G1 X101.261 Y36.925 E0.03698
G1 X101.529 Y37.411 E0.02597
G1 X101.614 Y37.794 E0.01831
G1 X101.614 Y181.363 E6.71056
G1 X101.529 Y181.746 E0.01831
G1 X101.261 Y182.232 E0.02597
G1 X100.680 Y182.769 E0.03698
G1 X100.336 Y182.932 E0.01777
G1 X100.041 Y183.003 E0.01416
G1 X89.439 Y183.011 E0.49554
G1 X89.057 Y182.925 E0.01831
G1 X88.570 Y182.658 E0.02597
G1 X88.034 Y182.076 E0.03698
G1 X87.872 Y181.733 E0.01773
G1 X87.792 Y181.364 E0.01767
G1 X87.792 Y37.794 E6.71058
G1 X87.877 Y37.411 E0.01831
G1 X88.116 Y36.977 E0.02316
G1 X88.409 Y37.159 F9000.000
G1 F1200.000
G1 X88.902 Y36.693 E0.03172
G1 X89.202 Y36.552 E0.01550
G1 X89.423 Y36.501 E0.01057
G1 X99.984 Y36.501 E0.49363
G1 X100.206 Y36.553 E0.01065
G1 X100.504 Y36.693 E0.01541
G1 X100.997 Y37.159 E0.03172
G1 X101.206 Y37.553 E0.02085
G1 X101.263 Y37.812 E0.01239
G1 X101.263 Y181.345 E6.70885
G1 X101.206 Y181.604 E0.01239
G1 X100.997 Y181.998 E0.02085
G1 X100.504 Y182.464 E0.03172
G1 X100.204 Y182.605 E0.01550
G1 X99.983 Y182.656 E0.01057
G1 X89.458 Y182.660 E0.49198
G1 X89.199 Y182.603 E0.01239
G1 X88.805 Y182.394 E0.02085
G1 X88.339 Y181.900 E0.03172
G1 X88.198 Y181.602 E0.01544
G1 X88.143 Y181.345 E0.01225
G1 X88.143 Y37.812 E6.70887
G1 X88.200 Y37.553 E0.01239
G1 X88.380 Y37.212 E0.01805
G1 X88.524 Y37.689 F9000.000
G1 F1200.000
G1 X88.676 Y37.389 E0.01571
G1 X89.080 Y36.998 E0.02626
G1 X89.332 Y36.879 E0.01305
G1 X89.475 Y36.849 E0.00683
G1 X99.963 Y36.852 E0.49020
G1 X100.072 Y36.878 E0.00523
G1 X100.326 Y36.998 E0.01316
G1 X100.730 Y37.389 E0.02626
G1 X100.882 Y37.689 E0.01571
