; generated by PrusaSlicer 2.3.0-rc2+ on 2021-01-25 at 03:39:31 UTC

; 

; external perimeters extrusion width = 0.45mm
; perimeters extrusion width = 0.45mm
; infill extrusion width = 0.45mm
; solid infill extrusion width = 0.45mm
; top infill extrusion width = 0.40mm
; support material extrusion width = 0.38mm
; first layer extrusion width = 0.42mm

M201 X500 Y500 Z100 E5000 ; sets maximum accelerations, mm/sec^2
M203 X500 Y500 Z10 E60 ; sets maximum feedrates, mm/sec
M204 P500 R1000 T500 ; sets acceleration (P, T) and retract acceleration (R), mm/sec^2
M205 X8.00 Y8.00 Z0.40 E5.00 ; sets the jerk limits, mm/sec
M205 S0 T0 ; sets the minimum extruding and travel feed rate, mm/sec
M107
M190 S80 ; set bed temperature and wait for it to be reached
M104 S215 ; set temperature
;TYPE:Custom
G28 ; Home
M109 S215 ; set temperature and wait for it to be reached
G21 ; set units to millimeters
G90 ; use absolute coordinates
M83 ; use relative distances for extrusion
; Filament gcode
;LAYER_CHANGE
;Z:0.1
;HEIGHT:0.1
;BEFORE_LAYER_CHANGE
;0.1


G1 E-0.50000 F2700.000
G1 Z0.500 F9000.000
;AFTER_LAYER_CHANGE
;0.1
G1 X45.717 Y37.744
G1 Z0.100
G1 E0.50000 F2400.000
;TYPE:Skirt
;WIDTH:0.42
G1 F1200.000
G1 X46.255 Y36.328 E0.02510
G1 X48.169 Y32.799 E0.06651
G1 X48.728 Y32.026 E0.01580
G1 X49.379 Y31.339 E0.01569
G1 X50.323 Y30.601 E0.01985
G1 X51.377 Y30.030 E0.01985
G1 X52.504 Y29.644 E0.01974
G1 X53.686 Y29.448 E0.01985
G1 X114.479 Y29.152 E1.00732
G1 X134.832 Y29.152 E0.33723
G1 X164.952 Y29.414 E0.49909
G1 X166.436 Y29.590 E0.02477
G1 X167.542 Y29.936 E0.01920
G1 X168.584 Y30.458 E0.01930
G1 X169.527 Y31.141 E0.01930
G1 X170.349 Y31.968 E0.01930
G1 X171.079 Y33.008 E0.02106
G1 X172.821 Y36.240 E0.06085
G1 X173.182 Y37.051 E0.01470
G1 X173.439 Y37.894 E0.01460
G1 X173.634 Y39.383 E0.02488
G1 X174.259 Y69.467 E0.49859
G1 X174.770 Y163.936 E1.56532
G1 X174.622 Y189.308 E0.42039
G1 X174.402 Y190.859 E0.02597
G1 X173.853 Y192.321 E0.02586
G1 X173.360 Y193.152 E0.01602
G1 X172.760 Y193.910 E0.01602
G1 X172.058 Y194.585 E0.01613
G1 X171.278 Y195.156 E0.01602
G1 X170.428 Y195.617 E0.01602
G1 X169.524 Y195.960 E0.01602
G1 X168.582 Y196.178 E0.01602
G1 X167.619 Y196.268 E0.01602
G1 X53.841 Y196.340 E1.88524
G1 X52.187 Y196.138 E0.02761
G1 X50.629 Y195.564 E0.02750
G1 X49.798 Y195.070 E0.01602
G1 X49.045 Y194.474 E0.01591
G1 X48.375 Y193.777 E0.01602
G1 X47.803 Y192.997 E0.01602
G1 X47.342 Y192.148 E0.01602
G1 X46.998 Y191.244 E0.01602
G1 X46.778 Y190.303 E0.01602
G1 X46.687 Y189.340 E0.01602
G1 X45.673 Y112.983 E1.26530
G1 X45.479 Y53.146 E0.99146
G1 X45.487 Y39.248 E0.23029
G1 X45.708 Y37.803 E0.02421
G1 X46.075 Y37.952 F9000.000
G1 F1200.000
G1 X46.612 Y36.506 E0.02556
G1 X48.493 Y33.032 E0.06546
G1 X49.014 Y32.305 E0.01482
G1 X49.622 Y31.657 E0.01472
G1 X50.521 Y30.948 E0.01897
G1 X51.520 Y30.403 E0.01887
G1 X52.603 Y30.030 E0.01897
G1 X53.733 Y29.844 E0.01897
G1 X114.481 Y29.551 E1.00656
G1 X134.831 Y29.551 E0.33720
G1 X164.941 Y29.812 E0.49891
G1 X166.314 Y29.971 E0.02291
G1 X167.372 Y30.297 E0.01834
G1 X168.368 Y30.793 E0.01844
G1 X169.270 Y31.446 E0.01844
G1 X170.053 Y32.236 E0.01844
G1 X170.739 Y33.216 E0.01982
G1 X172.469 Y36.427 E0.06042
G1 X172.809 Y37.191 E0.01387
G1 X173.054 Y37.998 E0.01397
G1 X173.236 Y39.394 E0.02333
G1 X173.860 Y69.474 E0.49850
G1 X174.371 Y163.938 E1.56524
G1 X174.224 Y189.287 E0.42002
G1 X174.016 Y190.757 E0.02460
G1 X173.491 Y192.153 E0.02471
G1 X173.027 Y192.933 E0.01504
G1 X172.459 Y193.649 E0.01514
G1 X171.800 Y194.282 E0.01514
G1 X171.062 Y194.821 E0.01514
G1 X170.258 Y195.256 E0.01514
G1 X169.404 Y195.580 E0.01514
G1 X168.513 Y195.786 E0.01514
G1 X167.603 Y195.870 E0.01514
G1 X53.842 Y195.941 E1.88496
G1 X52.285 Y195.752 E0.02598
G1 X50.808 Y195.207 E0.02609
G1 X50.027 Y194.744 E0.01504
G1 X49.311 Y194.176 E0.01514
G1 X48.677 Y193.518 E0.01514
G1 X48.137 Y192.780 E0.01514
G1 X47.702 Y191.977 E0.01514
G1 X47.377 Y191.123 E0.01514
G1 X47.171 Y190.232 E0.01514
G1 X47.086 Y189.322 E0.01514
G1 X46.072 Y112.991 E1.26487
G1 X45.963 Y82.909 E0.49844
G1 X45.878 Y39.482 E0.71956
G1 X46.067 Y38.012 E0.02456
G1 X46.460 Y38.062 F9000.000
G1 F1200.000
G1 X46.972 Y36.677 E0.02447
G1 X48.818 Y33.264 E0.06429
G1 X49.303 Y32.582 E0.01387
G1 X49.872 Y31.969 E0.01387
G1 X50.727 Y31.289 E0.01810
G1 X51.680 Y30.768 E0.01800
G1 X52.707 Y30.415 E0.01800
G1 X53.779 Y30.240 E0.01800
G1 X114.482 Y29.949 E1.00582
G1 X134.831 Y29.949 E0.33717
G1 X164.930 Y30.211 E0.49874
G1 X166.195 Y30.353 E0.02109
G1 X167.210 Y30.662 E0.01758
G1 X168.155 Y31.130 E0.01748
G1 X169.015 Y31.752 E0.01758
G1 X169.757 Y32.503 E0.01748
G1 X170.399 Y33.424 E0.01861
G1 X172.117 Y36.613 E0.06002
G1 X172.668 Y38.097 E0.02623
G1 X172.837 Y39.403 E0.02181
G1 X173.462 Y69.480 E0.49846
G1 X173.973 Y163.933 E1.56506
G1 X173.826 Y189.267 E0.41976
G1 X173.631 Y190.656 E0.02325
G1 X173.134 Y191.975 E0.02335
G1 X172.693 Y192.715 E0.01428
G1 X172.156 Y193.389 E0.01428
G1 X171.533 Y193.985 E0.01428
G1 X170.836 Y194.492 E0.01428
G1 X170.083 Y194.898 E0.01418
G1 X169.277 Y195.202 E0.01428
G1 X168.437 Y195.394 E0.01428
G1 X167.579 Y195.472 E0.01428
G1 X53.849 Y195.543 E1.88443
G1 X52.370 Y195.362 E0.02469
G1 X50.978 Y194.847 E0.02459
G1 X50.238 Y194.405 E0.01428
G1 X49.569 Y193.872 E0.01418
G1 X48.973 Y193.250 E0.01428
G1 X48.469 Y192.559 E0.01418
G1 X48.062 Y191.806 E0.01418
G1 X47.757 Y191.000 E0.01428
G1 X47.563 Y190.161 E0.01428
G1 X47.484 Y189.309 E0.01418
G1 X46.470 Y112.987 E1.26472
G1 X46.361 Y82.913 E0.49830
G1 X46.277 Y39.491 E0.71947
G1 X46.453 Y38.122 E0.02288
G1 E-0.35000 F2700.000
;WIPE_START
G1 F7200.000
G1 X46.588 Y37.745 E-0.14250
;WIPE_END
G1 E-0.00750 F2700.000
G1 Z0.600 F9000.000
G1 X114.189 Y70.406
G1 Z0.100
G1 E0.50000 F2400.000
;TYPE:Perimeter
G1 F1200.000
G1 X115.781 Y70.406 E0.02637
G1 X115.781 Y67.448 E0.04902
G1 X116.204 Y67.448 E0.00701
G1 X116.204 Y68.000 E0.00915
G1 X134.461 Y68.000 E0.30251
G1 X134.461 Y67.448 E0.00915
G1 X134.884 Y67.448 E0.00701
G1 X134.884 Y70.406 E0.04902
G1 X136.475 Y70.406 E0.02637
G1 X136.475 Y83.246 E0.21275
G1 X136.301 Y83.246 E0.00289
G1 X136.301 Y79.089 E0.06887
G1 X114.364 Y79.089 E0.36348
G1 X114.364 Y83.246 E0.06887
G1 X114.189 Y83.246 E0.00289
G1 X114.189 Y70.466 E0.21175
G1 E-0.35000 F2700.000
;WIPE_START
G1 F7200.000
G1 X114.589 Y70.451 E-0.14250
;WIPE_END
G1 E-0.00750 F2700.000
G1 Z0.600 F9000.000
G1 X116.602 Y67.601
G1 Z0.100
G1 E0.50000 F2400.000
;TYPE:External perimeter
G1 F1200.000
G1 X134.062 Y67.601 E0.28930
G1 X134.062 Y67.049 E0.00915
G1 X135.282 Y67.049 E0.02021
G1 X135.282 Y70.008 E0.04902
G1 X136.874 Y70.008 E0.02637
G1 X136.874 Y83.334 E0.22081
G1 X136.843 Y83.644 E0.00517
G1 X135.902 Y83.644 E0.01559
G1 X135.902 Y79.488 E0.06887
G1 X114.762 Y79.488 E0.35028
G1 X114.762 Y83.644 E0.06887
G1 X113.821 Y83.644 E0.01559
G1 X113.791 Y83.334 E0.00517
G1 X113.791 Y70.008 E0.22081
G1 X115.382 Y70.008 E0.02637
G1 X115.382 Y67.049 E0.04902
G1 X116.602 Y67.049 E0.02021
G1 X116.602 Y67.541 E0.00815
G1 X116.752 Y67.972 F9000.000
G1 E-0.35000 F2700.000
;WIPE_START
G1 F7200.000
G1 X117.002 Y67.543 E-0.14250
;WIPE_END
G1 E-0.00750 F2700.000
G1 Z0.600 F9000.000
G1 X114.309 Y78.154
G1 Z0.100
G1 E0.50000 F2400.000
;TYPE:Solid infill
;WIDTH:0.424968
G1 F1200.000
G1 X114.946 Y78.791 E0.01511
G1 X115.516 Y78.791 E0.00957
G1 X114.488 Y77.763 E0.02439
G1 X114.488 Y77.192 E0.00957
G1 X116.087 Y78.791 E0.03793
G1 X116.658 Y78.791 E0.00957
G1 X114.488 Y76.621 E0.05147
G1 X114.488 Y76.051 E0.00957
G1 X117.228 Y78.791 E0.06501
G1 X117.799 Y78.791 E0.00957
G1 X114.488 Y75.480 E0.07854
G1 X114.488 Y74.909 E0.00957
G1 X118.370 Y78.791 E0.09208
G1 X118.940 Y78.791 E0.00957
G1 X114.488 Y74.339 E0.10562
G1 X114.488 Y73.768 E0.00957
G1 X119.511 Y78.791 E0.11916
G1 X120.082 Y78.791 E0.00957
G1 X114.488 Y73.197 E0.13270
G1 X114.488 Y72.627 E0.00957
G1 X120.652 Y78.791 E0.14624
G1 X121.223 Y78.791 E0.00957
G1 X114.488 Y72.056 E0.15977
G1 X114.488 Y71.485 E0.00957
G1 X121.794 Y78.791 E0.17331
G1 X122.364 Y78.791 E0.00957
G1 X114.488 Y70.915 E0.18685
G1 X114.488 Y70.705 E0.00352
G1 X114.849 Y70.705 E0.00605
G1 X122.935 Y78.791 E0.19183
G1 X123.505 Y78.791 E0.00957
G1 X115.420 Y70.705 E0.19183
G1 X115.991 Y70.705 E0.00957
G1 X124.076 Y78.791 E0.19183
G1 X124.647 Y78.791 E0.00957
G1 X116.080 Y70.224 E0.20325
G1 X116.080 Y69.653 E0.00957
G1 X125.217 Y78.791 E0.21679
G1 X125.788 Y78.791 E0.00957
G1 X116.080 Y69.082 E0.23033
G1 X116.080 Y68.512 E0.00957
G1 X126.359 Y78.791 E0.24386
G1 X126.929 Y78.791 E0.00957
G1 X116.437 Y68.299 E0.24892
G1 X117.008 Y68.299 E0.00957
G1 X127.500 Y78.791 E0.24892
G1 X128.071 Y78.791 E0.00957
G1 X117.579 Y68.299 E0.24892
G1 X118.149 Y68.299 E0.00957
G1 X128.641 Y78.791 E0.24892
G1 X129.212 Y78.791 E0.00957
G1 X118.720 Y68.299 E0.24892
G1 X119.291 Y68.299 E0.00957
G1 X129.783 Y78.791 E0.24892
G1 X130.353 Y78.791 E0.00957
G1 X119.861 Y68.299 E0.24892
G1 X120.432 Y68.299 E0.00957
G1 X130.924 Y78.791 E0.24892
G1 X131.495 Y78.791 E0.00957
G1 X121.003 Y68.299 E0.24892
G1 X121.573 Y68.299 E0.00957
G1 X132.065 Y78.791 E0.24892
G1 X132.636 Y78.791 E0.00957
G1 X122.144 Y68.299 E0.24892
G1 X122.715 Y68.299 E0.00957
G1 X133.206 Y78.791 E0.24892
G1 X133.777 Y78.791 E0.00957
G1 X123.285 Y68.299 E0.24892
G1 X123.856 Y68.299 E0.00957
G1 X134.348 Y78.791 E0.24892
G1 X134.918 Y78.791 E0.00957
G1 X124.427 Y68.299 E0.24892
G1 X124.997 Y68.299 E0.00957
G1 X135.489 Y78.791 E0.24892
G1 X136.060 Y78.791 E0.00957
G1 X125.568 Y68.299 E0.24892
G1 X126.138 Y68.299 E0.00957
G1 X136.176 Y78.337 E0.23815
G1 X136.176 Y77.766 E0.00957
G1 X126.709 Y68.299 E0.22461
G1 X127.280 Y68.299 E0.00957
G1 X136.176 Y77.195 E0.21107
G1 X136.176 Y76.625 E0.00957
G1 X127.850 Y68.299 E0.19753
G1 X128.421 Y68.299 E0.00957
G1 X136.176 Y76.054 E0.18400
G1 X136.176 Y75.483 E0.00957
G1 X128.992 Y68.299 E0.17046
G1 X129.562 Y68.299 E0.00957
G1 X136.176 Y74.913 E0.15692
G1 X136.176 Y74.342 E0.00957
G1 X130.133 Y68.299 E0.14338
G1 X130.704 Y68.299 E0.00957
G1 X136.176 Y73.772 E0.12984
G1 X136.176 Y73.201 E0.00957
G1 X131.274 Y68.299 E0.11630
G1 X131.845 Y68.299 E0.00957
G1 X136.356 Y72.810 E0.10702
G1 X136.356 Y71.098 F9000.000
G1 F1200.000
G1 X135.963 Y70.705 E0.00932
G1 X135.392 Y70.705 E0.00957
G1 X136.176 Y71.489 E0.01860
G1 X136.176 Y72.060 E0.00957
G1 X132.416 Y68.299 E0.08923
G1 X132.986 Y68.299 E0.00957
G1 X134.585 Y69.897 E0.03793
G1 X134.585 Y69.327 E0.00957
G1 X133.557 Y68.299 E0.02439
G1 X134.128 Y68.299 E0.00957
G1 X134.764 Y68.936 E0.01511
G1 E-0.35000 F2700.000
;WIPE_START
G1 F7200.000
G1 X134.482 Y68.653 E-0.14250
;WIPE_END
G1 E-0.00750 F2700.000
G1 Z0.600 F9000.000
G1 X134.736 Y97.089
G1 Z0.100
G1 E0.50000 F2400.000
;TYPE:Perimeter
;WIDTH:0.42
G1 F1200.000
G1 X134.736 Y100.048 E0.04902
G1 X136.328 Y100.048 E0.02637
G1 X136.328 Y112.888 E0.21275
G1 X136.153 Y112.888 E0.00289
G1 X136.153 Y108.731 E0.06887
G1 X114.216 Y108.731 E0.36348
G1 X114.216 Y112.888 E0.06887
G1 X114.042 Y112.888 E0.00289
G1 X114.042 Y100.048 E0.21275
G1 X115.633 Y100.048 E0.02637
G1 X115.633 Y97.089 E0.04902
G1 X116.056 Y97.089 E0.00701
G1 X116.056 Y97.641 E0.00915
G1 X134.313 Y97.641 E0.30251
G1 X134.313 Y97.089 E0.00915
G1 X134.676 Y97.089 E0.00601
G1 E-0.35000 F2700.000
;WIPE_START
G1 F7200.000
G1 X134.684 Y97.489 E-0.14250
;WIPE_END
G1 E-0.00750 F2700.000
G1 Z0.600 F9000.000
G1 X116.455 Y97.243
G1 Z0.100
G1 E0.50000 F2400.000
;TYPE:External perimeter
G1 F1200.000
G1 X133.915 Y97.243 E0.28930
G1 X133.915 Y96.691 E0.00915
G1 X135.135 Y96.691 E0.02021
G1 X135.135 Y99.649 E0.04902
G1 X136.726 Y99.649 E0.02637
G1 X136.726 Y112.976 E0.22081
G1 X136.696 Y113.286 E0.00517
G1 X135.755 Y113.286 E0.01559
G1 X135.755 Y109.130 E0.06887
G1 X114.615 Y109.130 E0.35028
G1 X114.615 Y113.286 E0.06887
G1 X113.674 Y113.286 E0.01559
G1 X113.643 Y112.976 E0.00517
G1 X113.643 Y99.649 E0.22081
G1 X115.235 Y99.649 E0.02637
G1 X115.235 Y96.691 E0.04902
G1 X116.455 Y96.691 E0.02021
G1 X116.455 Y97.183 E0.00815
G1 X116.604 Y97.614 F9000.000
G1 E-0.35000 F2700.000
;WIPE_START
G1 F7200.000
G1 X116.855 Y97.184 E-0.14250
;WIPE_END
G1 E-0.00750 F2700.000
G1 Z0.600 F9000.000
G1 X114.161 Y107.796
G1 Z0.100
G1 E0.50000 F2400.000
;TYPE:Solid infill
;WIDTH:0.424968
G1 F1200.000
G1 X114.798 Y108.432 E0.01511
G1 X115.369 Y108.432 E0.00957
G1 X114.341 Y107.404 E0.02439
G1 X114.341 Y106.834 E0.00957
G1 X115.939 Y108.432 E0.03793
G1 X116.510 Y108.432 E0.00957
G1 X114.341 Y106.263 E0.05147
G1 X114.341 Y105.692 E0.00957
G1 X117.081 Y108.432 E0.06501
G1 X117.651 Y108.432 E0.00957
G1 X114.341 Y105.122 E0.07854
G1 X114.341 Y104.551 E0.00957
G1 X118.222 Y108.432 E0.09208
G1 X118.793 Y108.432 E0.00957
G1 X114.341 Y103.980 E0.10562
G1 X114.341 Y103.410 E0.00957
G1 X119.363 Y108.432 E0.11916
G1 X119.934 Y108.432 E0.00957
G1 X114.341 Y102.839 E0.13270
G1 X114.341 Y102.268 E0.00957
G1 X120.505 Y108.432 E0.14624
G1 X121.075 Y108.432 E0.00957
G1 X114.341 Y101.698 E0.15978
G1 X114.341 Y101.127 E0.00957
G1 X121.646 Y108.432 E0.17331
G1 X122.217 Y108.432 E0.00957
G1 X114.341 Y100.556 E0.18685
G1 X114.341 Y100.347 E0.00352
G1 X114.702 Y100.347 E0.00605
G1 X122.787 Y108.432 E0.19183
G1 X123.358 Y108.432 E0.00957
G1 X115.272 Y100.347 E0.19183
G1 X115.843 Y100.347 E0.00957
G1 X123.929 Y108.432 E0.19183
G1 X124.499 Y108.432 E0.00957
G1 X115.932 Y99.865 E0.20325
G1 X115.932 Y99.295 E0.00957
G1 X125.070 Y108.432 E0.21679
G1 X125.640 Y108.432 E0.00957
G1 X115.932 Y98.724 E0.23033
G1 X115.932 Y98.153 E0.00957
G1 X126.211 Y108.432 E0.24386
G1 X126.782 Y108.432 E0.00957
G1 X116.290 Y97.940 E0.24892
G1 X116.861 Y97.940 E0.00957
G1 X127.352 Y108.432 E0.24892
G1 X127.923 Y108.432 E0.00957
G1 X117.431 Y97.940 E0.24892
G1 X118.002 Y97.940 E0.00957
G1 X128.494 Y108.432 E0.24892
G1 X129.064 Y108.432 E0.00957
G1 X118.572 Y97.940 E0.24892
G1 X119.143 Y97.940 E0.00957
G1 X129.635 Y108.432 E0.24892
G1 X130.206 Y108.432 E0.00957
G1 X119.714 Y97.940 E0.24892
G1 X120.284 Y97.940 E0.00957
G1 X130.776 Y108.432 E0.24892
G1 X131.347 Y108.432 E0.00957
G1 X120.855 Y97.940 E0.24892
G1 X121.426 Y97.940 E0.00957
G1 X131.918 Y108.432 E0.24892
G1 X132.488 Y108.432 E0.00957
G1 X121.996 Y97.940 E0.24892
G1 X122.567 Y97.940 E0.00957
G1 X133.059 Y108.432 E0.24892
G1 X133.630 Y108.432 E0.00957
G1 X123.138 Y97.940 E0.24892
G1 X123.708 Y97.940 E0.00957
G1 X134.200 Y108.432 E0.24892
G1 X134.771 Y108.432 E0.00957
G1 X124.279 Y97.940 E0.24892
G1 X124.850 Y97.940 E0.00957
G1 X135.341 Y108.432 E0.24892
G1 X135.912 Y108.432 E0.00957
G1 X125.420 Y97.940 E0.24892
G1 X125.991 Y97.940 E0.00957
G1 X136.029 Y107.978 E0.23815
G1 X136.029 Y107.408 E0.00957
G1 X126.562 Y97.940 E0.22461
G1 X127.132 Y97.940 E0.00957
G1 X136.029 Y106.837 E0.21107
G1 X136.029 Y106.266 E0.00957
G1 X127.703 Y97.940 E0.19753
G1 X128.273 Y97.940 E0.00957
G1 X136.029 Y105.696 E0.18400
G1 X136.029 Y105.125 E0.00957
G1 X128.844 Y97.940 E0.17046
G1 X129.415 Y97.940 E0.00957
G1 X136.029 Y104.555 E0.15692
G1 X136.029 Y103.984 E0.00957
G1 X129.985 Y97.940 E0.14338
G1 X130.556 Y97.940 E0.00957
G1 X136.029 Y103.413 E0.12984
G1 X136.029 Y102.843 E0.00957
G1 X131.127 Y97.940 E0.11630
G1 X131.697 Y97.940 E0.00957
G1 X136.208 Y102.451 E0.10702
G1 X136.208 Y100.739 F9000.000
G1 F1200.000
G1 X135.816 Y100.347 E0.00932
G1 X135.245 Y100.347 E0.00957
G1 X136.029 Y101.131 E0.01860
G1 X136.029 Y101.701 E0.00957
G1 X132.268 Y97.940 E0.08923
G1 X132.839 Y97.940 E0.00957
G1 X134.437 Y99.539 E0.03793
G1 X134.437 Y98.969 E0.00957
G1 X133.409 Y97.940 E0.02439
G1 X133.980 Y97.940 E0.00957
G1 X134.617 Y98.577 E0.01511
G1 E-0.35000 F2700.000
;WIPE_START
G1 F7200.000
G1 X134.334 Y98.294 E-0.14250
;WIPE_END
G1 E-0.00750 F2700.000
G1 Z0.600 F9000.000
G1 X143.765 Y99.826
G1 Z0.100
G1 E0.50000 F2400.000
;TYPE:Perimeter
;WIDTH:0.42
G1 F1200.000
G1 X145.356 Y99.826 E0.02637
G1 X145.356 Y96.867 E0.04902
G1 X145.779 Y96.867 E0.00701
G1 X145.779 Y97.419 E0.00915
G1 X164.036 Y97.419 E0.30251
G1 X164.036 Y96.867 E0.00915
G1 X164.459 Y96.867 E0.00701
G1 X164.459 Y99.826 E0.04902
G1 X166.051 Y99.826 E0.02637
G1 X166.051 Y112.665 E0.21275
G1 X165.876 Y112.665 E0.00289
G1 X165.876 Y108.509 E0.06887
