; generated by PrusaSlicer 2.3.0-rc2+ on 2021-01-23 at 12:14:26 UTC

; 

; external perimeters extrusion width = 0.45mm
; perimeters extrusion width = 0.45mm
; infill extrusion width = 0.45mm
; solid infill extrusion width = 0.45mm
; top infill extrusion width = 0.40mm
; support material extrusion width = 0.38mm
; first layer extrusion width = 0.42mm

M201 X500 Y500 Z100 E5000 ; sets maximum accelerations, mm/sec^2
M203 X500 Y500 Z10 E60 ; sets maximum feedrates, mm/sec
M204 P500 R1000 T500 ; sets acceleration (P, T) and retract acceleration (R), mm/sec^2
M205 X8.00 Y8.00 Z0.40 E5.00 ; sets the jerk limits, mm/sec
M205 S0 T0 ; sets the minimum extruding and travel feed rate, mm/sec
M107
M190 S70 ; set bed temperature and wait for it to be reached
M104 S215 ; set temperature
;TYPE:Custom
G28 ; Home
M109 S215 ; set temperature and wait for it to be reached
G21 ; set units to millimeters
G90 ; use absolute coordinates
M83 ; use relative distances for extrusion
; Filament gcode
;LAYER_CHANGE
;Z:0.1
;HEIGHT:0.1
;BEFORE_LAYER_CHANGE
;0.1


G1 E-0.50000 F2700.000
G1 Z0.500 F9000.000
;AFTER_LAYER_CHANGE
;0.1
G1 X45.933 Y27.948
G1 Z0.100
G1 E0.50000 F2400.000
;TYPE:Skirt
;WIDTH:0.42
G1 F1200.000
G1 X46.471 Y26.532 E0.02510
G1 X48.385 Y23.004 E0.06651
G1 X48.944 Y22.231 E0.01580
G1 X49.595 Y21.544 E0.01569
G1 X50.539 Y20.806 E0.01985
G1 X51.593 Y20.235 E0.01985
G1 X52.726 Y19.847 E0.01985
G1 X53.902 Y19.653 E0.01974
G1 X114.695 Y19.357 E1.00732
G1 X135.048 Y19.357 E0.33723
G1 X165.168 Y19.619 E0.49909
G1 X166.653 Y19.795 E0.02477
G1 X167.765 Y20.143 E0.01930
G1 X168.806 Y20.666 E0.01930
G1 X169.749 Y21.350 E0.01930
G1 X170.565 Y22.173 E0.01920
G1 X171.292 Y23.207 E0.02095
G1 X173.038 Y26.445 E0.06096
G1 X173.399 Y27.256 E0.01470
G1 X173.656 Y28.098 E0.01460
G1 X173.851 Y29.587 E0.02488
G1 X174.475 Y59.672 E0.49859
G1 X174.986 Y154.141 E1.56532
G1 X174.839 Y179.512 E0.42039
G1 X174.618 Y181.064 E0.02597
G1 X174.069 Y182.525 E0.02586
G1 X173.576 Y183.357 E0.01602
G1 X172.976 Y184.115 E0.01602
G1 X172.280 Y184.786 E0.01602
G1 X171.500 Y185.357 E0.01602
G1 X170.644 Y185.822 E0.01613
G1 X169.740 Y186.164 E0.01602
G1 X168.798 Y186.383 E0.01602
G1 X167.836 Y186.473 E0.01602
G1 X54.057 Y186.545 E1.88524
G1 X52.403 Y186.342 E0.02761
G1 X50.846 Y185.768 E0.02750
G1 X50.014 Y185.275 E0.01602
G1 X49.262 Y184.678 E0.01591
G1 X48.591 Y183.982 E0.01602
G1 X48.020 Y183.202 E0.01602
G1 X47.558 Y182.353 E0.01602
G1 X47.214 Y181.449 E0.01602
G1 X46.995 Y180.507 E0.01602
G1 X46.904 Y179.545 E0.01602
G1 X45.889 Y103.188 E1.26530
G1 X45.695 Y43.351 E0.99146
G1 X45.703 Y29.452 E0.23029
G1 X45.924 Y28.008 E0.02421
G1 X46.291 Y28.157 F9000.000
G1 F1200.000
G1 X46.828 Y26.711 E0.02556
G1 X48.706 Y23.243 E0.06535
G1 X49.226 Y22.515 E0.01482
G1 X49.838 Y21.862 E0.01482
G1 X50.737 Y21.153 E0.01897
G1 X51.743 Y20.605 E0.01897
G1 X52.819 Y20.235 E0.01887
G1 X53.949 Y20.049 E0.01897
G1 X114.697 Y19.756 E1.00656
G1 X135.048 Y19.755 E0.33720
G1 X165.157 Y20.017 E0.49891
G1 X166.530 Y20.176 E0.02291
G1 X167.588 Y20.502 E0.01834
G1 X168.584 Y20.998 E0.01844
G1 X169.486 Y21.650 E0.01844
G1 X170.270 Y22.441 E0.01844
G1 X170.956 Y23.421 E0.01982
G1 X172.685 Y26.631 E0.06042
G1 X173.026 Y27.396 E0.01387
G1 X173.271 Y28.203 E0.01397
G1 X173.452 Y29.599 E0.02333
G1 X174.076 Y59.678 E0.49850
G1 X174.587 Y154.143 E1.56524
G1 X174.441 Y179.491 E0.42002
G1 X174.233 Y180.962 E0.02460
G1 X173.707 Y182.357 E0.02471
G1 X173.240 Y183.143 E0.01514
G1 X172.675 Y183.853 E0.01504
G1 X172.016 Y184.486 E0.01514
G1 X171.278 Y185.026 E0.01514
G1 X170.475 Y185.461 E0.01514
G1 X169.620 Y185.784 E0.01514
G1 X168.730 Y185.990 E0.01514
G1 X167.820 Y186.075 E0.01514
G1 X54.058 Y186.146 E1.88496
G1 X52.501 Y185.956 E0.02598
G1 X51.024 Y185.412 E0.02609
G1 X50.244 Y184.949 E0.01504
G1 X49.527 Y184.381 E0.01514
G1 X48.893 Y183.723 E0.01514
G1 X48.354 Y182.985 E0.01514
G1 X47.918 Y182.182 E0.01514
G1 X47.594 Y181.327 E0.01514
G1 X47.387 Y180.437 E0.01514
G1 X47.302 Y179.527 E0.01514
G1 X46.288 Y103.196 E1.26487
G1 X46.179 Y73.114 E0.49844
G1 X46.094 Y29.687 E0.71956
G1 X46.284 Y28.216 E0.02456
G1 X46.677 Y28.267 F9000.000
G1 F1200.000
G1 X47.188 Y26.881 E0.02447
G1 X49.035 Y23.469 E0.06429
G1 X49.519 Y22.787 E0.01387
G1 X50.089 Y22.174 E0.01387
G1 X50.939 Y21.497 E0.01800
G1 X51.896 Y20.972 E0.01810
G1 X52.923 Y20.619 E0.01800
G1 X53.995 Y20.445 E0.01800
G1 X114.699 Y20.154 E1.00582
G1 X135.047 Y20.154 E0.33717
G1 X165.146 Y20.415 E0.49874
G1 X166.411 Y20.558 E0.02109
G1 X167.427 Y20.866 E0.01758
G1 X168.377 Y21.338 E0.01758
G1 X169.236 Y21.961 E0.01758
G1 X169.977 Y22.712 E0.01748
G1 X170.616 Y23.629 E0.01851
G1 X172.333 Y26.818 E0.06002
G1 X172.885 Y28.302 E0.02623
G1 X173.054 Y29.607 E0.02181
G1 X173.678 Y59.684 E0.49846
G1 X174.189 Y154.138 E1.56506
G1 X174.043 Y179.471 E0.41976
G1 X173.847 Y180.861 E0.02325
G1 X173.351 Y182.180 E0.02335
G1 X172.909 Y182.920 E0.01428
G1 X172.372 Y183.594 E0.01428
G1 X171.750 Y184.190 E0.01428
G1 X171.058 Y184.693 E0.01418
G1 X170.300 Y185.103 E0.01428
G1 X169.493 Y185.406 E0.01428
G1 X168.653 Y185.599 E0.01428
G1 X167.795 Y185.677 E0.01428
G1 X54.065 Y185.747 E1.88443
G1 X52.586 Y185.567 E0.02469
G1 X51.194 Y185.052 E0.02459
G1 X50.454 Y184.610 E0.01428
G1 X49.785 Y184.077 E0.01418
G1 X49.189 Y183.455 E0.01428
G1 X48.685 Y182.763 E0.01418
G1 X48.278 Y182.011 E0.01418
G1 X47.973 Y181.205 E0.01428
G1 X47.779 Y180.365 E0.01428
G1 X47.700 Y179.513 E0.01418
G1 X46.687 Y103.191 E1.26472
G1 X46.578 Y73.118 E0.49830
G1 X46.493 Y29.696 E0.71947
G1 X46.669 Y28.327 E0.02288
G1 E-0.35000 F2700.000
;WIPE_START
G1 F7200.000
G1 X46.804 Y27.950 E-0.14250
;WIPE_END
G1 E-0.00750 F2700.000
G1 Z0.600 F9000.000
G1 X168.705 Y151.708
G1 Z0.100
G1 E0.50000 F2400.000
G1 F1200.000
G1 X169.350 Y152.056 E0.01213
G1 X169.890 Y152.602 E0.01273
G1 X170.157 Y153.021 E0.00822
G1 X170.381 Y153.780 E0.01311
G1 X170.373 Y160.377 E0.10931
G1 X170.272 Y160.819 E0.00752
G1 X169.928 Y161.474 E0.01226
G1 X169.210 Y162.199 E0.01690
G1 X169.808 Y162.803 E0.01408
G1 X170.051 Y163.171 E0.00731
G1 X170.299 Y163.981 E0.01402
G1 X170.296 Y170.536 E0.10862
G1 X170.194 Y171.012 E0.00807
G1 X169.925 Y171.563 E0.01016
G1 X169.691 Y171.828 E0.00586
G1 X169.986 Y172.284 E0.00899
G1 X170.237 Y173.098 E0.01412
G1 X170.237 Y179.619 E0.10804
G1 X170.130 Y180.137 E0.00878
G1 X169.822 Y180.741 E0.01122
G1 X169.237 Y181.354 E0.01405
G1 X168.892 Y181.595 E0.00697
G1 X168.028 Y181.870 E0.01503
G1 X143.308 Y181.870 E0.40958
G1 X142.789 Y181.763 E0.00878
G1 X142.186 Y181.455 E0.01122
G1 X141.573 Y180.870 E0.01405
G1 X141.332 Y180.525 E0.00697
G1 X141.056 Y179.661 E0.01503
G1 X141.056 Y173.100 E0.10871
G1 X141.274 Y172.354 E0.01287
G1 X141.487 Y171.995 E0.00691
G1 X141.660 Y171.807 E0.00422
G1 X141.369 Y171.357 E0.00887
G1 X141.118 Y170.543 E0.01412
G1 X141.118 Y163.981 E0.10873
G1 X141.316 Y163.279 E0.01208
G1 X141.542 Y162.886 E0.00752
G1 X142.286 Y162.119 E0.01770
G1 X141.714 Y161.547 E0.01340
G1 X141.425 Y161.102 E0.00881
G1 X141.220 Y160.468 E0.01104
G1 X141.200 Y153.781 E0.11080
G1 X141.398 Y153.078 E0.01209
G1 X141.594 Y152.726 E0.00668
G1 X142.192 Y152.095 E0.01440
G1 X142.545 Y151.833 E0.00728
G1 X141.907 Y151.488 E0.01203
G1 X141.337 Y150.905 E0.01351
G1 X141.080 Y150.482 E0.00819
G1 X140.906 Y149.953 E0.00922
G1 X140.876 Y143.205 E0.11182
G1 X141.075 Y142.503 E0.01209
G1 X141.270 Y142.150 E0.00668
G1 X141.867 Y141.521 E0.01437
G1 X142.154 Y141.306 E0.00593
G1 X143.026 Y141.004 E0.01529
G1 X144.013 Y140.998 E0.01636
G1 X144.674 Y141.156 E0.01126
G1 X145.394 Y141.555 E0.01365
G1 X147.775 Y143.874 E0.05507
G1 X148.167 Y144.617 E0.01392
G1 X148.283 Y145.102 E0.00825
G1 X148.292 Y145.554 E0.00750
G1 X162.636 Y145.554 E0.23768
G1 X162.655 Y145.073 E0.00798
G1 X162.933 Y144.231 E0.01470
G1 X163.243 Y143.767 E0.00924
G1 X165.589 Y141.520 E0.05383
G1 X166.094 Y141.224 E0.00970
G1 X166.866 Y141.003 E0.01330
G1 X167.802 Y140.994 E0.01551
G1 X168.217 Y141.066 E0.00698
G1 X169.028 Y141.482 E0.01511
G1 X169.543 Y141.997 E0.01207
G1 X169.810 Y142.397 E0.00796
G1 X170.057 Y143.205 E0.01401
G1 X170.054 Y149.761 E0.10862
G1 X169.948 Y150.244 E0.00820
G1 X169.604 Y150.899 E0.01225
G1 X169.051 Y151.463 E0.01310
G1 X168.754 Y151.673 E0.00602
G1 E-0.35000 F2700.000
;WIPE_START
G1 F7200.000
G1 X169.091 Y151.890 E-0.14250
;WIPE_END
G1 E-0.00750 F2700.000
G1 Z0.600 F9000.000
G1 X147.890 Y145.953
G1 Z0.100
G1 E0.50000 F2400.000
G1 F1200.000
G1 X163.038 Y145.953 E0.25099
G1 X163.044 Y145.165 E0.01304
G1 X163.302 Y144.384 E0.01364
G1 X163.559 Y144.012 E0.00750
G1 X165.848 Y141.824 E0.05247
G1 X166.231 Y141.598 E0.00737
G1 X166.898 Y141.401 E0.01152
G1 X167.786 Y141.393 E0.01471
G1 X168.116 Y141.452 E0.00556
G1 X168.768 Y141.786 E0.01214
G1 X169.246 Y142.264 E0.01120
G1 X169.461 Y142.591 E0.00649
G1 X169.659 Y143.235 E0.01115
G1 X169.655 Y149.740 E0.10779
G1 X169.582 Y150.084 E0.00581
G1 X169.266 Y150.685 E0.01127
G1 X168.787 Y151.164 E0.01122
G1 X168.459 Y151.380 E0.00650
G1 X167.655 Y151.632 E0.01397
G1 X167.706 Y151.970 E0.00566
G1 X168.147 Y151.971 E0.00731
G1 X168.439 Y152.027 E0.00493
G1 X169.092 Y152.362 E0.01216
G1 X169.570 Y152.840 E0.01120
G1 X169.785 Y153.167 E0.00649
G1 X169.982 Y153.810 E0.01115
G1 X169.979 Y160.316 E0.10779
G1 X169.906 Y160.659 E0.00581
G1 X169.590 Y161.260 E0.01126
G1 X169.079 Y161.765 E0.01190
G1 X168.780 Y161.957 E0.00588
G1 X168.232 Y162.156 E0.00966
G1 X169.008 Y162.561 E0.01450
G1 X169.510 Y163.068 E0.01182
G1 X169.701 Y163.364 E0.00584
G1 X169.900 Y164.010 E0.01121
G1 X169.897 Y170.515 E0.10778
G1 X169.824 Y170.860 E0.00583
G1 X169.582 Y171.357 E0.00916
G1 X169.115 Y171.845 E0.01120
G1 X169.449 Y172.188 E0.00794
G1 X169.616 Y172.435 E0.00495
G1 X169.839 Y173.130 E0.01209
G1 X169.839 Y179.599 E0.10719
G1 X169.762 Y179.981 E0.00646
G1 X169.481 Y180.532 E0.01024
G1 X168.966 Y181.060 E0.01222
G1 X168.691 Y181.250 E0.00554
G1 X167.997 Y181.472 E0.01208
G1 X143.328 Y181.472 E0.40875
G1 X142.946 Y181.395 E0.00646
G1 X142.395 Y181.114 E0.01024
G1 X141.867 Y180.599 E0.01222
G1 X141.677 Y180.324 E0.00554
G1 X141.455 Y179.630 E0.01208
G1 X141.455 Y173.130 E0.10769
G1 X141.647 Y172.496 E0.01098
G1 X141.811 Y172.229 E0.00520
G1 X142.243 Y171.799 E0.01009
G1 X141.906 Y171.454 E0.00799
G1 X141.739 Y171.206 E0.00495
G1 X141.516 Y170.511 E0.01209
G1 X141.516 Y164.010 E0.10771
G1 X141.691 Y163.418 E0.01024
G1 X141.872 Y163.111 E0.00590
G1 X142.407 Y162.565 E0.01267
G1 X142.607 Y162.421 E0.00408
G1 X143.265 Y162.175 E0.01165
G1 X142.490 Y161.760 E0.01458
G1 X142.012 Y161.281 E0.01121
G1 X141.774 Y160.909 E0.00732
G1 X141.618 Y160.434 E0.00827
G1 X141.598 Y153.809 E0.10977
G1 X141.773 Y153.215 E0.01027
G1 X141.927 Y152.946 E0.00513
G1 X142.463 Y152.387 E0.01283
G1 X142.738 Y152.195 E0.00555
G1 X143.588 Y151.911 E0.01486
G1 X143.536 Y151.579 E0.00558
G1 X143.110 Y151.573 E0.00706
G1 X142.818 Y151.517 E0.00493
G1 X142.166 Y151.183 E0.01215
G1 X141.662 Y150.674 E0.01186
G1 X141.451 Y150.334 E0.00663
G1 X141.295 Y149.859 E0.00829
G1 X141.275 Y143.234 E0.10977
G1 X141.450 Y142.639 E0.01027
G1 X141.603 Y142.370 E0.00513
G1 X142.141 Y141.810 E0.01287
G1 X142.363 Y141.646 E0.00457
G1 X143.119 Y141.392 E0.01321
G1 X143.987 Y141.396 E0.01438
G1 X144.508 Y141.519 E0.00886
G1 X145.136 Y141.861 E0.01185
G1 X147.474 Y144.138 E0.05407
G1 X147.785 Y144.733 E0.01113
G1 X147.889 Y145.169 E0.00743
G1 X147.890 Y145.893 E0.01198
G1 X147.492 Y146.351 F9000.000
G1 F1200.000
G1 X163.443 Y146.351 E0.26431
G1 X163.433 Y145.258 E0.01812
G1 X163.670 Y144.539 E0.01253
G1 X163.870 Y144.260 E0.00569
G1 X166.105 Y142.130 E0.05115
G1 X166.409 Y141.956 E0.00581
G1 X166.931 Y141.799 E0.00902
G1 X167.769 Y141.791 E0.01389
G1 X168.013 Y141.838 E0.00412
G1 X168.509 Y142.091 E0.00922
G1 X168.949 Y142.530 E0.01031
G1 X169.111 Y142.783 E0.00498
G1 X169.260 Y143.265 E0.00835
G1 X169.260 Y149.686 E0.10639
G1 X169.213 Y149.931 E0.00413
G1 X168.961 Y150.427 E0.00922
G1 X168.521 Y150.867 E0.01031
G1 X168.268 Y151.029 E0.00498
G1 X167.786 Y151.178 E0.00835
G1 X143.165 Y151.178 E0.40796
G1 X142.920 Y151.131 E0.00413
G1 X142.424 Y150.879 E0.00922
G1 X141.985 Y150.439 E0.01031
G1 X141.821 Y150.184 E0.00501
G1 X141.683 Y149.765 E0.00732
G1 X141.673 Y143.265 E0.10770
G1 X141.822 Y142.782 E0.00838
G1 X141.933 Y142.595 E0.00359
G1 X142.413 Y142.102 E0.01142
G1 X142.572 Y141.987 E0.00324
G1 X143.151 Y141.791 E0.01012
G1 X143.963 Y141.795 E0.01346
G1 X144.345 Y141.884 E0.00650
G1 X144.879 Y142.167 E0.01001
G1 X147.172 Y144.400 E0.05303
G1 X147.405 Y144.853 E0.00843
G1 X147.491 Y145.195 E0.00586
G1 X147.492 Y146.291 E0.01816
G1 X146.803 Y146.750 F9000.000
G1 F1200.000
G1 X164.131 Y146.750 E0.28711
G1 X163.911 Y146.349 E0.00757
G1 X163.839 Y146.087 E0.00450
G1 X163.832 Y145.288 E0.01325
G1 X164.013 Y144.744 E0.00949
G1 X164.160 Y144.535 E0.00424
G1 X166.362 Y142.435 E0.05041
G1 X166.545 Y142.331 E0.00349
G1 X167.016 Y142.190 E0.00815
G1 X167.753 Y142.190 E0.01220
G1 X167.867 Y142.210 E0.00192
G1 X168.252 Y142.397 E0.00709
G1 X168.653 Y142.798 E0.00940
G1 X168.742 Y142.935 E0.00270
G1 X168.862 Y143.299 E0.00635
G1 X168.862 Y149.671 E0.10558
G1 X168.842 Y149.785 E0.00192
G1 X168.654 Y150.170 E0.00709
G1 X168.253 Y150.571 E0.00940
G1 X168.117 Y150.660 E0.00270
G1 X167.753 Y150.779 E0.00635
G1 X143.181 Y150.779 E0.40714
G1 X143.066 Y150.759 E0.00192
G1 X142.682 Y150.572 E0.00709
G1 X142.281 Y150.171 E0.00940
G1 X142.191 Y150.035 E0.00270
G1 X142.072 Y149.671 E0.00635
G1 X142.072 Y143.299 E0.10558
G1 X142.192 Y142.932 E0.00639
G1 X142.258 Y142.826 E0.00207
G1 X142.683 Y142.396 E0.01002
G1 X142.777 Y142.329 E0.00191
G1 X143.183 Y142.190 E0.00711
G1 X143.940 Y142.193 E0.01254
G1 X144.187 Y142.250 E0.00421
G1 X144.624 Y142.474 E0.00813
G1 X146.868 Y144.660 E0.05191
G1 X147.036 Y145.004 E0.00635
G1 X147.097 Y145.263 E0.00441
G1 X147.095 Y146.087 E0.01364
G1 X147.022 Y146.349 E0.00451
G1 X146.831 Y146.697 E0.00657
G1 X145.951 Y146.852 F9000.000
G1 F1200.000
G1 X146.030 Y147.148 E0.00508
G1 X164.903 Y147.148 E0.31273
G1 X164.982 Y146.852 E0.00508
G1 X164.592 Y146.630 E0.00743
G1 X164.475 Y146.522 E0.00264
G1 X164.283 Y146.203 E0.00617
G1 X164.237 Y146.053 E0.00260
G1 X164.231 Y145.321 E0.01212
G1 X164.377 Y144.908 E0.00727
G1 X164.447 Y144.811 E0.00197
G1 X166.588 Y142.764 E0.04907
G1 X166.692 Y142.702 E0.00201
G1 X167.049 Y142.588 E0.00622
G1 X167.764 Y142.595 E0.01185
G1 X167.995 Y142.704 E0.00423
G1 X168.358 Y143.067 E0.00850
G1 X168.463 Y143.336 E0.00478
G1 X168.463 Y149.649 E0.10460
G1 X168.347 Y149.913 E0.00478
G1 X167.984 Y150.276 E0.00850
G1 X167.716 Y150.381 E0.00478
G1 X143.169 Y150.374 E0.40672
G1 X142.938 Y150.265 E0.00423
G1 X142.575 Y149.902 E0.00850
G1 X142.470 Y149.634 E0.00478
G1 X142.470 Y143.336 E0.10435
G1 X142.575 Y143.067 E0.00478
G1 X142.949 Y142.693 E0.00875
G1 X143.217 Y142.588 E0.00478
G1 X143.916 Y142.592 E0.01158
G1 X144.034 Y142.619 E0.00201
G1 X144.371 Y142.784 E0.00621
G1 X146.525 Y144.866 E0.04965
G1 X146.668 Y145.160 E0.00541
G1 X146.699 Y145.286 E0.00215
G1 X146.696 Y146.053 E0.01271
G1 X146.651 Y146.203 E0.00259
G1 X146.458 Y146.522 E0.00617
G1 X146.341 Y146.630 E0.00264
G1 X146.003 Y146.822 E0.00644
G1 X145.304 Y146.761 F9000.000
G1 F1200.000
G1 X145.304 Y147.547 E0.01302
G1 X165.629 Y147.547 E0.33676
G1 X165.629 Y146.761 E0.01302
G1 X164.815 Y146.298 E0.01551
G1 X164.643 Y146.029 E0.00529
G1 X164.629 Y145.978 E0.00088
G1 X164.629 Y145.358 E0.01027
G1 X164.720 Y145.112 E0.00434
G1 X166.850 Y143.068 E0.04892
G1 X167.085 Y142.987 E0.00412
G1 X167.671 Y142.987 E0.00972
G1 X167.745 Y143.017 E0.00131
G1 X168.034 Y143.307 E0.00678
G1 X168.064 Y143.380 E0.00131
G1 X168.064 Y149.589 E0.10289
G1 X168.034 Y149.663 E0.00131
G1 X167.745 Y149.952 E0.00678
G1 X167.671 Y149.982 E0.00131
G1 X143.262 Y149.982 E0.40445
G1 X143.189 Y149.952 E0.00131
G1 X142.899 Y149.663 E0.00678
G1 X142.869 Y149.589 E0.00131
G1 X142.869 Y143.380 E0.10289
G1 X142.899 Y143.307 E0.00131
G1 X143.189 Y143.017 E0.00678
G1 X143.262 Y142.987 E0.00131
G1 X143.863 Y142.987 E0.00996
G1 X144.121 Y143.097 E0.00466
G1 X146.183 Y145.073 E0.04731
G1 X146.304 Y145.343 E0.00491
