; generated by PrusaSlicer 2.3.0-rc2+ on 2021-01-25 at 07:47:24 UTC

; 

; external perimeters extrusion width = 0.45mm
; perimeters extrusion width = 0.45mm
; infill extrusion width = 0.45mm
; solid infill extrusion width = 0.45mm
; top infill extrusion width = 0.40mm
; support material extrusion width = 0.38mm
; first layer extrusion width = 0.42mm

M201 X500 Y500 Z100 E5000 ; sets maximum accelerations, mm/sec^2
M203 X500 Y500 Z10 E60 ; sets maximum feedrates, mm/sec
M204 P500 R1000 T500 ; sets acceleration (P, T) and retract acceleration (R), mm/sec^2
M205 X8.00 Y8.00 Z0.40 E5.00 ; sets the jerk limits, mm/sec
M205 S0 T0 ; sets the minimum extruding and travel feed rate, mm/sec
M107
M190 S80 ; set bed temperature and wait for it to be reached
M104 S215 ; set temperature
;TYPE:Custom
G28 ; Home
M109 S215 ; set temperature and wait for it to be reached
G21 ; set units to millimeters
G90 ; use absolute coordinates
M83 ; use relative distances for extrusion
; Filament gcode
;LAYER_CHANGE
;Z:0.1
;HEIGHT:0.1
;BEFORE_LAYER_CHANGE
;0.1


G1 E-0.50000 F2700.000
G1 Z0.500 F9000.000
;AFTER_LAYER_CHANGE
;0.1
G1 X94.965 Y53.474
G1 Z0.100
G1 E0.50000 F2400.000
;TYPE:Skirt
;WIDTH:0.42
G1 F1200.000
G1 X95.887 Y52.534 E0.02182
G1 X96.811 Y51.869 E0.01887
G1 X97.834 Y51.355 E0.01898
G1 X98.920 Y51.012 E0.01887
G1 X100.053 Y50.843 E0.01898
G1 X120.867 Y50.827 E0.34488
G1 X121.740 Y50.881 E0.01449
G1 X122.599 Y51.040 E0.01449
G1 X123.427 Y51.300 E0.01438
G1 X124.223 Y51.661 E0.01449
G1 X124.970 Y52.116 E0.01449
G1 X125.651 Y52.653 E0.01438
G1 X126.267 Y53.274 E0.01449
G1 X126.803 Y53.965 E0.01449
G1 X144.800 Y84.987 E0.59425
G1 X146.845 Y88.890 E0.07302
G1 X147.134 Y89.799 E0.01580
G1 X147.301 Y90.737 E0.01580
G1 X149.902 Y116.574 E0.43026
G1 X149.925 Y123.082 E0.10783
G1 X149.779 Y124.418 E0.02226
G1 X149.453 Y125.536 E0.01930
G1 X148.947 Y126.593 E0.01941
G1 X148.281 Y127.549 E0.01930
G1 X147.469 Y128.385 E0.01930
G1 X132.017 Y140.562 E0.32598
G1 X131.118 Y141.147 E0.01777
G1 X130.136 Y141.594 E0.01788
G1 X128.954 Y141.917 E0.02029
G1 X127.729 Y142.035 E0.02040
G1 X103.615 Y142.035 E0.39955
G1 X102.207 Y141.888 E0.02346
G1 X100.891 Y141.483 E0.02280
G1 X99.682 Y140.839 E0.02270
G1 X79.920 Y127.122 E0.39860
G1 X79.229 Y126.565 E0.01470
G1 X78.612 Y125.927 E0.01470
G1 X78.078 Y125.218 E0.01470
G1 X77.633 Y124.443 E0.01481
G1 X77.156 Y123.201 E0.02204
G1 X76.915 Y121.886 E0.02215
G1 X75.842 Y104.193 E0.29370
G1 X75.834 Y90.244 E0.23112
G1 X75.981 Y88.863 E0.02302
G1 X76.261 Y87.868 E0.01712
G1 X76.677 Y86.930 E0.01701
G1 X94.229 Y54.567 E0.61003
G1 X94.931 Y53.524 E0.02083
G1 X95.260 Y53.746 F9000.000
G1 F1200.000
G1 X96.146 Y52.837 E0.02103
G1 X97.024 Y52.206 E0.01791
G1 X97.996 Y51.720 E0.01802
G1 X99.028 Y51.396 E0.01791
G1 X100.097 Y51.240 E0.01791
G1 X120.867 Y51.225 E0.34414
G1 X121.689 Y51.276 E0.01365
G1 X122.506 Y51.428 E0.01376
G1 X123.298 Y51.677 E0.01376
G1 X124.047 Y52.019 E0.01365
G1 X124.756 Y52.452 E0.01376
G1 X125.406 Y52.969 E0.01376
G1 X125.984 Y53.556 E0.01365
G1 X126.490 Y54.214 E0.01376
G1 X144.455 Y85.186 E0.59326
G1 X146.480 Y89.052 E0.07232
G1 X146.749 Y89.898 E0.01472
G1 X146.905 Y90.779 E0.01482
G1 X149.505 Y116.611 E0.43017
G1 X149.527 Y123.073 E0.10707
G1 X149.388 Y124.338 E0.02110
G1 X149.078 Y125.401 E0.01834
G1 X148.599 Y126.398 E0.01834
G1 X147.965 Y127.305 E0.01834
G1 X147.192 Y128.097 E0.01834
G1 X131.778 Y140.243 E0.32516
G1 X130.920 Y140.801 E0.01695
G1 X129.983 Y141.226 E0.01706
G1 X128.871 Y141.527 E0.01908
G1 X127.725 Y141.636 E0.01908
G1 X103.616 Y141.637 E0.39946
G1 X102.286 Y141.497 E0.02216
G1 X101.044 Y141.115 E0.02153
G1 X99.893 Y140.500 E0.02163
G1 X80.149 Y126.796 E0.39822
G1 X79.493 Y126.266 E0.01397
G1 X78.912 Y125.664 E0.01387
G1 X78.405 Y124.990 E0.01397
G1 X77.986 Y124.258 E0.01397
G1 X77.536 Y123.081 E0.02089
G1 X77.311 Y121.840 E0.02089
G1 X76.239 Y104.166 E0.29340
G1 X76.233 Y90.253 E0.23053
G1 X76.372 Y88.942 E0.02184
G1 X76.635 Y88.006 E0.01610
G1 X77.029 Y87.118 E0.01610
G1 X94.579 Y54.757 E0.60997
G1 X95.227 Y53.795 E0.01922
G1 X95.556 Y54.017 F9000.000
G1 F1200.000
G1 X96.402 Y53.142 E0.02016
G1 X97.239 Y52.542 E0.01707
G1 X98.155 Y52.085 E0.01696
G1 X99.132 Y51.781 E0.01696
G1 X100.146 Y51.636 E0.01696
G1 X120.867 Y51.624 E0.34333
G1 X122.413 Y51.815 E0.02582
G1 X123.873 Y52.378 E0.02593
G1 X125.153 Y53.278 E0.02593
G1 X126.173 Y54.456 E0.02582
G1 X144.106 Y85.379 E0.59230
G1 X146.115 Y89.213 E0.07172
G1 X146.364 Y90.005 E0.01376
G1 X146.509 Y90.829 E0.01387
G1 X149.108 Y116.647 E0.42994
G1 X149.129 Y123.063 E0.10632
G1 X148.996 Y124.267 E0.02006
G1 X148.703 Y125.267 E0.01727
G1 X148.250 Y126.206 E0.01727
G1 X147.651 Y127.059 E0.01727
G1 X146.917 Y127.808 E0.01738
G1 X131.539 Y139.924 E0.32439
G1 X130.722 Y140.455 E0.01614
G1 X129.829 Y140.858 E0.01624
G1 X128.786 Y141.137 E0.01789
G1 X127.710 Y141.238 E0.01789
G1 X103.624 Y141.238 E0.39911
G1 X102.358 Y141.105 E0.02109
G1 X101.189 Y140.744 E0.02026
G1 X100.111 Y140.167 E0.02026
G1 X80.383 Y126.474 E0.39791
G1 X79.210 Y125.400 E0.02634
G1 X78.341 Y124.077 E0.02623
G1 X77.919 Y122.969 E0.01965
G1 X77.708 Y121.796 E0.01975
G1 X76.637 Y104.145 E0.29302
G1 X76.631 Y90.254 E0.23015
G1 X76.764 Y89.014 E0.02068
G1 X77.012 Y88.136 E0.01511
G1 X77.385 Y87.298 E0.01521
G1 X94.929 Y54.948 E0.60976
G1 X95.522 Y54.067 E0.01761
G1 E-0.35000 F2700.000
;WIPE_START
G1 F7200.000
G1 X95.798 Y53.777 E-0.14250
;WIPE_END
G1 E-0.00750 F2700.000
G1 Z0.600 F9000.000
G1 X103.784 Y55.984
G1 Z0.100
G1 E0.50000 F2400.000
G1 F1200.000
G1 X117.577 Y55.984 E0.22855
G1 X118.014 Y55.689 E0.00873
G1 X118.836 Y55.432 E0.01426
G1 X121.241 Y55.432 E0.03985
G1 X121.948 Y55.632 E0.01217
G1 X122.455 Y55.954 E0.00996
G1 X123.028 Y56.549 E0.01369
G1 X123.241 Y56.911 E0.00695
G1 X123.415 Y57.425 E0.00899
G1 X123.440 Y58.535 E0.01841
G1 X123.928 Y58.816 E0.00932
G1 X124.582 Y59.460 E0.01521
G1 X124.843 Y59.897 E0.00844
G1 X125.042 Y60.600 E0.01211
G1 X125.042 Y74.585 E0.23172
G1 X124.912 Y75.786 E0.02002
G1 X124.778 Y76.144 E0.00633
G1 X124.392 Y76.732 E0.01165
G1 X123.655 Y77.341 E0.01584
G1 X123.242 Y77.522 E0.00747
G1 X122.851 Y77.615 E0.00666
G1 X120.682 Y77.628 E0.03594
G1 X119.879 Y77.385 E0.01392
G1 X119.503 Y77.139 E0.00743
G1 X118.924 Y76.552 E0.01366
G1 X118.680 Y76.150 E0.00779
G1 X118.506 Y75.633 E0.00904
G1 X118.477 Y73.472 E0.03581
G1 X102.923 Y73.472 E0.25772
G1 X102.895 Y75.633 E0.03581
G1 X102.721 Y76.150 E0.00904
G1 X102.477 Y76.552 E0.00779
G1 X101.897 Y77.139 E0.01366
G1 X101.522 Y77.385 E0.00743
G1 X100.718 Y77.628 E0.01392
G1 X98.549 Y77.615 E0.03594
G1 X98.159 Y77.522 E0.00666
G1 X97.746 Y77.341 E0.00747
G1 X97.009 Y76.732 E0.01584
G1 X96.623 Y76.144 E0.01165
G1 X96.489 Y75.786 E0.00633
G1 X96.358 Y74.585 E0.02002
G1 X96.358 Y60.644 E0.23100
G1 X96.409 Y60.299 E0.00578
G1 X96.850 Y59.416 E0.01635
G1 X97.434 Y58.845 E0.01354
G1 X97.764 Y58.635 E0.00649
G1 X97.959 Y58.553 E0.00350
G1 X97.974 Y57.491 E0.01759
G1 X98.159 Y56.914 E0.01004
G1 X98.407 Y56.505 E0.00792
G1 X99.024 Y55.889 E0.01445
G1 X99.460 Y55.630 E0.00840
G1 X100.161 Y55.432 E0.01208
G1 X102.570 Y55.436 E0.03991
G1 X103.077 Y55.553 E0.00862
G1 X103.510 Y55.757 E0.00794
G1 X103.738 Y55.946 E0.00489
G1 X103.632 Y56.383 F9000.000
G1 F1200.000
G1 X117.759 Y56.383 E0.23407
G1 X117.918 Y56.228 E0.00368
G1 X118.166 Y56.059 E0.00498
G1 X118.868 Y55.831 E0.01224
G1 X121.211 Y55.831 E0.03882
G1 X121.807 Y56.006 E0.01029
G1 X122.184 Y56.247 E0.00742
G1 X122.724 Y56.808 E0.01290
G1 X122.872 Y57.063 E0.00489
G1 X123.017 Y57.468 E0.00712
G1 X123.049 Y58.837 E0.02270
G1 X123.444 Y58.984 E0.00699
G1 X123.666 Y59.117 E0.00429
G1 X124.257 Y59.691 E0.01365
G1 X124.469 Y60.037 E0.00673
G1 X124.644 Y60.630 E0.01024
G1 X124.644 Y74.575 E0.23106
G1 X124.529 Y75.675 E0.01832
G1 X124.429 Y75.950 E0.00484
G1 X124.111 Y76.447 E0.00979
G1 X123.468 Y76.988 E0.01392
G1 X123.100 Y77.150 E0.00666
G1 X122.785 Y77.222 E0.00536
G1 X120.711 Y77.230 E0.03436
G1 X120.070 Y77.034 E0.01111
G1 X119.771 Y76.842 E0.00589
G1 X119.225 Y76.289 E0.01288
G1 X119.048 Y75.996 E0.00567
G1 X118.904 Y75.593 E0.00709
G1 X118.871 Y73.073 E0.04175
G1 X102.530 Y73.073 E0.27075
G1 X102.497 Y75.593 E0.04175
G1 X102.353 Y75.996 E0.00709
G1 X102.176 Y76.289 E0.00567
G1 X101.630 Y76.842 E0.01288
G1 X101.331 Y77.034 E0.00589
G1 X100.690 Y77.230 E0.01111
G1 X98.616 Y77.222 E0.03436
G1 X98.301 Y77.150 E0.00536
G1 X97.933 Y76.988 E0.00666
G1 X97.290 Y76.447 E0.01392
G1 X96.972 Y75.950 E0.00979
G1 X96.872 Y75.675 E0.00484
G1 X96.757 Y74.575 E0.01832
G1 X96.757 Y60.660 E0.23057
G1 X96.798 Y60.390 E0.00451
G1 X97.152 Y59.678 E0.01319
G1 X97.696 Y59.146 E0.01260
G1 X97.954 Y58.986 E0.00502
G1 X98.353 Y58.837 E0.00707
G1 X98.372 Y57.529 E0.02166
G1 X98.529 Y57.063 E0.00815
G1 X98.706 Y56.770 E0.00567
G1 X99.288 Y56.188 E0.01363
G1 X99.597 Y56.005 E0.00596
G1 X100.190 Y55.830 E0.01025
G1 X102.547 Y55.834 E0.03904
G1 X102.926 Y55.922 E0.00645
G1 X103.313 Y56.105 E0.00710
G1 X103.587 Y56.343 E0.00601
G1 X103.475 Y56.781 F9000.000
G1 F1200.000
G1 X117.926 Y56.781 E0.23944
G1 X118.167 Y56.539 E0.00566
G1 X118.326 Y56.425 E0.00324
G1 X118.902 Y56.229 E0.01009
G1 X121.180 Y56.229 E0.03774
G1 X121.662 Y56.378 E0.00835
G1 X121.915 Y56.541 E0.00499
G1 X122.395 Y57.033 E0.01139
G1 X122.504 Y57.217 E0.00354
G1 X122.631 Y57.570 E0.00622
G1 X122.654 Y59.174 E0.02658
G1 X122.895 Y59.207 E0.00403
G1 X123.258 Y59.337 E0.00639
G1 X123.441 Y59.447 E0.00354
G1 X123.960 Y59.958 E0.01207
G1 X124.097 Y60.180 E0.00433
G1 X124.245 Y60.661 E0.00834
G1 X124.245 Y74.566 E0.23038
G1 X124.144 Y75.568 E0.01670
G1 X124.078 Y75.761 E0.00338
G1 X123.826 Y76.167 E0.00790
G1 X123.280 Y76.635 E0.01193
G1 X122.959 Y76.776 E0.00581
G1 X122.722 Y76.828 E0.00401
G1 X120.741 Y76.831 E0.03282
G1 X120.258 Y76.682 E0.00838
G1 X120.037 Y76.545 E0.00430
G1 X119.526 Y76.026 E0.01206
G1 X119.417 Y75.844 E0.00353
G1 X119.290 Y75.490 E0.00622
G1 X119.267 Y72.675 E0.04666
G1 X102.134 Y72.675 E0.28388
G1 X102.110 Y75.490 E0.04666
G1 X101.984 Y75.844 E0.00622
G1 X101.875 Y76.026 E0.00353
G1 X101.364 Y76.545 E0.01206
G1 X101.143 Y76.682 E0.00430
G1 X100.660 Y76.831 E0.00838
G1 X98.679 Y76.828 E0.03282
G1 X98.442 Y76.776 E0.00401
G1 X98.121 Y76.635 E0.00581
G1 X97.574 Y76.167 E0.01193
G1 X97.323 Y75.761 E0.00790
G1 X97.257 Y75.568 E0.00338
G1 X97.156 Y74.566 E0.01670
G1 X97.156 Y60.676 E0.23013
G1 X97.187 Y60.484 E0.00323
G1 X97.457 Y59.937 E0.01011
G1 X97.926 Y59.473 E0.01095
G1 X98.145 Y59.337 E0.00427
G1 X98.506 Y59.207 E0.00635
G1 X98.747 Y59.174 E0.00403
G1 X98.770 Y57.570 E0.02658
G1 X98.897 Y57.217 E0.00622
G1 X99.006 Y57.034 E0.00353
G1 X99.552 Y56.488 E0.01279
G1 X99.738 Y56.378 E0.00358
G1 X100.221 Y56.229 E0.00838
G1 X102.523 Y56.233 E0.03814
G1 X102.775 Y56.291 E0.00428
G1 X103.114 Y56.452 E0.00622
G1 X103.431 Y56.741 E0.00711
G1 E-0.35000 F2700.000
;WIPE_START
G1 F7200.000
G1 X103.831 Y56.742 E-0.14250
;WIPE_END
G1 E-0.00750 F2700.000
G1 Z0.600 F9000.000
G1 X122.257 Y59.580
G1 Z0.100
G1 E0.50000 F2400.000
G1 F1200.000
G1 X122.800 Y59.597 E0.00901
G1 X123.102 Y59.705 E0.00531
G1 X123.210 Y59.772 E0.00210
G1 X123.661 Y60.223 E0.01057
G1 X123.726 Y60.329 E0.00206
G1 X123.847 Y60.695 E0.00639
G1 X123.847 Y74.556 E0.22968
G1 X123.758 Y75.468 E0.01518
G1 X123.722 Y75.580 E0.00195
G1 X123.538 Y75.890 E0.00598
G1 X123.090 Y76.283 E0.00987
G1 X122.816 Y76.404 E0.00496
G1 X122.700 Y76.429 E0.00198
G1 X120.774 Y76.433 E0.03191
G1 X120.410 Y76.313 E0.00634
G1 X120.274 Y76.224 E0.00269
G1 X119.852 Y75.796 E0.00997
G1 X119.784 Y75.688 E0.00211
G1 X119.677 Y75.388 E0.00527
G1 X119.665 Y72.276 E0.05157
G1 X101.736 Y72.276 E0.29707
G1 X101.724 Y75.388 E0.05157
G1 X101.616 Y75.688 E0.00527
G1 X101.549 Y75.796 E0.00211
G1 X101.126 Y76.224 E0.00997
G1 X100.990 Y76.313 E0.00269
G1 X100.627 Y76.433 E0.00634
G1 X98.701 Y76.429 E0.03191
G1 X98.585 Y76.404 E0.00198
G1 X98.311 Y76.283 E0.00496
G1 X97.863 Y75.890 E0.00987
G1 X97.679 Y75.580 E0.00598
G1 X97.643 Y75.468 E0.00195
G1 X97.554 Y74.556 E0.01518
G1 X97.554 Y60.695 E0.22967
G1 X97.574 Y60.581 E0.00192
G1 X97.761 Y60.196 E0.00708
G1 X98.190 Y59.772 E0.01000
G1 X98.299 Y59.705 E0.00211
G1 X98.601 Y59.597 E0.00531
G1 X99.144 Y59.580 E0.00901
G1 X99.157 Y57.672 E0.03161
G1 X99.264 Y57.372 E0.00527
G1 X99.331 Y57.264 E0.00210
G1 X99.782 Y56.813 E0.01057
G1 X99.888 Y56.748 E0.00206
G1 X100.254 Y56.628 E0.00638
G1 X102.499 Y56.631 E0.03720
G1 X102.623 Y56.661 E0.00211
G1 X102.912 Y56.797 E0.00530
G1 X103.313 Y57.180 E0.00917
G1 X118.091 Y57.180 E0.24487
G1 X118.436 Y56.834 E0.00810
G1 X118.531 Y56.767 E0.00193
G1 X118.936 Y56.628 E0.00709
G1 X121.146 Y56.628 E0.03663
G1 X121.510 Y56.747 E0.00635
G1 X121.646 Y56.836 E0.00269
G1 X122.069 Y57.264 E0.00997
G1 X122.136 Y57.372 E0.00211
G1 X122.244 Y57.672 E0.00527
G1 X122.256 Y59.520 E0.03062
G1 E-0.35000 F2700.000
;WIPE_START
G1 F7200.000
G1 X122.652 Y59.576 E-0.14250
;WIPE_END
G1 E-0.00750 F2700.000
G1 Z0.600 F9000.000
G1 X118.256 Y57.578
G1 Z0.100
G1 E0.50000 F2400.000
G1 F1200.000
G1 X118.703 Y57.131 E0.01047
G1 X118.971 Y57.026 E0.00478
G1 X121.109 Y57.026 E0.03543
G1 X121.350 Y57.112 E0.00423
G1 X121.752 Y57.505 E0.00931
G1 X121.857 Y57.774 E0.00478
G1 X121.857 Y59.985 E0.03664
G1 X122.701 Y59.985 E0.01399
G1 X122.941 Y60.071 E0.00423
G1 X123.343 Y60.463 E0.00931
G1 X123.448 Y60.732 E0.00478
G1 X123.448 Y74.547 E0.22891
G1 X123.361 Y75.411 E0.01438
G1 X123.243 Y75.620 E0.00397
G1 X122.899 Y75.932 E0.00770
G1 X122.648 Y76.034 E0.00449
G1 X120.811 Y76.034 E0.03044
G1 X120.543 Y75.929 E0.00478
G1 X120.169 Y75.556 E0.00875
G1 X120.064 Y75.287 E0.00478
G1 X120.064 Y71.878 E0.05649
G1 X101.337 Y71.878 E0.31030
G1 X101.337 Y75.287 E0.05649
G1 X101.232 Y75.556 E0.00478
G1 X100.858 Y75.929 E0.00875
G1 X100.589 Y76.034 E0.00478
G1 X98.753 Y76.034 E0.03044
G1 X98.502 Y75.932 E0.00449
G1 X98.157 Y75.620 E0.00770
G1 X98.031 Y75.380 E0.00450
G1 X97.953 Y74.547 E0.01385
G1 X97.953 Y60.717 E0.22916
G1 X98.068 Y60.452 E0.00478
G1 X98.460 Y60.071 E0.00906
G1 X98.700 Y59.985 E0.00423
G1 X99.544 Y59.985 E0.01399
G1 X99.544 Y57.774 E0.03664
G1 X99.649 Y57.505 E0.00478
G1 X100.023 Y57.131 E0.00875
G1 X100.291 Y57.026 E0.00478
G1 X102.444 Y57.026 E0.03567
G1 X102.709 Y57.142 E0.00478
G1 X103.145 Y57.578 E0.01022
G1 X118.196 Y57.578 E0.24939
G1 E-0.35000 F2700.000
;WIPE_START
G1 F7200.000
G1 X118.496 Y57.314 E-0.14250
;WIPE_END
G1 E-0.00750 F2700.000
G1 Z0.600 F9000.000
G1 X102.844 Y57.977
G1 Z0.100
G1 E0.50000 F2400.000
G1 F1200.000
G1 X118.557 Y57.977 E0.26035
G1 X118.653 Y57.745 E0.00417
G1 X118.942 Y57.455 E0.00678
G1 X119.016 Y57.425 E0.00131
G1 X121.065 Y57.425 E0.03396
G1 X121.138 Y57.455 E0.00131
G1 X121.428 Y57.745 E0.00678
G1 X121.458 Y57.818 E0.00131
G1 X121.458 Y60.383 E0.04251
G1 X122.657 Y60.383 E0.01986
G1 X122.730 Y60.413 E0.00131
G1 X123.019 Y60.703 E0.00678
G1 X123.050 Y60.776 E0.00131
G1 X123.050 Y74.538 E0.22802
G1 X122.978 Y75.286 E0.01246
G1 X122.945 Y75.352 E0.00123
G1 X122.662 Y75.609 E0.00633
G1 X122.593 Y75.636 E0.00123
G1 X120.856 Y75.636 E0.02878
G1 X120.782 Y75.605 E0.00131
G1 X120.493 Y75.316 E0.00678
G1 X120.463 Y75.243 E0.00131
G1 X120.463 Y71.479 E0.06236
G1 X100.938 Y71.479 E0.32351
G1 X100.938 Y75.243 E0.06236
G1 X100.908 Y75.316 E0.00131
G1 X100.618 Y75.605 E0.00678
G1 X100.545 Y75.636 E0.00131
G1 X98.808 Y75.636 E0.02878
G1 X98.739 Y75.609 E0.00123
G1 X98.456 Y75.352 E0.00633
G1 X98.423 Y75.286 E0.00123
G1 X98.351 Y74.538 E0.01246
G1 X98.351 Y60.776 E0.22802
G1 X98.381 Y60.703 E0.00131
G1 X98.671 Y60.413 E0.00678
G1 X98.744 Y60.383 E0.00131
G1 X99.943 Y60.383 E0.01986
G1 X99.943 Y57.818 E0.04251
G1 X99.973 Y57.745 E0.00131
G1 X100.262 Y57.455 E0.00678
G1 X100.336 Y57.425 E0.00131
G1 X102.385 Y57.425 E0.03396
G1 X102.458 Y57.455 E0.00131
G1 X102.748 Y57.745 E0.00678
G1 X102.821 Y57.921 E0.00317
G1 X102.380 Y57.940 F9000.000
G1 F1200.000
G1 X102.380 Y58.375 E0.00721
G1 X119.021 Y58.375 E0.27574
G1 X119.021 Y57.940 E0.00721
G1 X119.138 Y57.823 E0.00274
G1 X120.943 Y57.823 E0.02991
G1 X121.060 Y57.940 E0.00274
G1 X121.060 Y60.782 E0.04708
G1 X122.534 Y60.782 E0.02444
