; generated by PrusaSlicer 2.3.0-rc2+ on 2021-01-23 at 08:31:48 UTC

; 

; external perimeters extrusion width = 0.45mm
; perimeters extrusion width = 0.45mm
; infill extrusion width = 0.45mm
; solid infill extrusion width = 0.45mm
; top infill extrusion width = 0.40mm
; support material extrusion width = 0.38mm
; first layer extrusion width = 0.42mm

M201 X500 Y500 Z100 E5000 ; sets maximum accelerations, mm/sec^2
M203 X500 Y500 Z10 E60 ; sets maximum feedrates, mm/sec
M204 P500 R1000 T500 ; sets acceleration (P, T) and retract acceleration (R), mm/sec^2
M205 X8.00 Y8.00 Z0.40 E5.00 ; sets the jerk limits, mm/sec
M205 S0 T0 ; sets the minimum extruding and travel feed rate, mm/sec
M107
M190 S70 ; set bed temperature and wait for it to be reached
M104 S200 ; set temperature
;TYPE:Custom
G28 ; Home
M109 S200 ; set temperature and wait for it to be reached
G21 ; set units to millimeters
G90 ; use absolute coordinates
M83 ; use relative distances for extrusion
; Filament gcode
;LAYER_CHANGE
;Z:0.1
;HEIGHT:0.1
;BEFORE_LAYER_CHANGE
;0.1


G1 E-5.00000 F3600.000
G1 Z0.500 F9000.000
;AFTER_LAYER_CHANGE
;0.1
G1 X77.338 Y46.095
G1 Z0.100
G1 E5.00000 F2400.000
;TYPE:Skirt
;WIDTH:0.42
G1 F1200.000
G1 X78.718 Y44.202 E0.03881
G1 X79.830 Y42.980 E0.02739
G1 X80.666 Y42.190 E0.01904
G1 X81.594 Y41.421 E0.01997
G1 X82.929 Y40.477 E0.02711
G1 X84.995 Y39.328 E0.03917
G1 X86.511 Y38.690 E0.02724
G1 X87.649 Y38.310 E0.01989
G1 X88.762 Y38.018 E0.01906
G1 X90.375 Y37.722 E0.02717
G1 X92.703 Y37.548 E0.03869
G1 X94.602 Y37.624 E0.03149
G1 X96.556 Y37.911 E0.03273
G1 X98.469 Y38.405 E0.03273
G1 X100.237 Y39.067 E0.03128
G1 X144.663 Y59.275 E0.80869
G1 X145.380 Y59.669 E0.01356
G1 X148.118 Y61.473 E0.05433
G1 X148.900 Y62.083 E0.01645
G1 X149.936 Y63.298 E0.02644
G1 X150.638 Y64.731 E0.02644
G1 X150.891 Y65.716 E0.01686
G1 X150.984 Y66.729 E0.01686
G1 X150.985 Y92.225 E0.42244
G1 X150.849 Y93.497 E0.02119
G1 X150.464 Y94.716 E0.02119
G1 X150.096 Y95.440 E0.01345
G1 X149.640 Y96.111 E0.01345
G1 X126.462 Y125.625 E0.62180
G1 X125.850 Y126.276 E0.01480
G1 X125.159 Y126.831 E0.01469
G1 X124.397 Y127.285 E0.01469
G1 X123.581 Y127.630 E0.01469
G1 X122.582 Y127.884 E0.01707
G1 X121.556 Y127.974 E0.01707
G1 X98.454 Y127.975 E0.38278
G1 X97.177 Y127.838 E0.02129
G1 X63.726 Y118.203 E0.57680
G1 X62.452 Y117.571 E0.02356
G1 X61.349 Y116.674 E0.02356
G1 X60.468 Y115.550 E0.02366
G1 X59.860 Y114.264 E0.02356
G1 X59.606 Y113.266 E0.01707
G1 X59.515 Y112.240 E0.01707
G1 X59.515 Y94.458 E0.29464
G1 X59.700 Y92.992 E0.02449
G1 X60.388 Y90.783 E0.03834
G1 X75.980 Y48.652 E0.74436
G1 X76.488 Y47.579 E0.01966
G1 X77.308 Y46.147 E0.02735
G1 E-3.50000 F3600.000
;WIPE_START
G1 F7200.000
G1 X78.718 Y44.202 E-1.14098
G1 X79.121 Y43.760 E-0.28402
;WIPE_END
G1 E-0.07500 F3600.000
G1 Z0.600 F9000.000
G1 X117.777 Y120.010
G1 Z0.100
G1 E5.00000 F2400.000
G1 F1200.000
G1 X102.228 Y120.010 E0.25763
G1 X102.201 Y122.145 E0.03537
G1 X102.027 Y122.672 E0.00920
G1 X101.800 Y123.057 E0.00740
G1 X101.172 Y123.697 E0.01485
G1 X100.788 Y123.938 E0.00751
G1 X100.024 Y124.167 E0.01322
G1 X98.085 Y124.160 E0.03213
G1 X97.471 Y123.991 E0.01054
G1 X96.991 Y123.712 E0.00920
G1 X96.453 Y123.214 E0.01214
G1 X96.068 Y122.578 E0.01232
G1 X95.944 Y122.142 E0.00753
G1 X95.851 Y121.123 E0.01695
G1 X95.855 Y92.587 E0.47282
G1 X95.988 Y92.008 E0.00983
G1 X96.316 Y91.409 E0.01132
G1 X97.012 Y90.734 E0.01607
G1 X97.364 Y90.539 E0.00666
G1 X98.066 Y90.341 E0.01208
G1 X121.943 Y90.345 E0.39563
G1 X122.412 Y90.448 E0.00795
G1 X122.885 Y90.667 E0.00865
G1 X123.641 Y91.353 E0.01691
G1 X124.012 Y92.009 E0.01249
G1 X124.145 Y92.587 E0.00982
G1 X124.149 Y121.123 E0.47284
G1 X124.019 Y122.322 E0.01998
G1 X123.899 Y122.655 E0.00586
G1 X123.678 Y123.048 E0.00746
G1 X122.839 Y123.832 E0.01904
G1 X122.369 Y124.053 E0.00860
G1 X122.012 Y124.147 E0.00612
G1 X119.983 Y124.167 E0.03361
G1 X119.178 Y123.923 E0.01394
G1 X118.803 Y123.677 E0.00743
G1 X118.224 Y123.090 E0.01366
G1 X117.980 Y122.688 E0.00779
G1 X117.805 Y122.171 E0.00904
G1 X117.778 Y120.070 E0.03482
G1 X118.170 Y119.612 F9000.000
G1 F1200.000
G1 X101.832 Y119.612 E0.27072
G1 X101.812 Y122.050 E0.04041
G1 X101.656 Y122.526 E0.00829
G1 X101.472 Y122.831 E0.00590
G1 X100.936 Y123.375 E0.01267
G1 X100.642 Y123.566 E0.00581
G1 X99.992 Y123.768 E0.01127
G1 X98.164 Y123.768 E0.03029
G1 X97.603 Y123.614 E0.00965
G1 X97.243 Y123.403 E0.00691
G1 X96.776 Y122.979 E0.01044
G1 X96.443 Y122.439 E0.01052
G1 X96.339 Y122.085 E0.00611
G1 X96.250 Y121.113 E0.01617
G1 X96.254 Y92.608 E0.47232
G1 X96.351 Y92.175 E0.00736
G1 X96.650 Y91.627 E0.01034
G1 X97.232 Y91.068 E0.01337
G1 X97.501 Y90.914 E0.00513
G1 X98.095 Y90.739 E0.01027
G1 X121.919 Y90.743 E0.39475
G1 X122.299 Y90.831 E0.00646
G1 X122.686 Y91.014 E0.00708
G1 X123.345 Y91.623 E0.01487
G1 X123.649 Y92.175 E0.01044
G1 X123.746 Y92.608 E0.00736
G1 X123.750 Y121.113 E0.47231
G1 X123.635 Y122.213 E0.01832
G1 X123.542 Y122.475 E0.00461
G1 X123.346 Y122.826 E0.00666
G1 X122.641 Y123.484 E0.01598
G1 X122.218 Y123.683 E0.00775
G1 X121.938 Y123.754 E0.00478
G1 X120.011 Y123.768 E0.03192
G1 X119.369 Y123.572 E0.01112
G1 X119.070 Y123.381 E0.00589
G1 X118.524 Y122.827 E0.01288
G1 X118.348 Y122.534 E0.00567
G1 X118.203 Y122.131 E0.00709
G1 X118.171 Y119.672 E0.04076
G1 X118.567 Y119.213 F9000.000
G1 F1200.000
G1 X101.434 Y119.213 E0.28387
G1 X101.424 Y121.956 E0.04545
G1 X101.285 Y122.377 E0.00735
G1 X101.147 Y122.600 E0.00435
G1 X100.694 Y123.058 E0.01066
G1 X100.489 Y123.198 E0.00412
G1 X99.960 Y123.370 E0.00922
G1 X98.193 Y123.370 E0.02926
G1 X97.739 Y123.239 E0.00783
G1 X97.496 Y123.094 E0.00468
G1 X97.067 Y122.705 E0.00961
G1 X96.799 Y122.259 E0.00862
G1 X96.734 Y122.031 E0.00392
G1 X96.649 Y121.104 E0.01542
G1 X96.653 Y92.629 E0.47182
G1 X96.716 Y92.335 E0.00498
G1 X96.952 Y91.889 E0.00836
G1 X97.456 Y91.397 E0.01167
G1 X97.643 Y91.287 E0.00359
G1 X98.126 Y91.138 E0.00838
G1 X121.896 Y91.142 E0.39385
G1 X122.148 Y91.200 E0.00428
G1 X122.486 Y91.360 E0.00620
G1 X123.047 Y91.888 E0.01275
G1 X123.284 Y92.335 E0.00838
G1 X123.347 Y92.629 E0.00498
G1 X123.351 Y121.104 E0.47181
G1 X123.250 Y122.107 E0.01671
G1 X123.185 Y122.297 E0.00333
G1 X123.013 Y122.604 E0.00583
G1 X122.443 Y123.137 E0.01293
G1 X122.067 Y123.314 E0.00688
G1 X121.868 Y123.362 E0.00339
G1 X120.041 Y123.369 E0.03029
G1 X119.557 Y123.220 E0.00838
G1 X119.337 Y123.083 E0.00430
G1 X118.825 Y122.565 E0.01206
G1 X118.716 Y122.382 E0.00353
G1 X118.590 Y122.029 E0.00622
G1 X118.567 Y119.273 E0.04566
G1 X118.964 Y118.815 F9000.000
G1 F1200.000
G1 X101.035 Y118.815 E0.29708
G1 X101.035 Y121.862 E0.05050
G1 X100.915 Y122.226 E0.00635
G1 X100.826 Y122.363 E0.00270
G1 X100.424 Y122.765 E0.00942
G1 X100.329 Y122.831 E0.00192
G1 X99.925 Y122.971 E0.00709
G1 X98.225 Y122.971 E0.02816
G1 X97.881 Y122.866 E0.00595
G1 X97.750 Y122.787 E0.00254
G1 X97.357 Y122.430 E0.00880
G1 X97.173 Y122.120 E0.00596
G1 X97.129 Y121.973 E0.00255
G1 X97.047 Y121.095 E0.01461
G1 X97.051 Y92.649 E0.47133
G1 X97.085 Y92.489 E0.00270
G1 X97.257 Y92.148 E0.00633
G1 X97.687 Y91.723 E0.01003
G1 X97.794 Y91.657 E0.00207
G1 X98.160 Y91.537 E0.00639
G1 X121.873 Y91.540 E0.39291
G1 X121.997 Y91.569 E0.00210
G1 X122.285 Y91.706 E0.00529
G1 X122.743 Y92.149 E0.01056
G1 X122.915 Y92.489 E0.00632
G1 X122.949 Y92.649 E0.00270
G1 X122.953 Y121.094 E0.47133
G1 X122.864 Y122.007 E0.01519
G1 X122.827 Y122.121 E0.00199
G1 X122.681 Y122.382 E0.00497
G1 X122.246 Y122.790 E0.00987
G1 X121.920 Y122.943 E0.00596
G1 X121.806 Y122.968 E0.00194
G1 X120.074 Y122.971 E0.02870
G1 X119.710 Y122.852 E0.00634
G1 X119.574 Y122.763 E0.00269
G1 X119.151 Y122.335 E0.00997
G1 X119.084 Y122.226 E0.00211
G1 X118.977 Y121.927 E0.00527
G1 X118.965 Y118.875 E0.05057
G1 X119.364 Y118.416 F9000.000
G1 F1200.000
G1 X100.636 Y118.416 E0.31030
G1 X100.636 Y121.825 E0.05649
G1 X100.531 Y122.094 E0.00478
G1 X100.158 Y122.467 E0.00875
G1 X99.889 Y122.572 E0.00478
G1 X98.260 Y122.572 E0.02700
G1 X98.005 Y122.480 E0.00449
G1 X97.650 Y122.158 E0.00794
G1 X97.524 Y121.918 E0.00450
G1 X97.446 Y121.085 E0.01385
G1 X97.450 Y92.667 E0.47087
G1 X97.565 Y92.403 E0.00478
G1 X97.928 Y92.040 E0.00850
G1 X98.197 Y91.935 E0.00478
G1 X121.818 Y91.935 E0.39139
G1 X122.082 Y92.051 E0.00478
G1 X122.435 Y92.403 E0.00825
G1 X122.550 Y92.667 E0.00478
G1 X122.554 Y121.085 E0.47087
G1 X122.467 Y121.949 E0.01438
G1 X122.350 Y122.158 E0.00397
G1 X122.005 Y122.470 E0.00770
G1 X121.754 Y122.572 E0.00449
G1 X120.111 Y122.572 E0.02723
G1 X119.842 Y122.467 E0.00478
G1 X119.450 Y122.065 E0.00931
G1 X119.364 Y121.825 E0.00423
G1 X119.364 Y118.476 E0.05549
G1 X119.762 Y118.018 F9000.000
G1 F1200.000
G1 X100.238 Y118.018 E0.32351
G1 X100.238 Y121.781 E0.06236
G1 X100.207 Y121.854 E0.00131
G1 X99.918 Y122.144 E0.00678
G1 X99.845 Y122.174 E0.00131
G1 X98.301 Y122.174 E0.02558
G1 X98.232 Y122.147 E0.00123
G1 X97.949 Y121.891 E0.00633
G1 X97.916 Y121.824 E0.00123
G1 X97.844 Y121.076 E0.01246
G1 X97.848 Y92.727 E0.46973
G1 X97.878 Y92.653 E0.00131
G1 X98.168 Y92.364 E0.00678
G1 X98.241 Y92.334 E0.00131
G1 X121.759 Y92.334 E0.38967
G1 X121.832 Y92.364 E0.00131
G1 X122.122 Y92.653 E0.00678
G1 X122.152 Y92.727 E0.00131
G1 X122.156 Y121.076 E0.46973
G1 X122.084 Y121.824 E0.01246
G1 X122.051 Y121.891 E0.00123
G1 X121.768 Y122.147 E0.00633
G1 X121.699 Y122.174 E0.00123
G1 X120.155 Y122.174 E0.02558
G1 X120.082 Y122.144 E0.00131
G1 X119.793 Y121.854 E0.00678
G1 X119.762 Y121.781 E0.00131
G1 X119.762 Y118.078 E0.06136
G1 X120.161 Y117.619 F9000.000
G1 F1200.000
G1 X99.839 Y117.619 E0.33671
G1 X99.839 Y121.659 E0.06693
G1 X99.723 Y121.775 E0.00274
G1 X98.415 Y121.775 E0.02166
G1 X98.301 Y121.672 E0.00255
G1 X98.243 Y121.066 E0.01009
G1 X98.247 Y92.849 E0.46754
G1 X98.363 Y92.732 E0.00274
G1 X121.637 Y92.732 E0.38562
G1 X121.753 Y92.849 E0.00274
G1 X121.757 Y121.066 E0.46754
G1 X121.699 Y121.672 E0.01009
G1 X121.585 Y121.775 E0.00255
G1 X120.277 Y121.775 E0.02166
G1 X120.161 Y121.659 E0.00274
G1 X120.161 Y117.679 E0.06594
G1 E-3.50000 F3600.000
;WIPE_START
G1 F7200.000
G1 X117.161 Y117.670 E-1.42500
;WIPE_END
G1 E-0.07500 F3600.000
G1 Z0.600 F9000.000
G1 X102.997 Y69.211
G1 Z0.100
G1 E5.00000 F2400.000
G1 F1200.000
G1 X103.281 Y69.398 E0.00564
G1 X103.831 Y68.794 E0.01353
G1 X104.309 Y68.442 E0.00984
G1 X104.909 Y68.189 E0.01079
G1 X105.408 Y68.103 E0.00837
G1 X128.516 Y68.103 E0.38289
G1 X129.164 Y68.215 E0.01090
G1 X129.176 Y66.880 E0.02212
G1 X129.299 Y66.353 E0.00897
G1 X129.711 Y65.399 E0.01721
G1 X130.168 Y64.837 E0.01200
G1 X130.725 Y64.430 E0.01143
G1 X131.561 Y64.079 E0.01502
G1 X132.293 Y63.932 E0.01238
G1 X138.240 Y63.932 E0.09854
G1 X138.579 Y63.393 E0.01056
G1 X139.212 Y62.848 E0.01383
G1 X139.582 Y62.648 E0.00697
G1 X140.248 Y62.477 E0.01140
G1 X142.224 Y62.486 E0.03274
G1 X143.161 Y62.775 E0.01623
G1 X146.247 Y64.806 E0.06121
G1 X146.648 Y65.220 E0.00956
G1 X146.976 Y65.782 E0.01078
G1 X147.157 Y66.407 E0.01078
G1 X147.141 Y68.819 E0.03997
G1 X146.966 Y69.337 E0.00906
G1 X146.782 Y69.660 E0.00615
G1 X146.109 Y70.355 E0.01603
G1 X145.516 Y70.679 E0.01121
G1 X145.073 Y70.799 E0.00759
G1 X135.978 Y70.815 E0.15071
G1 X135.978 Y73.908 E0.05125
G1 X138.129 Y73.918 E0.03565
G1 X138.699 Y74.035 E0.00964
G1 X139.566 Y74.397 E0.01558
G1 X140.191 Y74.888 E0.01316
G1 X140.533 Y75.329 E0.00925
G1 X140.929 Y76.226 E0.01624
G1 X141.077 Y76.961 E0.01242
G1 X141.077 Y82.035 E0.08408
G1 X140.932 Y82.763 E0.01229
G1 X140.630 Y83.492 E0.01309
G1 X140.250 Y84.045 E0.01111
G1 X139.692 Y84.522 E0.01217
G1 X138.707 Y84.957 E0.01785
G1 X138.170 Y85.074 E0.00910
G1 X135.978 Y85.083 E0.03633
G1 X135.978 Y88.180 E0.05131
G1 X144.931 Y88.181 E0.14835
G1 X145.506 Y88.312 E0.00976
G1 X146.104 Y88.637 E0.01128
G1 X146.723 Y89.258 E0.01453
G1 X146.969 Y89.665 E0.00787
G1 X147.142 Y90.182 E0.00905
G1 X147.177 Y92.429 E0.03722
G1 X147.002 Y93.151 E0.01232
G1 X146.689 Y93.719 E0.01075
G1 X146.219 Y94.214 E0.01131
G1 X143.221 Y96.190 E0.05949
G1 X142.517 Y96.459 E0.01249
G1 X140.263 Y96.520 E0.03736
G1 X139.583 Y96.348 E0.01162
G1 X139.212 Y96.147 E0.00699
G1 X138.579 Y95.603 E0.01383
G1 X138.240 Y95.063 E0.01055
G1 X132.293 Y95.063 E0.09854
G1 X131.566 Y94.919 E0.01229
G1 X130.770 Y94.589 E0.01427
G1 X130.207 Y94.196 E0.01138
G1 X129.674 Y93.534 E0.01409
G1 X129.291 Y92.620 E0.01641
G1 X129.164 Y92.010 E0.01032
G1 X129.159 Y89.714 E0.03805
G1 X123.942 Y89.706 E0.08644
G1 X123.329 Y89.580 E0.01036
G1 X122.435 Y89.205 E0.01606
G1 X121.814 Y88.715 E0.01311
G1 X121.382 Y88.110 E0.01232
G1 X121.061 Y87.335 E0.01389
G1 X120.917 Y86.608 E0.01229
G1 X120.917 Y76.088 E0.17430
G1 X108.277 Y76.088 E0.20942
G1 X108.013 Y76.139 E0.00446
G1 X104.791 Y76.131 E0.05338
G1 X104.141 Y75.939 E0.01124
G1 X103.638 Y75.623 E0.00985
G1 X103.047 Y75.002 E0.01420
G1 X102.704 Y74.285 E0.01317
G1 X102.637 Y73.883 E0.00674
G1 X102.637 Y70.771 E0.05157
G1 X102.322 Y70.703 E0.00533
G1 X92.166 Y93.175 E0.40860
G1 X92.481 Y94.347 E0.02011
G1 X92.481 Y112.534 E0.30135
G1 X92.349 Y113.112 E0.00981
G1 X91.990 Y113.753 E0.01218
G1 X91.477 Y114.266 E0.01203
G1 X91.026 Y114.558 E0.00890
G1 X90.269 Y114.780 E0.01306
G1 X65.568 Y114.780 E0.40928
G1 X64.991 Y114.648 E0.00980
G1 X64.350 Y114.290 E0.01217
G1 X63.812 Y113.752 E0.01261
G1 X63.454 Y113.110 E0.01218
G1 X63.322 Y112.531 E0.00984
G1 X63.387 Y93.916 E0.30845
G1 X63.955 Y92.117 E0.03124
G1 X79.205 Y50.830 E0.72928
G1 X79.486 Y50.138 E0.01237
G1 X79.807 Y49.451 E0.01256
G1 X80.186 Y48.742 E0.01331
G1 X80.675 Y47.947 E0.01548
G1 X81.081 Y47.359 E0.01183
G1 X81.520 Y46.789 E0.01192
G1 X82.137 Y46.076 E0.01562
G1 X82.632 Y45.563 E0.01181
G1 X83.156 Y45.072 E0.01190
G1 X83.823 Y44.511 E0.01444
G1 X84.519 Y43.994 E0.01436
G1 X85.110 Y43.601 E0.01177
G1 X85.730 Y43.233 E0.01194
G1 X86.566 Y42.798 E0.01562
G1 X87.229 Y42.499 E0.01204
G1 X87.889 Y42.240 E0.01175
G1 X88.746 Y41.957 E0.01496
G1 X89.482 Y41.760 E0.01262
G1 X90.178 Y41.611 E0.01180
G1 X91.034 Y41.474 E0.01436
G1 X91.901 Y41.389 E0.01445
G1 X92.619 Y41.357 E0.01190
G1 X93.332 Y41.361 E0.01181
G1 X94.262 Y41.417 E0.01545
G1 X95.054 Y41.513 E0.01321
G1 X95.843 Y41.652 E0.01327
G1 X96.604 Y41.829 E0.01295
G1 X97.353 Y42.047 E0.01293
G1 X98.100 Y42.307 E0.01311
G1 X98.822 Y42.603 E0.01292
G1 X99.527 Y42.938 E0.01293
G1 X100.213 Y43.309 E0.01293
G1 X100.879 Y43.717 E0.01293
G1 X101.523 Y44.160 E0.01296
G1 X102.157 Y44.649 E0.01326
G1 X102.761 Y45.170 E0.01322
G1 X103.430 Y45.820 E0.01546
G1 X103.914 Y46.345 E0.01184
G1 X104.419 Y46.954 E0.01310
G1 X104.891 Y47.589 E0.01312
G1 X105.322 Y48.240 E0.01293
G1 X105.712 Y48.903 E0.01275
G1 X106.076 Y49.605 E0.01310
G1 X106.398 Y50.315 E0.01292
G1 X106.680 Y51.040 E0.01288
G1 X106.966 Y51.922 E0.01537
G1 X107.168 Y52.696 E0.01325
G1 X107.326 Y53.478 E0.01322
G1 X107.439 Y54.243 E0.01281
G1 X107.511 Y55.009 E0.01275
G1 X107.543 Y55.777 E0.01274
G1 X107.534 Y56.557 E0.01292
G1 X107.482 Y57.346 E0.01311
G1 X107.388 Y58.132 E0.01312
G1 X107.251 Y58.911 E0.01311
G1 X107.087 Y59.620 E0.01205
G1 X106.833 Y60.504 E0.01525
G1 X106.579 Y61.223 E0.01263
G1 X106.292 Y61.918 E0.01245
G1 X103.021 Y69.156 E0.13161
G1 E-3.50000 F3600.000
;WIPE_START
G1 F7200.000
G1 X103.281 Y69.398 E-0.16849
G1 X103.831 Y68.794 E-0.38783
G1 X104.309 Y68.442 E-0.28220
G1 X104.909 Y68.189 E-0.30942
G1 X105.408 Y68.103 E-0.24007
G1 X105.485 Y68.103 E-0.03699
;WIPE_END
G1 E-0.07500 F3600.000
G1 Z0.600 F9000.000
G1 X91.744 Y93.143
G1 Z0.100
G1 E5.00000 F2400.000
G1 F1200.000
G1 X92.083 Y94.375 E0.02117
G1 X92.082 Y112.513 E0.30054
G1 X91.985 Y112.947 E0.00736
G1 X91.688 Y113.492 E0.01029
G1 X91.211 Y113.968 E0.01116
G1 X90.836 Y114.206 E0.00736
G1 X90.241 Y114.381 E0.01028
G1 X65.590 Y114.381 E0.40845
G1 X65.156 Y114.285 E0.00736
G1 X64.611 Y113.987 E0.01029
G1 X64.115 Y113.491 E0.01163
G1 X63.817 Y112.946 E0.01030
G1 X63.721 Y112.510 E0.00738
G1 X63.777 Y94.007 E0.30660
G1 X64.331 Y92.251 E0.03051
G1 X79.578 Y50.971 E0.72915
G1 X79.853 Y50.293 E0.01213
G1 X80.166 Y49.625 E0.01222
G1 X80.534 Y48.936 E0.01295
G1 X81.006 Y48.169 E0.01492
G1 X81.400 Y47.598 E0.01149
G1 X81.832 Y47.037 E0.01174
