; generated by PrusaSlicer 2.3.0-rc2+ on 2021-01-27 at 06:31:11 UTC

; 

; external perimeters extrusion width = 0.45mm
; perimeters extrusion width = 0.45mm
; infill extrusion width = 0.45mm
; solid infill extrusion width = 0.45mm
; top infill extrusion width = 0.40mm
; support material extrusion width = 0.38mm
; first layer extrusion width = 0.42mm

M201 X500 Y500 Z100 E5000 ; sets maximum accelerations, mm/sec^2
M203 X500 Y500 Z10 E60 ; sets maximum feedrates, mm/sec
M204 P500 R1000 T500 ; sets acceleration (P, T) and retract acceleration (R), mm/sec^2
M205 X8.00 Y8.00 Z0.40 E5.00 ; sets the jerk limits, mm/sec
M205 S0 T0 ; sets the minimum extruding and travel feed rate, mm/sec
M107
M190 S80 ; set bed temperature and wait for it to be reached
M104 S215 ; set temperature
;TYPE:Custom
G28 ; Home
M109 S215 ; set temperature and wait for it to be reached
G21 ; set units to millimeters
G90 ; use absolute coordinates
M83 ; use relative distances for extrusion
; Filament gcode
;LAYER_CHANGE
;Z:0.1
;HEIGHT:0.1
;BEFORE_LAYER_CHANGE
;0.1


G1 E-0.50000 F2700.000
G1 Z0.500 F9000.000
;AFTER_LAYER_CHANGE
;0.1
G1 X109.858 Y90.159
G1 Z0.100
G1 E0.50000 F2400.000
;TYPE:Skirt
;WIDTH:0.42
G1 F1200.000
G1 X127.958 Y68.104 E0.47275
G1 X128.832 Y67.247 E0.02028
G1 X129.747 Y66.516 E0.01940
G1 X130.718 Y65.885 E0.01919
G1 X131.853 Y65.306 E0.02111
G1 X132.950 Y64.882 E0.01949
G1 X134.405 Y64.500 E0.02492
G1 X135.630 Y64.325 E0.02050
G1 X136.740 Y64.279 E0.01841
G1 X138.885 Y64.487 E0.03570
G1 X140.838 Y65.036 E0.03362
G1 X142.743 Y65.953 E0.03504
G1 X144.193 Y66.972 E0.02936
G1 X145.622 Y68.361 E0.03303
G1 X146.882 Y70.113 E0.03575
G1 X147.785 Y72.015 E0.03489
G1 X148.111 Y73.034 E0.01773
G1 X148.351 Y74.125 E0.01851
G1 X148.521 Y76.131 E0.03335
G1 X148.516 Y117.375 E0.68339
G1 X148.360 Y119.064 E0.02811
G1 X148.025 Y120.509 E0.02457
G1 X147.405 Y122.140 E0.02892
G1 X146.642 Y123.521 E0.02614
G1 X145.708 Y124.785 E0.02604
G1 X144.760 Y125.780 E0.02278
G1 X143.750 Y126.622 E0.02179
G1 X142.338 Y127.527 E0.02778
G1 X90.828 Y154.584 E0.96406
G1 X89.077 Y155.205 E0.03080
G1 X87.722 Y155.516 E0.02303
G1 X85.880 Y155.713 E0.03069
G1 X84.328 Y155.687 E0.02572
G1 X82.549 Y155.444 E0.02975
G1 X80.733 Y154.941 E0.03123
G1 X79.321 Y154.354 E0.02533
G1 X77.720 Y153.450 E0.03047
G1 X76.667 Y152.684 E0.02156
G1 X75.486 Y151.620 E0.02634
G1 X74.646 Y150.694 E0.02072
G1 X73.905 Y149.709 E0.02042
G1 X73.256 Y148.664 E0.02039
G1 X72.548 Y147.214 E0.02674
G1 X72.100 Y145.984 E0.02168
G1 X71.781 Y144.755 E0.02104
G1 X71.540 Y143.170 E0.02657
G1 X71.478 Y141.860 E0.02173
G1 X71.539 Y140.591 E0.02105
G1 X71.777 Y139.028 E0.02618
G1 X72.110 Y137.743 E0.02201
G1 X72.535 Y136.574 E0.02061
G1 X73.031 Y135.513 E0.01940
G1 X73.876 Y134.094 E0.02737
G1 X74.615 Y133.102 E0.02049
G1 X109.820 Y90.205 E0.91949
G1 X110.128 Y90.458 F9000.000
G1 F1200.000
G1 X128.248 Y68.378 E0.47328
G1 X129.097 Y67.544 E0.01972
G1 X129.976 Y66.841 E0.01865
G1 X130.910 Y66.235 E0.01844
G1 X132.008 Y65.673 E0.02044
G1 X133.069 Y65.262 E0.01885
G1 X134.488 Y64.890 E0.02431
G1 X135.672 Y64.721 E0.01983
G1 X136.739 Y64.677 E0.01769
G1 X138.811 Y64.878 E0.03450
G1 X140.704 Y65.411 E0.03258
G1 X142.550 Y66.302 E0.03396
G1 X143.944 Y67.284 E0.02825
G1 X145.325 Y68.626 E0.03191
G1 X146.542 Y70.321 E0.03457
G1 X147.416 Y72.166 E0.03383
G1 X147.962 Y74.220 E0.03522
G1 X148.122 Y76.133 E0.03181
G1 X148.118 Y117.355 E0.68303
G1 X147.966 Y119.000 E0.02737
G1 X147.644 Y120.393 E0.02369
G1 X147.041 Y121.978 E0.02810
G1 X146.302 Y123.313 E0.02528
G1 X145.400 Y124.532 E0.02512
G1 X144.485 Y125.492 E0.02198
G1 X143.511 Y126.303 E0.02099
G1 X142.141 Y127.180 E0.02695
G1 X90.681 Y154.213 E0.96315
G1 X88.968 Y154.821 E0.03012
G1 X87.658 Y155.122 E0.02227
G1 X85.857 Y155.315 E0.03001
G1 X84.357 Y155.289 E0.02487
G1 X82.628 Y155.054 E0.02890
G1 X80.858 Y154.563 E0.03044
G1 X79.495 Y153.996 E0.02447
G1 X77.927 Y153.110 E0.02983
G1 X76.912 Y152.369 E0.02083
G1 X75.765 Y151.335 E0.02559
G1 X74.953 Y150.440 E0.02002
G1 X74.233 Y149.483 E0.01984
G1 X73.606 Y148.473 E0.01970
G1 X72.913 Y147.054 E0.02616
G1 X72.480 Y145.864 E0.02099
G1 X72.170 Y144.670 E0.02045
G1 X71.936 Y143.127 E0.02586
G1 X71.876 Y141.857 E0.02107
G1 X71.936 Y140.630 E0.02034
G1 X72.169 Y139.099 E0.02567
G1 X72.492 Y137.857 E0.02125
G1 X72.903 Y136.728 E0.01992
G1 X73.594 Y135.310 E0.02613
G1 X74.216 Y134.302 E0.01963
G1 X74.924 Y133.355 E0.01959
G1 X110.090 Y90.504 E0.91849
G1 X110.411 Y90.767 F9000.000
G1 F1200.000
G1 X128.538 Y68.651 E0.47382
G1 X129.358 Y67.846 E0.01904
G1 X130.206 Y67.167 E0.01801
G1 X131.107 Y66.581 E0.01781
G1 X132.169 Y66.038 E0.01976
G1 X133.194 Y65.641 E0.01821
G1 X134.570 Y65.279 E0.02358
G1 X135.708 Y65.118 E0.01904
G1 X136.738 Y65.076 E0.01707
G1 X138.769 Y65.276 E0.03381
G1 X140.669 Y65.823 E0.03277
G1 X142.474 Y66.721 E0.03340
G1 X143.977 Y67.836 E0.03102
G1 X145.115 Y68.997 E0.02693
G1 X146.257 Y70.626 E0.03296
G1 X147.057 Y72.346 E0.03143
G1 X147.577 Y74.331 E0.03401
G1 X147.723 Y76.135 E0.02998
G1 X147.719 Y117.361 E0.68309
G1 X147.567 Y118.973 E0.02683
G1 X147.230 Y120.379 E0.02395
G1 X146.621 Y121.934 E0.02768
G1 X145.758 Y123.410 E0.02832
G1 X144.968 Y124.424 E0.02130
G1 X144.126 Y125.280 E0.01990
G1 X142.951 Y126.213 E0.02487
G1 X141.928 Y126.843 E0.01990
G1 X90.510 Y153.853 E0.96237
G1 X88.823 Y154.449 E0.02964
G1 X87.483 Y154.747 E0.02274
G1 X85.709 Y154.922 E0.02953
G1 X83.947 Y154.853 E0.02922
G1 X82.516 Y154.621 E0.02402
G1 X80.878 Y154.147 E0.02825
G1 X79.641 Y153.623 E0.02226
G1 X78.136 Y152.770 E0.02867
G1 X77.162 Y152.058 E0.01999
G1 X76.039 Y151.046 E0.02505
G1 X75.256 Y150.181 E0.01932
G1 X74.561 Y149.257 E0.01916
G1 X73.955 Y148.282 E0.01902
G1 X73.281 Y146.901 E0.02547
G1 X72.860 Y145.744 E0.02040
G1 X72.560 Y144.584 E0.01985
G1 X72.332 Y143.083 E0.02515
G1 X72.275 Y141.854 E0.02040
G1 X72.332 Y140.670 E0.01964
G1 X72.560 Y139.175 E0.02505
G1 X72.874 Y137.972 E0.02061
G1 X73.273 Y136.875 E0.01933
G1 X73.947 Y135.494 E0.02546
G1 X74.555 Y134.511 E0.01916
G1 X110.373 Y90.814 E0.93618
G1 E-0.35000 F2700.000
;WIPE_START
G1 F7200.000
G1 X110.626 Y90.504 E-0.14250
;WIPE_END
G1 E-0.00750 F2700.000
G1 Z0.600 F9000.000
G1 X120.776 Y95.425
G1 Z0.100
G1 E0.50000 F2400.000
G1 F1200.000
G1 X130.003 Y73.311 E0.39704
G1 X130.281 Y72.726 E0.01072
G1 X130.595 Y72.192 E0.01027
G1 X130.989 Y71.641 E0.01122
G1 X131.472 Y71.089 E0.01215
G1 X132.019 Y70.581 E0.01238
G1 X132.482 Y70.221 E0.00972
G1 X133.048 Y69.858 E0.01114
G1 X133.695 Y69.526 E0.01204
G1 X134.233 Y69.308 E0.00964
G1 X134.859 Y69.115 E0.01085
G1 X135.446 Y68.989 E0.00994
G1 X136.036 Y68.912 E0.00986
G1 X136.911 Y68.888 E0.01450
G1 X137.554 Y68.937 E0.01069
G1 X138.204 Y69.047 E0.01093
G1 X138.843 Y69.216 E0.01094
G1 X139.463 Y69.442 E0.01094
G1 X140.061 Y69.724 E0.01094
G1 X140.629 Y70.059 E0.01093
G1 X141.150 Y70.432 E0.01063
G1 X141.650 Y70.863 E0.01094
G1 X142.097 Y71.325 E0.01064
G1 X142.511 Y71.839 E0.01094
G1 X142.868 Y72.373 E0.01065
G1 X143.184 Y72.953 E0.01094
G1 X143.446 Y73.559 E0.01093
G1 X143.651 Y74.186 E0.01094
G1 X143.796 Y74.812 E0.01064
G1 X143.885 Y75.464 E0.01092
G1 X143.915 Y76.132 E0.01108
G1 X143.914 Y117.220 E0.68080
G1 X143.882 Y117.821 E0.00997
G1 X143.798 Y118.422 E0.01005
G1 X143.664 Y119.013 E0.01004
G1 X143.478 Y119.601 E0.01023
G1 X143.135 Y120.393 E0.01430
G1 X142.849 Y120.904 E0.00970
G1 X142.521 Y121.394 E0.00977
G1 X142.036 Y121.990 E0.01274
G1 X141.658 Y122.376 E0.00895
G1 X141.244 Y122.739 E0.00913
G1 X140.676 Y123.158 E0.01169
G1 X140.071 Y123.518 E0.01167
G1 X89.606 Y150.068 E0.94484
G1 X89.044 Y150.338 E0.01033
G1 X88.381 Y150.599 E0.01181
G1 X87.720 Y150.804 E0.01146
G1 X86.849 Y150.992 E0.01476
G1 X86.233 Y151.075 E0.01030
G1 X85.537 Y151.118 E0.01156
G1 X84.885 Y151.110 E0.01080
G1 X84.234 Y151.056 E0.01082
G1 X83.544 Y150.947 E0.01158
G1 X82.870 Y150.788 E0.01147
G1 X82.022 Y150.509 E0.01480
G1 X81.452 Y150.270 E0.01023
G1 X80.831 Y149.955 E0.01154
G1 X80.273 Y149.618 E0.01080
G1 X79.747 Y149.247 E0.01067
G1 X79.130 Y148.737 E0.01325
G1 X78.561 Y148.176 E0.01324
G1 X78.161 Y147.718 E0.01008
G1 X77.797 Y147.241 E0.00995
G1 X77.368 Y146.579 E0.01307
G1 X76.985 Y145.861 E0.01348
G1 X76.745 Y145.313 E0.00991
G1 X76.537 Y144.740 E0.01010
G1 X76.328 Y143.990 E0.01290
G1 X76.192 Y143.292 E0.01179
G1 X76.103 Y142.490 E0.01337
G1 X76.083 Y141.880 E0.01011
G1 X76.103 Y141.282 E0.00992
G1 X76.185 Y140.511 E0.01283
G1 X76.332 Y139.747 E0.01290
G1 X76.533 Y139.031 E0.01231
G1 X76.739 Y138.459 E0.01008
G1 X76.981 Y137.908 E0.00996
G1 X77.358 Y137.197 E0.01334
G1 X77.785 Y136.535 E0.01306
G1 X78.153 Y136.050 E0.01008
G1 X78.551 Y135.596 E0.01001
G1 X79.126 Y135.025 E0.01342
G1 X116.338 Y101.585 E0.82895
G1 X116.933 Y101.026 E0.01353
G1 X117.482 Y100.461 E0.01305
G1 X118.007 Y99.873 E0.01305
G1 X118.504 Y99.262 E0.01305
G1 X118.974 Y98.630 E0.01305
G1 X119.413 Y97.981 E0.01297
G1 X119.874 Y97.221 E0.01474
G1 X120.209 Y96.617 E0.01145
G1 X120.560 Y95.911 E0.01306
G1 X120.751 Y95.480 E0.00782
G1 X121.116 Y95.641 F9000.000
G1 F1200.000
G1 X130.369 Y73.468 E0.39810
G1 X130.637 Y72.906 E0.01033
G1 X130.934 Y72.402 E0.00969
G1 X131.296 Y71.896 E0.01031
G1 X131.751 Y71.374 E0.01147
G1 X132.271 Y70.890 E0.01177
G1 X132.706 Y70.551 E0.00913
G1 X133.239 Y70.208 E0.01051
G1 X133.853 Y69.892 E0.01144
G1 X134.360 Y69.686 E0.00906
G1 X134.952 Y69.502 E0.01027
G1 X135.506 Y69.383 E0.00938
G1 X136.077 Y69.308 E0.00955
G1 X136.891 Y69.286 E0.01348
G1 X137.497 Y69.332 E0.01007
G1 X138.112 Y69.435 E0.01033
G1 X138.716 Y69.594 E0.01034
G1 X139.302 Y69.807 E0.01034
G1 X139.867 Y70.072 E0.01034
G1 X140.405 Y70.388 E0.01034
G1 X140.897 Y70.740 E0.01003
G1 X141.371 Y71.148 E0.01034
G1 X141.793 Y71.583 E0.01004
G1 X142.185 Y72.068 E0.01034
G1 X142.532 Y72.587 E0.01034
G1 X142.830 Y73.135 E0.01034
G1 X143.076 Y73.708 E0.01033
G1 X143.270 Y74.301 E0.01034
G1 X143.405 Y74.892 E0.01005
G1 X143.489 Y75.509 E0.01032
G1 X143.517 Y76.137 E0.01041
G1 X143.516 Y117.204 E0.68047
G1 X143.484 Y117.791 E0.00974
G1 X143.405 Y118.358 E0.00948
G1 X143.278 Y118.916 E0.00949
G1 X143.101 Y119.471 E0.00964
G1 X142.782 Y120.208 E0.01331
G1 X142.505 Y120.703 E0.00940
G1 X142.196 Y121.165 E0.00921
G1 X141.745 Y121.718 E0.01183
G1 X141.379 Y122.092 E0.00867
G1 X140.988 Y122.433 E0.00860
G1 X140.448 Y122.831 E0.01111
G1 X139.881 Y123.168 E0.01092
G1 X89.424 Y149.713 E0.94469
G1 X88.878 Y149.975 E0.01003
G1 X88.242 Y150.226 E0.01132
G1 X87.611 Y150.420 E0.01094
G1 X86.788 Y150.598 E0.01395
G1 X86.201 Y150.678 E0.00981
G1 X85.534 Y150.719 E0.01107
G1 X84.911 Y150.712 E0.01033
G1 X84.275 Y150.659 E0.01058
G1 X83.614 Y150.555 E0.01109
G1 X82.970 Y150.403 E0.01096
G1 X82.168 Y150.138 E0.01399
G1 X81.626 Y149.911 E0.00975
G1 X81.030 Y149.609 E0.01106
G1 X80.497 Y149.288 E0.01032
G1 X79.982 Y148.926 E0.01043
G1 X79.404 Y148.447 E0.01244
G1 X78.856 Y147.908 E0.01273
G1 X78.474 Y147.471 E0.00962
G1 X78.119 Y147.005 E0.00971
G1 X77.707 Y146.370 E0.01255
G1 X77.347 Y145.694 E0.01268
G1 X77.113 Y145.159 E0.00968
G1 X76.915 Y144.612 E0.00964
G1 X76.714 Y143.891 E0.01240
G1 X76.584 Y143.224 E0.01126
G1 X76.501 Y142.469 E0.01259
G1 X76.481 Y141.887 E0.00965
G1 X76.501 Y141.302 E0.00969
G1 X76.580 Y140.562 E0.01234
G1 X76.719 Y139.846 E0.01208
G1 X76.910 Y139.159 E0.01182
G1 X77.107 Y138.613 E0.00962
G1 X77.343 Y138.075 E0.00973
G1 X77.697 Y137.405 E0.01255
G1 X78.107 Y136.770 E0.01254
G1 X78.458 Y136.307 E0.00961
G1 X78.846 Y135.863 E0.00977
G1 X79.396 Y135.318 E0.01283
G1 X116.607 Y101.879 E0.82895
G1 X117.212 Y101.310 E0.01375
G1 X117.774 Y100.733 E0.01335
G1 X118.310 Y100.132 E0.01335
G1 X118.819 Y99.507 E0.01335
G1 X119.299 Y98.860 E0.01335
G1 X119.748 Y98.197 E0.01328
G1 X120.219 Y97.421 E0.01504
G1 X120.562 Y96.802 E0.01172
G1 X121.091 Y95.696 E0.02031
G1 X121.456 Y95.858 F9000.000
G1 F1200.000
G1 X130.735 Y73.626 E0.39916
G1 X130.993 Y73.085 E0.00994
G1 X131.273 Y72.612 E0.00910
G1 X131.603 Y72.150 E0.00941
G1 X132.031 Y71.658 E0.01080
G1 X132.523 Y71.198 E0.01117
G1 X132.930 Y70.881 E0.00854
G1 X133.430 Y70.557 E0.00988
G1 X134.012 Y70.257 E0.01085
G1 X134.486 Y70.064 E0.00849
G1 X135.045 Y69.890 E0.00969
G1 X135.582 Y69.774 E0.00910
G1 X136.118 Y69.705 E0.00897
G1 X136.871 Y69.684 E0.01248
G1 X137.441 Y69.727 E0.00946
G1 X138.020 Y69.823 E0.00974
G1 X138.589 Y69.972 E0.00974
G1 X139.141 Y70.171 E0.00974
G1 X139.674 Y70.421 E0.00974
G1 X140.181 Y70.718 E0.00974
G1 X140.645 Y71.049 E0.00944
G1 X141.091 Y71.432 E0.00974
G1 X141.500 Y71.854 E0.00974
G1 X141.869 Y72.311 E0.00974
G1 X142.195 Y72.800 E0.00974
G1 X142.475 Y73.317 E0.00974
G1 X142.706 Y73.856 E0.00972
G1 X142.888 Y74.415 E0.00974
G1 X143.014 Y74.971 E0.00945
G1 X143.093 Y75.553 E0.00973
G1 X143.118 Y76.141 E0.00975
G1 X143.117 Y117.189 E0.68014
G1 X143.088 Y117.745 E0.00923
G1 X143.014 Y118.278 E0.00891
G1 X142.891 Y118.819 E0.00920
G1 X142.725 Y119.340 E0.00905
G1 X142.429 Y120.023 E0.01233
G1 X142.170 Y120.488 E0.00882
G1 X141.870 Y120.935 E0.00892
G1 X141.453 Y121.446 E0.01093
G1 X141.111 Y121.797 E0.00813
G1 X140.732 Y122.127 E0.00832
G1 X140.220 Y122.504 E0.01053
G1 X139.691 Y122.818 E0.01018
G1 X89.241 Y149.359 E0.94455
G1 X88.712 Y149.613 E0.00972
G1 X88.103 Y149.852 E0.01084
G1 X87.502 Y150.037 E0.01042
G1 X86.726 Y150.204 E0.01315
G1 X86.169 Y150.280 E0.00933
G1 X85.531 Y150.320 E0.01058
G1 X84.923 Y150.313 E0.01009
G1 X84.315 Y150.263 E0.01010
G1 X83.684 Y150.162 E0.01060
G1 X83.070 Y150.017 E0.01045
G1 X82.315 Y149.768 E0.01318
G1 X81.799 Y149.552 E0.00926
G1 X81.230 Y149.264 E0.01057
G1 X80.709 Y148.950 E0.01008
G1 X80.218 Y148.605 E0.00994
G1 X79.665 Y148.146 E0.01191
G1 X79.151 Y147.640 E0.01194
G1 X78.787 Y147.224 E0.00917
G1 X78.441 Y146.769 E0.00947
G1 X78.046 Y146.160 E0.01203
G1 X77.709 Y145.527 E0.01188
G1 X77.480 Y145.006 E0.00944
G1 X77.292 Y144.484 E0.00919
G1 X77.100 Y143.792 E0.01190
G1 X76.977 Y143.157 E0.01072
G1 X76.899 Y142.448 E0.01181
G1 X76.880 Y141.880 E0.00941
G1 X76.899 Y141.324 E0.00923
G1 X76.976 Y140.613 E0.01184
G1 X77.108 Y139.930 E0.01153
G1 X77.288 Y139.287 E0.01106
G1 X77.480 Y138.755 E0.00938
G1 X77.705 Y138.242 E0.00927
G1 X78.037 Y137.614 E0.01178
G1 X78.430 Y137.004 E0.01202
G1 X78.771 Y136.554 E0.00937
G1 X79.141 Y136.131 E0.00931
G1 X79.666 Y135.611 E0.01224
G1 X116.877 Y102.172 E0.82894
G1 X117.491 Y101.595 E0.01397
G1 X118.066 Y101.005 E0.01364
G1 X118.613 Y100.390 E0.01364
G1 X119.133 Y99.752 E0.01364
G1 X119.624 Y99.091 E0.01364
G1 X120.084 Y98.412 E0.01359
G1 X120.564 Y97.621 E0.01533
G1 X120.915 Y96.987 E0.01200
G1 X121.432 Y95.912 E0.01976
G1 X121.796 Y96.074 F9000.000
G1 F1200.000
G1 X131.101 Y73.784 E0.40021
G1 X131.349 Y73.265 E0.00954
G1 X131.611 Y72.823 E0.00852
G1 X131.911 Y72.404 E0.00854
G1 X132.311 Y71.942 E0.01013
G1 X132.776 Y71.506 E0.01056
G1 X133.154 Y71.210 E0.00796
G1 X133.622 Y70.907 E0.00924
G1 X134.172 Y70.623 E0.01025
G1 X134.614 Y70.441 E0.00791
G1 X135.139 Y70.278 E0.00911
G1 X135.641 Y70.168 E0.00852
G1 X136.159 Y70.101 E0.00866
G1 X136.852 Y70.082 E0.01149
G1 X137.385 Y70.121 E0.00885
G1 X137.929 Y70.211 E0.00914
G1 X138.463 Y70.350 E0.00913
G1 X138.981 Y70.537 E0.00913
G1 X139.481 Y70.770 E0.00914
G1 X139.957 Y71.048 E0.00914
G1 X140.406 Y71.368 E0.00914
G1 X140.824 Y71.728 E0.00914
G1 X141.207 Y72.124 E0.00914
G1 X141.553 Y72.553 E0.00914
G1 X141.858 Y73.013 E0.00914
G1 X142.120 Y73.498 E0.00914
G1 X142.330 Y73.988 E0.00884
G1 X142.501 Y74.513 E0.00914
G1 X142.624 Y75.051 E0.00915
G1 X142.697 Y75.597 E0.00912
G1 X142.720 Y76.145 E0.00909
G1 X142.719 Y117.174 E0.67982
G1 X142.692 Y117.699 E0.00871
G1 X142.621 Y118.214 E0.00862
G1 X142.504 Y118.722 E0.00863
G1 X142.348 Y119.209 E0.00847
G1 X142.076 Y119.837 E0.01135
G1 X141.826 Y120.287 E0.00852
G1 X141.544 Y120.705 E0.00835
G1 X141.162 Y121.174 E0.01003
G1 X140.831 Y121.513 E0.00785
G1 X140.477 Y121.821 E0.00778
G1 X139.992 Y122.177 E0.00996
G1 X139.501 Y122.467 E0.00945
G1 X89.059 Y149.005 E0.94441
G1 X88.546 Y149.250 E0.00942
G1 X87.965 Y149.478 E0.01034
G1 X87.394 Y149.653 E0.00991
G1 X86.664 Y149.810 E0.01236
G1 X86.136 Y149.883 E0.00884
