; generated by PrusaSlicer 2.3.0-rc2+ on 2021-04-17 at 22:50:42 UTC

; 

; external perimeters extrusion width = 0.45mm
; perimeters extrusion width = 0.45mm
; infill extrusion width = 0.45mm
; solid infill extrusion width = 0.45mm
; top infill extrusion width = 0.40mm
; support material extrusion width = 0.40mm
; first layer extrusion width = 0.20mm

M201 X500 Y500 Z100 E5000 ; sets maximum accelerations, mm/sec^2
M203 X500 Y500 Z10 E60 ; sets maximum feedrates, mm/sec
M204 P500 R1000 T500 ; sets acceleration (P, T) and retract acceleration (R), mm/sec^2
M205 X8.00 Y8.00 Z0.40 E5.00 ; sets the jerk limits, mm/sec
M205 S0 T0 ; sets the minimum extruding and travel feed rate, mm/sec
M107
M190 S80 ; set bed temperature and wait for it to be reached
M104 S215 ; set temperature
;TYPE:Custom
G28 ; Home
M109 S215 ; set temperature and wait for it to be reached
G21 ; set units to millimeters
G90 ; use absolute coordinates
M83 ; use relative distances for extrusion
; Filament gcode
;LAYER_CHANGE
;Z:0.1
;HEIGHT:0.1
;BEFORE_LAYER_CHANGE
;0.1


G1 E-0.50000 F2700.000
G1 Z0.500 F9000.000
;AFTER_LAYER_CHANGE
;0.1
G1 X93.087 Y116.889
G1 Z0.100
G1 E0.50000 F2400.000
;TYPE:Skirt
;WIDTH:0.2
G1 F1200.000
G1 X94.059 Y116.309 E0.00840
G1 X129.476 Y99.163 E0.29208
G1 X130.525 Y98.835 E0.00816
G1 X131.614 Y98.682 E0.00816
G1 X138.006 Y98.671 E0.04745
G1 X139.229 Y98.784 E0.00911
G1 X140.410 Y99.118 E0.00911
G1 X141.510 Y99.661 E0.00911
G1 X142.489 Y100.392 E0.00906
G1 X143.323 Y101.292 E0.00911
G1 X143.976 Y102.324 E0.00906
G1 X144.433 Y103.463 E0.00911
G1 X144.676 Y104.666 E0.00911
G1 X144.687 Y130.222 E0.18970
G1 X144.404 Y131.632 E0.01067
G1 X143.828 Y132.949 E0.01067
G1 X142.985 Y134.113 E0.01067
G1 X141.913 Y135.071 E0.01067
G1 X141.208 Y135.513 E0.00617
G1 X140.454 Y135.864 E0.00617
G1 X139.663 Y136.120 E0.00617
G1 X138.840 Y136.276 E0.00622
G1 X131.919 Y136.329 E0.05137
G1 X96.588 Y134.766 E0.26251
G1 X95.121 Y134.511 E0.01105
G1 X93.753 Y133.942 E0.01100
G1 X92.538 Y133.082 E0.01105
G1 X91.542 Y131.975 E0.01105
G1 X91.094 Y131.259 E0.00627
G1 X90.740 Y130.493 E0.00627
G1 X90.485 Y129.688 E0.00627
G1 X90.333 Y128.857 E0.00627
G1 X90.321 Y121.661 E0.05341
G1 X90.613 Y120.273 E0.01053
G1 X91.191 Y118.978 E0.01053
G1 X92.028 Y117.833 E0.01053
G1 X93.042 Y116.929 E0.01008
G1 X92.175 Y117.937 F9000.000
G1 F1200.000
G1 X93.208 Y117.022 E0.01025
G1 X94.141 Y116.468 E0.00805
G1 X129.542 Y99.329 E0.29195
G1 X130.566 Y99.009 E0.00796
G1 X131.628 Y98.860 E0.00796
G1 X138.006 Y98.849 E0.04735
G1 X139.199 Y98.960 E0.00890
G1 X140.346 Y99.285 E0.00885
G1 X141.415 Y99.813 E0.00885
G1 X142.375 Y100.530 E0.00889
G1 X143.184 Y101.405 E0.00885
G1 X143.824 Y102.419 E0.00889
G1 X144.267 Y103.532 E0.00889
G1 X144.500 Y104.701 E0.00885
G1 X144.510 Y130.195 E0.18924
G1 X144.235 Y131.574 E0.01043
G1 X143.672 Y132.862 E0.01043
G1 X142.842 Y134.004 E0.01048
G1 X141.792 Y134.938 E0.01043
G1 X141.100 Y135.368 E0.00604
G1 X140.367 Y135.707 E0.00600
G1 X139.597 Y135.952 E0.00600
G1 X138.797 Y136.102 E0.00604
G1 X131.913 Y136.150 E0.05110
G1 X96.597 Y134.588 E0.26240
G1 X95.163 Y134.337 E0.01081
G1 X93.825 Y133.778 E0.01076
G1 X92.644 Y132.938 E0.01076
G1 X91.677 Y131.857 E0.01076
G1 X91.241 Y131.155 E0.00614
G1 X90.899 Y130.409 E0.00609
G1 X90.654 Y129.626 E0.00609
G1 X90.508 Y128.819 E0.00609
G1 X90.499 Y121.670 E0.05306
G1 X90.786 Y120.320 E0.01025
G1 X91.353 Y119.054 E0.01029
G1 X92.139 Y117.985 E0.00985
G1 X92.282 Y118.091 F9000.000
G1 F1200.000
G1 X93.325 Y117.158 E0.01038
G1 X94.219 Y116.629 E0.00771
G1 X129.609 Y99.495 E0.29186
G1 X130.607 Y99.182 E0.00776
G1 X131.648 Y99.038 E0.00781
G1 X138.006 Y99.028 E0.04719
G1 X139.164 Y99.135 E0.00863
G1 X140.289 Y99.455 E0.00868
G1 X141.332 Y99.971 E0.00863
G1 X142.262 Y100.669 E0.00863
G1 X143.050 Y101.524 E0.00863
G1 X143.669 Y102.509 E0.00863
G1 X144.100 Y103.596 E0.00868
G1 X144.324 Y104.738 E0.00863
G1 X144.332 Y130.175 E0.18882
G1 X144.064 Y131.522 E0.01020
G1 X143.513 Y132.781 E0.01020
G1 X142.704 Y133.891 E0.01020
G1 X141.675 Y134.802 E0.01020
G1 X140.290 Y135.545 E0.01167
G1 X138.759 Y135.927 E0.01171
G1 X131.907 Y135.972 E0.05086
G1 X96.613 Y134.410 E0.26224
G1 X95.217 Y134.167 E0.01052
G1 X93.909 Y133.620 E0.01052
G1 X92.755 Y132.797 E0.01052
G1 X91.812 Y131.739 E0.01052
G1 X91.393 Y131.061 E0.00591
G1 X91.060 Y130.331 E0.00596
G1 X90.824 Y129.570 E0.00591
G1 X90.683 Y128.779 E0.00596
G1 X90.677 Y121.692 E0.05261
G1 X90.957 Y120.372 E0.01001
G1 X91.509 Y119.141 E0.01001
G1 X92.247 Y118.139 E0.00924
G1 X92.391 Y118.246 F9000.000
G1 F1200.000
G1 X92.456 Y118.159 E0.00081
G1 X93.442 Y117.294 E0.00974
G1 X94.298 Y116.789 E0.00738
G1 X129.676 Y99.660 E0.29176
G1 X130.648 Y99.356 E0.00756
G1 X131.662 Y99.216 E0.00760
G1 X138.006 Y99.206 E0.04709
G1 X139.130 Y99.311 E0.00838
G1 X140.221 Y99.620 E0.00842
G1 X141.238 Y100.123 E0.00842
G1 X142.146 Y100.804 E0.00842
G1 X142.913 Y101.639 E0.00842
G1 X143.515 Y102.600 E0.00842
G1 X143.932 Y103.656 E0.00842
G1 X144.148 Y104.769 E0.00842
G1 X144.155 Y130.149 E0.18839
G1 X143.895 Y131.465 E0.00996
G1 X143.356 Y132.695 E0.00996
G1 X142.565 Y133.779 E0.00996
G1 X141.558 Y134.666 E0.00996
G1 X140.206 Y135.386 E0.01137
G1 X138.713 Y135.752 E0.01141
G1 X131.902 Y135.793 E0.05056
G1 X96.622 Y134.232 E0.26213
G1 X95.258 Y133.993 E0.01028
G1 X93.987 Y133.459 E0.01023
G1 X92.861 Y132.652 E0.01028
G1 X91.947 Y131.620 E0.01023
G1 X91.219 Y130.245 E0.01155
G1 X90.858 Y128.738 E0.01150
G1 X90.855 Y121.701 E0.05223
G1 X91.129 Y120.419 E0.00974
G1 X91.671 Y119.218 E0.00978
G1 X92.356 Y118.294 E0.00853
G1 E-0.35000 F2700.000
;WIPE_START
G1 F7200.000
G1 X92.456 Y118.159 E-0.06007
G1 X92.630 Y118.006 E-0.08243
;WIPE_END
G1 E-0.00750 F2700.000
G1 Z0.600 F9000.000
G1 X100.989 Y124.130
G1 Z0.100
G1 E0.50000 F2400.000
;TYPE:Perimeter
G1 F1200.000
G1 X101.238 Y123.759 E0.00332
G1 X101.547 Y123.449 E0.00324
G1 X101.739 Y123.306 E0.00178
G1 X102.128 Y123.099 E0.00327
G1 X102.555 Y122.969 E0.00332
G1 X102.986 Y122.926 E0.00322
G1 X123.224 Y122.936 E0.15022
G1 X123.662 Y123.023 E0.00332
G1 X124.075 Y123.194 E0.00332
G1 X124.446 Y123.443 E0.00332
G1 X124.762 Y123.759 E0.00332
G1 X125.011 Y124.130 E0.00332
G1 X125.182 Y124.543 E0.00332
G1 X125.269 Y124.982 E0.00332
G1 X125.269 Y125.428 E0.00332
G1 X125.184 Y125.857 E0.00324
G1 X125.103 Y126.083 E0.00178
G1 X124.896 Y126.472 E0.00327
G1 X124.612 Y126.817 E0.00332
G1 X124.274 Y127.095 E0.00324
G1 X124.069 Y127.218 E0.00178
G1 X123.662 Y127.387 E0.00327
G1 X123.223 Y127.474 E0.00332
G1 X102.777 Y127.474 E0.15177
G1 X102.338 Y127.387 E0.00332
G1 X101.925 Y127.216 E0.00332
G1 X101.554 Y126.967 E0.00332
G1 X101.238 Y126.651 E0.00332
G1 X100.989 Y126.280 E0.00332
G1 X100.818 Y125.867 E0.00332
G1 X100.731 Y125.428 E0.00332
G1 X100.731 Y124.982 E0.00332
G1 X100.818 Y124.543 E0.00332
G1 X100.966 Y124.186 E0.00287
G1 X101.148 Y124.215 F9000.000
;TYPE:External perimeter
G1 F1200.000
G1 X101.376 Y123.872 E0.00306
G1 X101.664 Y123.585 E0.00302
G1 X101.835 Y123.457 E0.00159
G1 X102.196 Y123.264 E0.00304
G1 X102.590 Y123.145 E0.00306
G1 X102.995 Y123.105 E0.00302
G1 X123.206 Y123.115 E0.15002
G1 X123.610 Y123.195 E0.00306
G1 X123.990 Y123.353 E0.00306
G1 X124.333 Y123.581 E0.00306
G1 X124.624 Y123.872 E0.00306
G1 X124.852 Y124.215 E0.00306
G1 X125.010 Y124.595 E0.00306
G1 X125.090 Y124.999 E0.00306
G1 X125.090 Y125.411 E0.00306
G1 X125.011 Y125.810 E0.00302
G1 X124.939 Y126.011 E0.00159
G1 X124.746 Y126.372 E0.00304
G1 X124.485 Y126.690 E0.00306
G1 X124.171 Y126.948 E0.00302
G1 X123.988 Y127.058 E0.00159
G1 X123.610 Y127.215 E0.00304
G1 X123.206 Y127.295 E0.00306
G1 X102.794 Y127.295 E0.15151
G1 X102.390 Y127.215 E0.00306
G1 X102.010 Y127.057 E0.00306
G1 X101.667 Y126.829 E0.00306
G1 X101.376 Y126.538 E0.00306
G1 X101.148 Y126.195 E0.00306
G1 X100.990 Y125.815 E0.00306
G1 X100.910 Y125.411 E0.00306
G1 X100.910 Y124.999 E0.00306
G1 X100.990 Y124.595 E0.00306
G1 X101.125 Y124.270 E0.00261
G1 X100.936 Y123.875 F9000.000
G1 X102.189 Y122.893
;TYPE:Perimeter
G1 F1200.000
G1 X102.059 Y122.933 E0.00101
G1 X101.643 Y123.155 E0.00350
G1 X101.430 Y123.314 E0.00198
G1 X101.099 Y123.645 E0.00347
G1 X100.831 Y124.046 E0.00358
G1 X100.647 Y124.491 E0.00358
G1 X100.553 Y124.964 E0.00358
G1 X100.553 Y125.446 E0.00358
G1 X100.647 Y125.919 E0.00358
G1 X100.831 Y126.364 E0.00358
G1 X101.099 Y126.765 E0.00358
G1 X101.440 Y127.106 E0.00358
G1 X101.841 Y127.374 E0.00358
G1 X102.199 Y127.522 E0.00288
G1 X102.182 Y127.609 E0.00065
G1 X97.457 Y127.608 E0.03507
G1 X97.457 Y122.802 E0.03567
G1 X102.175 Y122.802 E0.03502
G1 X102.180 Y122.834 E0.00024
G1 E-0.35000 F2700.000
;WIPE_START
G1 F7200.000
G1 X102.059 Y122.933 E-0.05570
G1 X101.844 Y123.048 E-0.08680
;WIPE_END
G1 E-0.00750 F2700.000
G1 Z0.600 F9000.000
G1 X133.234 Y125.865
G1 Z0.100
G1 E0.50000 F2400.000
G1 F1200.000
G1 X133.461 Y125.504 E0.00316
G1 X133.624 Y125.321 E0.00182
G1 X133.957 Y125.055 E0.00316
G1 X134.353 Y124.865 E0.00326
G1 X134.768 Y124.770 E0.00316
G1 X135.013 Y124.756 E0.00182
G1 X135.436 Y124.804 E0.00316
G1 X135.850 Y124.949 E0.00326
G1 X136.211 Y125.176 E0.00316
G1 X136.394 Y125.339 E0.00182
G1 X136.660 Y125.672 E0.00316
G1 X136.850 Y126.068 E0.00326
G1 X136.948 Y126.496 E0.00326
G1 X136.948 Y126.921 E0.00316
G1 X136.907 Y127.163 E0.00182
G1 X136.766 Y127.565 E0.00316
G1 X136.532 Y127.937 E0.00326
G1 X136.222 Y128.247 E0.00326
G1 X135.850 Y128.481 E0.00326
G1 X135.448 Y128.622 E0.00316
G1 X135.207 Y128.663 E0.00182
G1 X134.781 Y128.663 E0.00316
G1 X134.365 Y128.568 E0.00316
G1 X134.139 Y128.474 E0.00182
G1 X133.778 Y128.247 E0.00316
G1 X133.468 Y127.937 E0.00326
G1 X133.234 Y127.565 E0.00326
G1 X133.093 Y127.163 E0.00316
G1 X133.052 Y126.922 E0.00182
G1 X133.052 Y126.509 E0.00307
G1 X133.093 Y126.267 E0.00182
G1 X133.214 Y125.921 E0.00272
G1 X133.396 Y125.943 F9000.000
G1 F1200.000
G1 X133.604 Y125.612 E0.00290
G1 X133.747 Y125.451 E0.00160
G1 X134.053 Y125.208 E0.00290
G1 X134.412 Y125.035 E0.00296
G1 X134.793 Y124.948 E0.00290
G1 X135.008 Y124.936 E0.00160
G1 X135.396 Y124.979 E0.00290
G1 X135.772 Y125.111 E0.00296
G1 X136.103 Y125.319 E0.00290
G1 X136.264 Y125.462 E0.00160
G1 X136.507 Y125.768 E0.00290
G1 X136.680 Y126.127 E0.00296
G1 X136.769 Y126.516 E0.00296
G1 X136.769 Y126.906 E0.00290
G1 X136.733 Y127.119 E0.00160
G1 X136.604 Y127.487 E0.00290
G1 X136.392 Y127.825 E0.00296
G1 X136.110 Y128.107 E0.00296
G1 X135.772 Y128.319 E0.00296
G1 X135.404 Y128.448 E0.00290
G1 X135.191 Y128.484 E0.00160
G1 X134.801 Y128.484 E0.00290
G1 X134.420 Y128.397 E0.00290
G1 X134.221 Y128.315 E0.00160
G1 X133.890 Y128.107 E0.00290
G1 X133.608 Y127.825 E0.00296
G1 X133.396 Y127.487 E0.00296
G1 X133.267 Y127.119 E0.00290
G1 X133.231 Y126.906 E0.00160
G1 X133.231 Y126.524 E0.00284
G1 X133.267 Y126.311 E0.00160
G1 X133.376 Y125.999 E0.00246
G1 X133.440 Y126.356 F9000.000
;TYPE:External perimeter
G1 F1200.000
G1 X133.558 Y126.021 E0.00264
G1 X133.747 Y125.719 E0.00264
G1 X133.870 Y125.581 E0.00137
G1 X134.148 Y125.360 E0.00264
G1 X134.471 Y125.204 E0.00266
G1 X134.818 Y125.125 E0.00264
G1 X135.003 Y125.115 E0.00137
G1 X135.356 Y125.154 E0.00264
G1 X135.694 Y125.273 E0.00266
G1 X135.996 Y125.462 E0.00264
G1 X136.134 Y125.585 E0.00137
G1 X136.355 Y125.863 E0.00264
G1 X136.511 Y126.186 E0.00266
G1 X136.591 Y126.536 E0.00266
G1 X136.591 Y126.891 E0.00264
G1 X136.560 Y127.074 E0.00137
G1 X136.442 Y127.409 E0.00264
G1 X136.251 Y127.713 E0.00266
G1 X135.998 Y127.966 E0.00266
G1 X135.694 Y128.157 E0.00266
G1 X135.359 Y128.275 E0.00264
G1 X135.176 Y128.306 E0.00137
G1 X134.821 Y128.306 E0.00264
G1 X134.474 Y128.226 E0.00264
G1 X134.303 Y128.156 E0.00137
G1 X134.002 Y127.966 E0.00264
G1 X133.749 Y127.713 E0.00266
G1 X133.558 Y127.409 E0.00266
G1 X133.440 Y127.074 E0.00264
G1 X133.409 Y126.891 E0.00137
G1 X133.409 Y126.539 E0.00262
G1 X133.430 Y126.415 E0.00093
G1 X133.184 Y126.109 F9000.000
G1 E-0.35000 F2700.000
;WIPE_START
G1 F7200.000
G1 X133.553 Y126.035 E-0.14250
;WIPE_END
G1 E-0.00750 F2700.000
G1 Z0.600 F9000.000
G1 X134.150 Y110.051
G1 Z0.100
G1 E0.50000 F2400.000
;TYPE:Perimeter
G1 F1200.000
G1 X133.778 Y109.817 E0.00326
G1 X133.477 Y109.516 E0.00316
G1 X133.335 Y109.316 E0.00182
G1 X133.150 Y108.932 E0.00316
G1 X133.052 Y108.504 E0.00326
G1 X133.052 Y108.079 E0.00316
G1 X133.093 Y107.837 E0.00182
G1 X133.234 Y107.435 E0.00316
G1 X133.461 Y107.074 E0.00316
G1 X133.624 Y106.891 E0.00182
G1 X133.957 Y106.625 E0.00316
G1 X134.353 Y106.435 E0.00326
G1 X134.781 Y106.337 E0.00326
G1 X135.219 Y106.337 E0.00326
G1 X135.635 Y106.432 E0.00316
G1 X135.861 Y106.526 E0.00182
G1 X136.222 Y106.753 E0.00316
G1 X136.532 Y107.063 E0.00326
G1 X136.766 Y107.435 E0.00326
G1 X136.907 Y107.837 E0.00316
G1 X136.948 Y108.078 E0.00182
G1 X136.948 Y108.491 E0.00307
G1 X136.907 Y108.733 E0.00182
G1 X136.766 Y109.135 E0.00316
G1 X136.532 Y109.507 E0.00326
G1 X136.222 Y109.817 E0.00326
G1 X135.850 Y110.051 E0.00326
G1 X135.448 Y110.192 E0.00316
G1 X135.207 Y110.233 E0.00182
G1 X134.794 Y110.233 E0.00307
G1 X134.552 Y110.192 E0.00182
G1 X134.206 Y110.071 E0.00272
G1 X134.228 Y109.889 F9000.000
G1 F1200.000
G1 X133.890 Y109.677 E0.00296
G1 X133.614 Y109.401 E0.00290
G1 X133.489 Y109.225 E0.00160
G1 X133.320 Y108.873 E0.00290
G1 X133.231 Y108.484 E0.00296
G1 X133.231 Y108.094 E0.00290
G1 X133.267 Y107.881 E0.00160
G1 X133.396 Y107.513 E0.00290
G1 X133.604 Y107.182 E0.00290
G1 X133.747 Y107.021 E0.00160
G1 X134.053 Y106.778 E0.00290
G1 X134.412 Y106.605 E0.00296
G1 X134.801 Y106.516 E0.00296
G1 X135.199 Y106.516 E0.00296
G1 X135.580 Y106.603 E0.00290
G1 X135.779 Y106.685 E0.00160
G1 X136.110 Y106.893 E0.00290
G1 X136.392 Y107.175 E0.00296
G1 X136.604 Y107.513 E0.00296
G1 X136.733 Y107.881 E0.00290
G1 X136.769 Y108.094 E0.00160
G1 X136.769 Y108.476 E0.00284
G1 X136.733 Y108.689 E0.00160
G1 X136.604 Y109.057 E0.00290
G1 X136.392 Y109.395 E0.00296
G1 X136.110 Y109.677 E0.00296
G1 X135.772 Y109.889 E0.00296
G1 X135.404 Y110.018 E0.00290
G1 X135.191 Y110.054 E0.00160
G1 X134.809 Y110.054 E0.00284
G1 X134.596 Y110.018 E0.00160
G1 X134.284 Y109.909 E0.00246
G1 X134.641 Y109.845 F9000.000
;TYPE:External perimeter
G1 F1200.000
G1 X134.306 Y109.727 E0.00264
G1 X134.002 Y109.536 E0.00266
G1 X133.751 Y109.285 E0.00264
G1 X133.643 Y109.134 E0.00137
G1 X133.489 Y108.814 E0.00264
G1 X133.409 Y108.464 E0.00266
G1 X133.409 Y108.109 E0.00264
G1 X133.440 Y107.926 E0.00137
G1 X133.558 Y107.591 E0.00264
G1 X133.747 Y107.289 E0.00264
G1 X133.870 Y107.151 E0.00137
G1 X134.148 Y106.930 E0.00264
G1 X134.471 Y106.774 E0.00266
G1 X134.821 Y106.694 E0.00266
G1 X135.179 Y106.694 E0.00266
G1 X135.526 Y106.774 E0.00264
G1 X135.697 Y106.844 E0.00137
G1 X135.998 Y107.034 E0.00264
G1 X136.251 Y107.287 E0.00266
G1 X136.442 Y107.591 E0.00266
G1 X136.560 Y107.926 E0.00264
G1 X136.591 Y108.109 E0.00137
G1 X136.591 Y108.461 E0.00262
G1 X136.560 Y108.644 E0.00137
G1 X136.442 Y108.979 E0.00264
G1 X136.251 Y109.283 E0.00266
G1 X135.998 Y109.536 E0.00266
G1 X135.694 Y109.727 E0.00266
G1 X135.359 Y109.845 E0.00264
G1 X135.176 Y109.876 E0.00137
G1 X134.824 Y109.876 E0.00262
G1 X134.700 Y109.855 E0.00093
G1 X134.394 Y110.101 F9000.000
G1 E-0.35000 F2700.000
;WIPE_START
G1 F7200.000
G1 X134.320 Y109.732 E-0.14250
;WIPE_END
G1 E-0.00750 F2700.000
G1 Z0.600 F9000.000
G1 X132.457 Y105.842
G1 Z0.100
G1 E0.50000 F2400.000
;TYPE:Perimeter
G1 F1200.000
G1 X137.543 Y105.842 E0.03775
G1 X137.543 Y129.158 E0.17307
G1 X132.388 Y129.158 E0.03826
G1 X132.332 Y128.799 E0.00270
G1 X132.234 Y128.517 E0.00221
G1 X132.045 Y128.228 E0.00256
G1 X131.803 Y128.001 E0.00247
G1 X131.483 Y127.808 E0.00277
G1 X131.113 Y127.676 E0.00292
G1 X130.698 Y127.612 E0.00312
G1 X123.812 Y127.611 E0.05111
G1 X123.795 Y127.525 E0.00065
G1 X124.149 Y127.378 E0.00284
G1 X124.378 Y127.241 E0.00198
G1 X124.739 Y126.944 E0.00347
G1 X125.045 Y126.571 E0.00358
G1 X125.267 Y126.156 E0.00350
G1 X125.356 Y125.905 E0.00198
G1 X125.447 Y125.446 E0.00347
G1 X125.447 Y124.964 E0.00358
G1 X125.353 Y124.491 E0.00358
G1 X125.169 Y124.046 E0.00358
G1 X124.901 Y123.645 E0.00358
G1 X124.560 Y123.304 E0.00358
G1 X124.159 Y123.036 E0.00358
