; generated by PrusaSlicer 2.3.0-rc2+ on 2021-01-19 at 19:50:28 UTC

; 

; external perimeters extrusion width = 0.45mm
; perimeters extrusion width = 0.45mm
; infill extrusion width = 0.45mm
; solid infill extrusion width = 0.45mm
; top infill extrusion width = 0.40mm
; support material extrusion width = 0.38mm
; first layer extrusion width = 0.42mm

M201 X500 Y500 Z100 E5000 ; sets maximum accelerations, mm/sec^2
M203 X500 Y500 Z10 E60 ; sets maximum feedrates, mm/sec
M204 P500 R1000 T500 ; sets acceleration (P, T) and retract acceleration (R), mm/sec^2
M205 X8.00 Y8.00 Z0.40 E5.00 ; sets the jerk limits, mm/sec
M205 S0 T0 ; sets the minimum extruding and travel feed rate, mm/sec
M107
M190 S70 ; set bed temperature and wait for it to be reached
M104 S200 ; set temperature
;TYPE:Custom
G28 ; Home
M109 S200 ; set temperature and wait for it to be reached
G21 ; set units to millimeters
G90 ; use absolute coordinates
M83 ; use relative distances for extrusion
; Filament gcode
;LAYER_CHANGE
;Z:0.2
;HEIGHT:0.2
;BEFORE_LAYER_CHANGE
;0.2


G1 E-5.00000 F3600.000
G1 Z0.500 F9000.000
;AFTER_LAYER_CHANGE
;0.2
G1 X70.811 Y82.775
G1 Z0.200
G1 E5.00000 F2400.000
;TYPE:Skirt
;WIDTH:0.42
G1 F1200.000
G1 X71.685 Y82.027 E0.03605
G1 X72.672 Y81.356 E0.03742
G1 X74.401 Y80.504 E0.06044
G1 X75.516 Y80.135 E0.03684
G1 X76.598 Y79.904 E0.03468
G1 X78.189 Y79.754 E0.05010
G1 X114.025 Y79.750 E1.12363
G1 X115.112 Y79.809 E0.03412
G1 X116.850 Y80.120 E0.05537
G1 X118.486 Y80.696 E0.05440
G1 X119.519 Y81.216 E0.03625
G1 X120.427 Y81.803 E0.03390
G1 X121.702 Y82.856 E0.05186
G1 X143.413 Y106.191 E0.99934
G1 X144.110 Y107.117 E0.03633
G1 X144.628 Y108.153 E0.03633
G1 X144.945 Y109.242 E0.03555
G1 X145.064 Y110.370 E0.03555
G1 X145.058 Y134.147 E0.74553
G1 X144.909 Y135.271 E0.03555
G1 X144.565 Y136.346 E0.03536
G1 X144.035 Y137.348 E0.03555
G1 X143.335 Y138.240 E0.03555
G1 X142.468 Y139.009 E0.03633
G1 X141.481 Y139.605 E0.03614
G1 X140.398 Y140.016 E0.03633
G1 X139.264 Y140.224 E0.03614
G1 X125.068 Y140.249 E0.44513
G1 X123.502 Y140.035 E0.04956
G1 X76.296 Y122.107 E1.58325
G1 X75.084 Y121.568 E0.04157
G1 X73.869 Y120.879 E0.04380
G1 X72.733 Y120.077 E0.04360
G1 X71.709 Y119.192 E0.04243
G1 X70.730 Y118.162 E0.04458
G1 X69.985 Y117.209 E0.03793
G1 X68.956 Y115.544 E0.06136
G1 X68.439 Y114.457 E0.03774
G1 X67.967 Y113.163 E0.04321
G1 X67.626 Y111.840 E0.04282
G1 X67.428 Y110.590 E0.03969
G1 X67.335 Y109.021 E0.04926
G1 X67.336 Y90.758 E0.57262
G1 X67.426 Y89.411 E0.04233
G1 X67.667 Y88.141 E0.04055
G1 X68.311 Y86.291 E0.06141
G1 X68.845 Y85.245 E0.03683
G1 X69.550 Y84.183 E0.03996
G1 X70.771 Y82.819 E0.05739
G1 E-3.50000 F3600.000
;WIPE_START
G1 F7200.000
G1 X71.685 Y82.027 E-0.57440
G1 X72.672 Y81.356 E-0.56694
G1 X73.207 Y81.092 E-0.28365
;WIPE_END
G1 E-0.07500 F3600.000
G1 Z0.700 F9000.000
G1 X83.232 Y88.097
G1 Z0.200
G1 E5.00000 F2400.000
G1 F1200.000
G1 X83.400 Y88.198 E0.00614
G1 X83.787 Y88.585 E0.01718
G1 X83.952 Y88.911 E0.01144
G1 X83.979 Y89.025 E0.00369
G1 X83.982 Y101.598 E0.39421
G1 X83.789 Y102.190 E0.01951
G1 X108.684 Y102.190 E0.78055
G1 X108.475 Y101.748 E0.01531
G1 X108.443 Y101.595 E0.00492
G1 X108.443 Y89.057 E0.39312
G1 X108.557 Y88.710 E0.01144
G1 X108.619 Y88.610 E0.00371
G1 X109.026 Y88.198 E0.01816
G1 X109.193 Y88.097 E0.00612
G1 X109.193 Y85.858 E0.07019
G1 X109.325 Y85.475 E0.01270
G1 X109.388 Y85.385 E0.00345
G1 X109.771 Y85.003 E0.01697
G1 X110.096 Y84.838 E0.01144
G1 X110.211 Y84.811 E0.00369
G1 X114.043 Y84.808 E0.12015
G1 X114.772 Y84.856 E0.02292
G1 X115.546 Y85.006 E0.02471
G1 X116.294 Y85.257 E0.02475
G1 X117.024 Y85.615 E0.02549
G1 X117.718 Y86.083 E0.02623
G1 X118.269 Y86.571 E0.02308
G1 X118.757 Y87.122 E0.02310
G1 X119.213 Y87.795 E0.02548
G1 X119.574 Y88.524 E0.02551
G1 X119.833 Y89.293 E0.02545
G1 X119.980 Y90.042 E0.02392
G1 X120.032 Y90.809 E0.02410
G1 X120.032 Y102.140 E0.35528
G1 X120.069 Y102.868 E0.02285
G1 X120.172 Y103.555 E0.02180
G1 X120.344 Y104.230 E0.02183
G1 X120.580 Y104.879 E0.02166
G1 X120.883 Y105.508 E0.02190
G1 X121.246 Y106.101 E0.02180
G1 X121.669 Y106.660 E0.02197
G1 X122.016 Y107.043 E0.01619
G1 X122.530 Y107.520 E0.02199
G1 X123.078 Y107.935 E0.02157
G1 X123.838 Y108.384 E0.02766
G1 X124.300 Y108.603 E0.01604
G1 X124.956 Y108.842 E0.02190
G1 X125.630 Y109.013 E0.02180
G1 X126.317 Y109.117 E0.02180
G1 X127.045 Y109.153 E0.02285
G1 X138.958 Y109.153 E0.37352
G1 X139.305 Y109.267 E0.01144
G1 X139.405 Y109.329 E0.00371
G1 X139.810 Y109.729 E0.01785
G1 X139.894 Y109.858 E0.00482
G1 X140.007 Y110.202 E0.01136
G1 X140.007 Y134.144 E0.75066
G1 X139.894 Y134.488 E0.01136
G1 X139.810 Y134.616 E0.00479
G1 X139.379 Y135.033 E0.01881
G1 X139.108 Y135.161 E0.00941
G1 X138.953 Y135.193 E0.00494
G1 X124.769 Y135.143 E0.44474
G1 X78.191 Y117.419 E1.56257
G1 X77.391 Y117.068 E0.02739
G1 X76.618 Y116.633 E0.02782
G1 X75.813 Y116.065 E0.03089
G1 X75.131 Y115.467 E0.02843
G1 X74.526 Y114.818 E0.02782
G1 X73.976 Y114.098 E0.02843
G1 X73.510 Y113.342 E0.02784
G1 X73.113 Y112.527 E0.02842
G1 X72.807 Y111.694 E0.02781
G1 X72.579 Y110.817 E0.02842
G1 X72.443 Y109.939 E0.02785
G1 X72.393 Y109.008 E0.02923
G1 X72.393 Y90.808 E0.57065
G1 X72.452 Y89.990 E0.02572
G1 X72.605 Y89.244 E0.02388
G1 X72.852 Y88.523 E0.02389
G1 X73.187 Y87.840 E0.02385
G1 X73.605 Y87.204 E0.02386
G1 X74.119 Y86.608 E0.02467
G1 X74.707 Y86.084 E0.02470
G1 X75.380 Y85.627 E0.02552
G1 X76.062 Y85.286 E0.02390
G1 X76.804 Y85.027 E0.02465
G1 X77.601 Y84.863 E0.02552
G1 X78.394 Y84.807 E0.02492
G1 X82.183 Y84.807 E0.11880
G1 X82.291 Y84.826 E0.00345
G1 X82.655 Y85.004 E0.01270
G1 X83.037 Y85.385 E0.01693
G1 X83.201 Y85.709 E0.01136
G1 X83.232 Y85.860 E0.00484
G1 X83.232 Y88.037 E0.06825
G1 X82.855 Y88.345 F9000.000
G1 F1200.000
G1 X83.162 Y88.493 E0.01068
G1 X83.496 Y88.827 E0.01480
G1 X83.605 Y89.077 E0.00856
G1 X83.605 Y101.563 E0.39147
G1 X83.506 Y101.816 E0.00854
G1 X82.905 Y102.406 E0.02639
G1 X83.288 Y102.547 E0.01279
G1 X83.464 Y102.567 E0.00556
G1 X108.968 Y102.567 E0.79966
G1 X109.553 Y102.453 E0.01867
G1 X108.929 Y101.827 E0.02768
G1 X108.820 Y101.577 E0.00857
G1 X108.820 Y89.092 E0.39147
G1 X108.919 Y88.837 E0.00856
G1 X109.263 Y88.494 E0.01524
G1 X109.570 Y88.345 E0.01068
G1 X109.570 Y85.892 E0.07694
G1 X109.651 Y85.664 E0.00757
G1 X110.013 Y85.294 E0.01622
G1 X110.263 Y85.185 E0.00856
G1 X114.025 Y85.185 E0.11796
G1 X114.712 Y85.228 E0.02159
G1 X115.461 Y85.374 E0.02393
G1 X116.161 Y85.610 E0.02317
G1 X116.845 Y85.948 E0.02391
G1 X117.477 Y86.374 E0.02389
G1 X118.010 Y86.845 E0.02232
G1 X118.466 Y87.362 E0.02161
G1 X118.893 Y87.996 E0.02395
G1 X119.221 Y88.658 E0.02316
G1 X119.466 Y89.379 E0.02388
G1 X119.608 Y90.103 E0.02313
G1 X119.655 Y90.815 E0.02238
G1 X119.655 Y102.149 E0.35538
G1 X119.693 Y102.905 E0.02373
G1 X119.802 Y103.630 E0.02298
G1 X119.983 Y104.341 E0.02301
G1 X120.232 Y105.026 E0.02284
G1 X120.552 Y105.689 E0.02308
G1 X120.934 Y106.314 E0.02298
G1 X121.378 Y106.901 E0.02308
G1 X121.747 Y107.308 E0.01722
G1 X122.287 Y107.809 E0.02309
G1 X122.868 Y108.249 E0.02284
G1 X123.661 Y108.717 E0.02888
G1 X124.155 Y108.951 E0.01713
G1 X124.845 Y109.202 E0.02304
G1 X125.555 Y109.383 E0.02298
G1 X126.280 Y109.492 E0.02298
G1 X127.036 Y109.530 E0.02373
G1 X138.923 Y109.530 E0.37271
G1 X139.177 Y109.630 E0.00856
G1 X139.549 Y110.010 E0.01666
G1 X139.630 Y110.237 E0.00757
G1 X139.630 Y134.108 E0.74846
G1 X139.530 Y134.363 E0.00856
G1 X139.187 Y134.706 E0.01522
G1 X138.937 Y134.816 E0.00858
G1 X124.871 Y134.778 E0.44101
G1 X78.330 Y117.068 E1.56135
G1 X77.552 Y116.726 E0.02665
G1 X76.811 Y116.310 E0.02664
G1 X76.054 Y115.775 E0.02907
G1 X75.400 Y115.202 E0.02724
G1 X74.819 Y114.582 E0.02665
G1 X74.291 Y113.891 E0.02725
G1 X73.845 Y113.168 E0.02666
G1 X73.464 Y112.387 E0.02725
G1 X73.169 Y111.590 E0.02663
G1 X72.950 Y110.750 E0.02723
G1 X72.817 Y109.891 E0.02725
G1 X72.770 Y109.003 E0.02786
G1 X72.770 Y90.815 E0.57029
G1 X72.824 Y90.053 E0.02394
G1 X72.966 Y89.354 E0.02236
G1 X73.204 Y88.657 E0.02312
G1 X73.519 Y88.018 E0.02233
G1 X73.913 Y87.423 E0.02236
G1 X74.396 Y86.865 E0.02315
G1 X74.947 Y86.374 E0.02315
G1 X75.581 Y85.947 E0.02395
G1 X76.219 Y85.629 E0.02236
G1 X76.915 Y85.387 E0.02311
G1 X77.664 Y85.235 E0.02395
G1 X78.400 Y85.184 E0.02315
G1 X82.162 Y85.184 E0.11795
G1 X82.413 Y85.294 E0.00856
G1 X82.746 Y85.627 E0.01477
G1 X82.855 Y85.877 E0.00856
G1 X82.855 Y88.285 E0.07550
G1 X82.478 Y88.761 F9000.000
G1 F1200.000
G1 X82.856 Y88.761 E0.01185
G1 X82.926 Y88.790 E0.00235
G1 X83.199 Y89.064 E0.01215
G1 X83.228 Y89.133 E0.00235
G1 X83.228 Y101.521 E0.38840
G1 X83.199 Y101.590 E0.00235
G1 X82.925 Y101.864 E0.01215
G1 X82.856 Y101.893 E0.00235
G1 X82.468 Y101.893 E0.01216
G1 X82.505 Y102.217 E0.01022
G1 X82.574 Y102.413 E0.00654
G1 X82.685 Y102.590 E0.00654
G1 X82.832 Y102.737 E0.00654
G1 X83.008 Y102.848 E0.00654
G1 X83.205 Y102.917 E0.00654
G1 X83.443 Y102.944 E0.00751
G1 X108.982 Y102.944 E0.80075
G1 X109.220 Y102.917 E0.00751
G1 X109.416 Y102.848 E0.00654
G1 X109.593 Y102.737 E0.00654
G1 X109.740 Y102.590 E0.00654
G1 X109.851 Y102.413 E0.00654
G1 X109.920 Y102.217 E0.00654
G1 X109.957 Y101.893 E0.01022
G1 X109.569 Y101.893 E0.01216
G1 X109.499 Y101.864 E0.00235
G1 X109.226 Y101.590 E0.01215
G1 X109.197 Y101.521 E0.00235
G1 X109.197 Y89.134 E0.38840
G1 X109.226 Y89.064 E0.00235
G1 X109.500 Y88.790 E0.01215
G1 X109.569 Y88.762 E0.00235
G1 X109.947 Y88.762 E0.01185
G1 X109.947 Y85.934 E0.08867
G1 X109.976 Y85.864 E0.00235
G1 X110.250 Y85.590 E0.01215
G1 X110.319 Y85.562 E0.00235
G1 X114.019 Y85.562 E0.11601
G1 X114.675 Y85.604 E0.02063
G1 X115.376 Y85.742 E0.02238
G1 X116.028 Y85.963 E0.02161
G1 X116.646 Y86.268 E0.02159
G1 X117.237 Y86.665 E0.02234
G1 X117.735 Y87.104 E0.02081
G1 X118.175 Y87.602 E0.02084
G1 X118.573 Y88.195 E0.02239
G1 X118.877 Y88.813 E0.02160
G1 X119.098 Y89.465 E0.02157
G1 X119.233 Y90.140 E0.02160
G1 X119.278 Y90.821 E0.02140
G1 X119.278 Y102.159 E0.35548
G1 X119.317 Y102.943 E0.02462
G1 X119.432 Y103.705 E0.02416
G1 X119.622 Y104.452 E0.02419
G1 X119.884 Y105.172 E0.02402
G1 X120.220 Y105.870 E0.02426
G1 X120.622 Y106.527 E0.02416
G1 X121.088 Y107.142 E0.02419
G1 X121.479 Y107.573 E0.01825
G1 X122.044 Y108.098 E0.02419
G1 X122.657 Y108.562 E0.02411
G1 X123.484 Y109.051 E0.03010
G1 X124.009 Y109.299 E0.01822
G1 X124.734 Y109.563 E0.02418
G1 X125.480 Y109.753 E0.02416
G1 X126.242 Y109.868 E0.02416
G1 X127.026 Y109.907 E0.02462
G1 X138.881 Y109.907 E0.37170
G1 X138.950 Y109.936 E0.00235
G1 X139.224 Y110.210 E0.01215
G1 X139.253 Y110.279 E0.00235
G1 X139.253 Y134.067 E0.74584
G1 X139.224 Y134.136 E0.00235
G1 X138.950 Y134.410 E0.01215
G1 X138.881 Y134.439 E0.00235
G1 X124.973 Y134.414 E0.43607
G1 X78.468 Y116.717 E1.56012
G1 X77.712 Y116.385 E0.02590
G1 X77.005 Y115.986 E0.02547
G1 X76.295 Y115.484 E0.02726
G1 X75.669 Y114.937 E0.02606
G1 X75.113 Y114.345 E0.02547
G1 X74.607 Y113.685 E0.02606
G1 X74.171 Y112.978 E0.02606
G1 X73.807 Y112.230 E0.02606
G1 X73.526 Y111.469 E0.02546
G1 X73.318 Y110.664 E0.02605
G1 X73.191 Y109.843 E0.02606
G1 X73.147 Y108.999 E0.02651
G1 X73.147 Y90.821 E0.56994
G1 X73.196 Y90.115 E0.02219
G1 X73.327 Y89.464 E0.02083
G1 X73.548 Y88.811 E0.02160
G1 X73.841 Y88.215 E0.02081
G1 X74.220 Y87.641 E0.02158
G1 X74.672 Y87.122 E0.02159
G1 X75.188 Y86.665 E0.02159
G1 X75.780 Y86.267 E0.02238
G1 X76.375 Y85.972 E0.02082
G1 X77.026 Y85.748 E0.02158
G1 X77.726 Y85.607 E0.02238
G1 X78.407 Y85.561 E0.02140
G1 X82.106 Y85.562 E0.11600
G1 X82.176 Y85.590 E0.00235
G1 X82.449 Y85.864 E0.01215
G1 X82.478 Y85.933 E0.00235
G1 X82.478 Y88.701 E0.08679
G1 X82.101 Y89.139 F9000.000
G1 F1200.000
G1 X82.741 Y89.139 E0.02005
G1 X82.851 Y89.249 E0.00490
G1 X82.851 Y101.405 E0.38115
G1 X82.741 Y101.516 E0.00490
G1 X82.101 Y101.516 E0.02005
G1 X82.101 Y102.000 E0.01518
G1 X82.135 Y102.301 E0.00950
G1 X82.232 Y102.578 E0.00920
G1 X82.388 Y102.826 E0.00920
G1 X82.595 Y103.034 E0.00920
G1 X82.844 Y103.190 E0.00920
G1 X83.121 Y103.287 E0.00920
G1 X83.422 Y103.321 E0.00950
G1 X109.003 Y103.321 E0.80208
G1 X109.304 Y103.287 E0.00950
G1 X109.581 Y103.190 E0.00920
G1 X109.830 Y103.034 E0.00920
G1 X110.037 Y102.827 E0.00920
G1 X110.193 Y102.578 E0.00920
G1 X110.290 Y102.301 E0.00920
G1 X110.324 Y102.000 E0.00950
G1 X110.324 Y101.516 E0.01518
G1 X109.684 Y101.516 E0.02005
G1 X109.574 Y101.405 E0.00490
G1 X109.574 Y89.249 E0.38115
G1 X109.684 Y89.139 E0.00490
G1 X110.324 Y89.139 E0.02005
G1 X110.324 Y86.049 E0.09687
G1 X110.434 Y85.939 E0.00490
G1 X114.013 Y85.939 E0.11219
G1 X114.638 Y85.979 E0.01966
G1 X115.289 Y86.109 E0.02081
G1 X115.894 Y86.316 E0.02004
G1 X116.467 Y86.600 E0.02005
G1 X116.998 Y86.957 E0.02006
G1 X117.460 Y87.362 E0.01929
G1 X117.883 Y87.842 E0.02005
G1 X118.252 Y88.394 E0.02081
G1 X118.533 Y88.968 E0.02005
G1 X118.731 Y89.550 E0.01928
G1 X118.860 Y90.201 E0.02082
G1 X118.901 Y90.827 E0.01966
G1 X118.901 Y102.168 E0.35559
G1 X118.942 Y102.981 E0.02550
G1 X119.062 Y103.780 E0.02534
G1 X119.261 Y104.562 E0.02532
G1 X119.467 Y105.136 E0.01911
G1 X119.539 Y105.324 E0.00629
G1 X119.889 Y106.050 E0.02529
G1 X120.310 Y106.740 E0.02534
G1 X120.797 Y107.383 E0.02530
G1 X121.210 Y107.838 E0.01928
G1 X121.802 Y108.387 E0.02529
G1 X122.447 Y108.876 E0.02538
G1 X123.307 Y109.384 E0.03133
G1 X123.864 Y109.648 E0.01931
G1 X124.622 Y109.924 E0.02532
G1 X125.406 Y110.123 E0.02534
G1 X126.205 Y110.244 E0.02534
G1 X127.017 Y110.284 E0.02550
G1 X138.765 Y110.284 E0.36837
G1 X138.876 Y110.395 E0.00490
G1 X138.876 Y133.951 E0.73859
G1 X138.765 Y134.061 E0.00489
G1 X125.075 Y134.049 E0.42925
G1 X78.607 Y116.367 E1.55890
G1 X77.889 Y116.052 E0.02458
G1 X77.198 Y115.662 E0.02487
G1 X76.535 Y115.194 E0.02546
G1 X75.937 Y114.672 E0.02487
G1 X75.394 Y114.094 E0.02487
G1 X74.913 Y113.464 E0.02487
G1 X74.497 Y112.788 E0.02487
G1 X74.151 Y112.075 E0.02487
G1 X73.883 Y111.348 E0.02428
G1 X73.685 Y110.579 E0.02487
G1 X73.565 Y109.795 E0.02487
G1 X73.524 Y108.994 E0.02516
G1 X73.524 Y90.827 E0.56960
G1 X73.568 Y90.177 E0.02043
G1 X73.694 Y89.550 E0.02005
G1 X73.901 Y88.945 E0.02006
G1 X74.173 Y88.393 E0.01929
G1 X74.527 Y87.861 E0.02006
G1 X74.948 Y87.379 E0.02005
G1 X75.427 Y86.956 E0.02004
G1 X75.979 Y86.588 E0.02081
G1 X76.531 Y86.316 E0.01928
G1 X77.136 Y86.109 E0.02005
G1 X77.787 Y85.979 E0.02081
G1 X78.412 Y85.939 E0.01966
G1 X81.991 Y85.939 E0.11219
G1 X82.101 Y86.049 E0.00490
G1 X82.101 Y89.079 E0.09499
G1 E-3.50000 F3600.000
;WIPE_START
G1 F7200.000
G1 X82.741 Y89.139 E-0.30512
G1 X82.851 Y89.249 E-0.07419
G1 X82.851 Y91.450 E-1.04568
;WIPE_END
G1 E-0.07500 F3600.000
G1 Z0.700 F9000.000
G1 X111.951 Y89.079
G1 Z0.200
G1 E5.00000 F2400.000
G1 F1200.000
G1 X111.951 Y89.016 E0.00197
G1 X113.324 Y89.016 E0.04305
G1 X113.324 Y101.639 E0.39578
G1 X111.951 Y101.639 E0.04305
G1 X111.951 Y89.139 E0.39193
G1 X112.328 Y89.393 F9000.000
G1 F1200.000
G1 X112.947 Y89.393 E0.01940
G1 X112.947 Y101.262 E0.37214
G1 X112.328 Y101.262 E0.01940
G1 X112.328 Y89.453 E0.37026
G1 E-3.50000 F3600.000
;WIPE_START
G1 F7200.000
G1 X112.947 Y89.393 E-0.29529
G1 X112.947 Y91.771 E-1.12971
;WIPE_END
G1 E-0.07500 F3600.000
G1 Z0.700 F9000.000
G1 X80.474 Y89.016
G1 Z0.200
G1 E5.00000 F2400.000
G1 F1200.000
G1 X80.474 Y101.639 E0.39578
G1 X79.101 Y101.639 E0.04305
G1 X79.101 Y89.016 E0.39578
G1 X80.414 Y89.016 E0.04117
G1 X80.097 Y89.393 F9000.000
G1 F1200.000
G1 X80.097 Y101.261 E0.37214
G1 X79.478 Y101.261 E0.01940
G1 X79.478 Y89.393 E0.37214
G1 X80.037 Y89.393 E0.01752
G1 E-3.50000 F3600.000
;WIPE_START
G1 F7200.000
G1 X80.052 Y92.393 E-1.42500
;WIPE_END
G1 E-0.07500 F3600.000
G1 Z0.700 F9000.000
G1 X109.973 Y89.537
G1 Z0.200
G1 E5.00000 F2400.000
;TYPE:External perimeter
G1 F1200.000
G1 X111.553 Y89.537 E0.04954
G1 X111.552 Y101.117 E0.36308
G1 X109.972 Y101.117 E0.04954
G1 X109.973 Y89.597 E0.36120
G1 X110.328 Y89.721 F9000.000
G1 X110.350 Y89.914
;TYPE:Perimeter
G1 F1200.000
G1 X111.175 Y89.914 E0.02589
G1 X111.175 Y100.740 E0.33944
G1 X110.350 Y100.740 E0.02589
G1 X110.350 Y89.974 E0.33756
G1 E-3.50000 F3600.000
;WIPE_START
G1 F7200.000
G1 X111.175 Y89.914 E-0.39331
G1 X111.175 Y92.086 E-1.03169
;WIPE_END
